hollywood-luts/Alita, Battle Angel.cube
TITLE "17x17x17 Adobe/IRIDAS cube 3D LUT exported with GrossGrade v0.2.2 (beta) 64 bit"
DOMAIN_MIN 0 0 0
DOMAIN_MAX 1 1 1
LUT_3D_SIZE 17
0.000000000 0.000000000 0.000000000
0.030191248 -0.000254062 -0.000254062
0.069129005 -0.000508125 -0.000508125
0.106672443 -0.000762188 -0.000762188
0.142308503 -0.001016250 -0.001016250
0.177579060 -0.001270312 -0.001270312
0.214401260 -0.001524375 -0.001524375
0.255693257 -0.001778438 -0.001778438
0.302028000 -0.002032500 -0.002032500
0.352078438 -0.002287000 -0.002287000
0.404929638 -0.002541250 -0.002541250
0.459199637 -0.002794687 -0.002794687
0.511859000 -0.003049000 -0.003049000
0.560511947 -0.003303813 -0.003303813
0.604088545 -0.003557750 -0.003557750
0.643025100 -0.003810813 -0.003810813
0.679130018 -0.004063000 -0.004063000
0.010832813 0.036694687 0.010832813
0.039174374 0.032859378 -0.000450937
0.074411750 0.027412187 -0.000629750
0.110078067 0.026033185 -0.000840250
0.144393504 0.025618875 -0.001070438
0.179433733 0.025434876 -0.001310375
0.216118440 0.025377812 -0.001555938
0.256868511 0.024915000 -0.001804125
0.302660882 0.024600437 -0.002053937
0.352627307 0.024582624 -0.002304937
0.405610621 0.024564499 -0.002556438
0.459837109 0.024544688 -0.002808437
0.512447417 0.024524998 -0.003061375
0.561138034 0.024506750 -0.003313938
0.604537010 0.024488563 -0.003567125
0.643313825 0.024563251 -0.003820063
0.679287493 0.025737312 -0.004070500
0.026226126 0.092983253 0.026226126
0.048066437 0.092037186 0.022323875
0.092973500 0.084351875 -0.000900125
0.126739949 0.075203314 -0.001073563
0.158152759 0.070501871 -0.001252625
0.190438807 0.067832127 -0.001455250
0.225022629 0.066038750 -0.001672875
0.263946146 0.064886250 -0.001901000
0.308492750 0.064054251 -0.002135875
0.357623339 0.063644938 -0.002375375
0.409817517 0.063519746 -0.002617625
0.463241726 0.063296311 -0.002862312
0.515262127 0.062841244 -0.003109750
0.563718379 0.062757626 -0.003357438
0.606883109 0.062756255 -0.003606500
0.645531535 0.062830254 -0.003855500
0.681323647 0.063920125 -0.004103375
0.039665315 0.154057071 0.039665315
0.056866623 0.153488010 0.037726004
0.102263190 0.149956197 0.024926316
0.145300135 0.140435070 -0.001349188
0.178127810 0.129979134 -0.001531625
0.209072500 0.122414507 -0.001694313
0.241867214 0.117003515 -0.001876438
0.278944224 0.112971514 -0.002075375
0.321383953 0.109993890 -0.002286625
0.368577689 0.107987508 -0.002506813
0.419257790 0.106697328 -0.002733687
0.471513629 0.105819628 -0.002965437
0.522479892 0.105075195 -0.003201750
0.570094466 0.104669444 -0.003440625
0.612706006 0.104432061 -0.003681813
0.650753140 0.104247317 -0.003924250
0.686175227 0.104884073 -0.004166500
0.049735751 0.216034994 0.049735751
0.064255558 0.215684190 0.048308313
0.107758120 0.212791637 0.041145876
0.155040592 0.207927004 0.024340745
0.195356995 0.197763756 -0.001801250
0.228990495 0.186277196 -0.001995563
0.262247384 0.176625252 -0.002148250
0.298501223 0.168685064 -0.002316125
0.339658737 0.162279248 -0.002500500
0.385052055 0.157452315 -0.002697625
0.433764488 0.154057384 -0.002904500
0.484369099 0.151686877 -0.003119375
0.533995986 0.150055498 -0.003341000
0.580418766 0.148863003 -0.003567188
0.622126818 0.148078248 -0.003797250
0.659406900 0.147507623 -0.004030625
0.694248736 0.147672504 -0.004264000
0.056039061 0.279613674 0.056039061
0.069752753 0.279267550 0.055167001
0.111887686 0.276846260 0.050727438
0.159669772 0.272636801 0.040929060
0.205061629 0.266873896 0.023908874
0.245575771 0.256720126 -0.002260938
0.281935751 0.243986696 -0.002461875
0.319634587 0.232191503 -0.002607375
0.360726506 0.221855193 -0.002765500
0.405292064 0.213461444 -0.002938750
0.452617228 0.207092136 -0.003124625
0.501551628 0.202367753 -0.003320250
0.549641967 0.199041992 -0.003524625
0.594790578 0.196663499 -0.003735938
0.635420620 0.195011258 -0.003952625
0.671886384 0.193756998 -0.004174063
0.705886066 0.193261385 -0.004397187
0.059854373 0.345177144 0.059854373
0.073673435 0.344890893 0.059546560
0.115225874 0.342806399 0.056592125
0.163279325 0.339091092 0.050519124
0.209946126 0.334085643 0.040441874
0.255392611 0.327904522 0.023110317
0.298363268 0.316850156 -0.002713125
0.339307666 0.302477896 -0.002927438
0.382202268 0.288576275 -0.003069750
0.427238882 0.276370138 -0.003221188
0.473996460 0.266447634 -0.003385625
0.521943510 0.258801818 -0.003562125
0.568771541 0.253129631 -0.003748375
0.612710297 0.249017775 -0.003943375
0.652297080 0.246097758 -0.004145625
0.687930286 0.243875593 -0.004353438
0.721096396 0.242501408 -0.004564375
0.062763065 0.412388593 0.062763065
0.076456383 0.412106395 0.062504500
0.117738754 0.410353720 0.060556751
0.166146204 0.407031715 0.056334812
0.213645950 0.402380794 0.049733128
0.260513246 0.396867156 0.039517507
0.308564395 0.389947772 0.021160126
0.355873466 0.377048343 -0.003192375
0.401972830 0.360687822 -0.003397563
0.448890328 0.345248282 -0.003534500
0.496412665 0.331878424 -0.003680188
0.544085026 0.321011037 -0.003837688
0.590362072 0.312688828 -0.004006938
0.633448601 0.306398600 -0.004185438
0.672156096 0.301805586 -0.004372563
0.706904233 0.298255116 -0.004566437
0.739296436 0.295758545 -0.004764250
0.065531507 0.480235517 0.065531507
0.079004437 0.479967833 0.065257683
0.119777128 0.478461146 0.063891128
0.168322563 0.475510120 0.060734563
0.216448009 0.471336752 0.056312248
0.264296532 0.466029763 0.049532503
0.313844383 0.459722281 0.038518373
0.367019355 0.451630950 0.016508996
0.418796003 0.435987532 -0.003700000
0.468719125 0.418119818 -0.003869313
0.518104374 0.401884377 -0.004000375
0.566647649 0.388004065 -0.004141374
0.612950563 0.376917779 -0.004294000
0.655712605 0.368260980 -0.004457125
0.693892062 0.361761630 -0.004629250
0.728064656 0.356684804 -0.004808812
0.759741545 0.352713019 -0.004993500
0.069055066 0.548411429 0.069055066
0.082276434 0.548249185 0.068901122
0.122034818 0.546921432 0.067824058
0.170333460 0.544304848 0.065499686
0.218804121 0.540589869 0.062190250
0.267313629 0.535746098 0.057720751
0.317854643 0.529689014 0.050497994
0.372651398 0.522282600 0.037462924
0.431522578 0.512338519 0.007736121
0.485983729 0.493947119 -0.004207187
0.538067102 0.475428671 -0.004340125
0.588349283 0.458981007 -0.004466687
0.635502994 0.445252687 -0.004604563
0.678436399 0.434320688 -0.004752875
0.716376007 0.425779611 -0.004911125
0.750337005 0.419060826 -0.005076563
0.781615913 0.413309246 -0.005248125
0.074721500 0.617606580 0.074721500
0.087376244 0.617504239 0.074661687
0.125369877 0.616321862 0.073746376
0.172771886 0.614023864 0.072182380
0.221235007 0.610662401 0.069585502
0.270052254 0.606294990 0.066299379
0.321291894 0.600688517 0.061401494
0.377152294 0.593604326 0.053274680
0.438098013 0.584860981 0.036306992
0.500378311 0.572406888 -0.001059437
0.556007504 0.552421212 -0.004694875
0.608614385 0.533801556 -0.004808938
0.657256246 0.517744601 -0.004933250
0.701018453 0.504606366 -0.005068625
0.739262581 0.494200647 -0.005213625
0.773129404 0.485718429 -0.005366438
0.804457486 0.478222489 -0.005524875
0.083985873 0.687778175 0.083985873
0.095674627 0.687645376 0.083984002
0.130845562 0.686571300 0.083297379
0.176507637 0.684545219 0.082277693
0.224237680 0.681541145 0.080410995
0.272994131 0.677563488 0.077932812
0.324513525 0.672398150 0.074414372
0.381081641 0.665670156 0.068684436
0.443218470 0.657423913 0.058579557
0.508592725 0.647426546 0.035753813
0.571375310 0.632095933 -0.004813625
0.627000928 0.611905932 -0.005164562
0.677616537 0.593880475 -0.005278000
0.722689390 0.578747749 -0.005400875
0.761811972 0.566493154 -0.005533750
0.796148956 0.556464791 -0.005675063
0.827749372 0.547449052 -0.005821125
0.098213509 0.757584035 0.098213509
0.108666375 0.757489920 0.098211631
0.139796004 0.756538868 0.097798005
0.182640329 0.754696548 0.097049326
0.228724763 0.752037525 0.095771752
0.276749820 0.748445630 0.093992069
0.328063160 0.743710518 0.091432124
0.384803772 0.737360775 0.087227941
0.447487265 0.729467750 0.079979256
0.514154971 0.720330894 0.065449007
0.581789136 0.709603727 0.028024644
0.642642021 0.691543043 -0.005420437
0.695934474 0.672159493 -0.005634000
0.742752194 0.655530691 -0.005747250
0.783197820 0.641736984 -0.005869250
0.818366051 0.630276382 -0.005998937
0.850477219 0.619782031 -0.006134500
0.118174963 0.826264560 0.118174963
0.127440274 0.826240003 0.118173838
0.153801769 0.825417578 0.117910966
0.192561895 0.823754668 0.117357276
0.235949770 0.821375489 0.116541654
0.282347381 0.818153262 0.115348659
0.332718760 0.813866138 0.113442406
0.389016569 0.808103323 0.110260725
0.451715827 0.800694346 0.104733840
0.518794537 0.792052090 0.094412714
0.587943196 0.782658339 0.067859545
0.655608833 0.771459281 0.006867130
0.712064981 0.751921058 -0.006000750
0.761147261 0.733995199 -0.006103125
0.803103685 0.719017446 -0.006215501
0.839459062 0.706405640 -0.006336313
0.872509420 0.694800436 -0.006461500
0.144372657 0.893920541 0.144372657
0.152535722 0.893872857 0.144413054
0.173994914 0.893099487 0.144226044
0.207733035 0.891714096 0.143932343
0.247348279 0.889662564 0.143365785
0.291087776 0.886803687 0.142526031
0.339652508 0.882910430 0.141118914
0.394759834 0.877661467 0.138758481
0.456818014 0.870966196 0.134513289
0.523721457 0.862897396 0.126584530
0.593133390 0.854233563 0.111006789
0.662461042 0.844938993 0.071665369
0.726188242 0.832619429 -0.005429679
0.777766347 0.814130247 -0.006470376
0.821691453 0.798235059 -0.006573501
0.859255970 0.784838557 -0.006684751
0.893413246 0.772202432 -0.006800376
0.182299867 0.958178639 0.182299867
0.189891934 0.958225906 0.182574108
0.206148222 0.957533240 0.182241425
0.233652964 0.956358850 0.181953162
0.267860442 0.954590082 0.181313604
0.307094902 0.952156782 0.180369988
0.351972342 0.949120283 0.178793266
0.404099852 0.944883525 0.176051885
0.464049667 0.939321160 0.171181053
0.529923856 0.932259679 0.163825616
0.599001825 0.924237609 0.152141228
0.668699205 0.916412711 0.128174603
0.734982550 0.907913208 0.075595610
0.792398393 0.895020485 -0.006139063
0.838176489 0.878281593 -0.006938813
0.877628803 0.864141762 -0.007042001
0.912107229 0.850120544 -0.007148875
0.295441002 0.999571979 0.295441002
0.301158786 0.999572933 0.295486003
0.308112979 0.999565125 0.294279754
0.321076989 0.999552608 0.291680872
0.339967251 0.999533474 0.288594991
0.364021122 0.999506712 0.283291101
0.394262403 0.999473870 0.274886757
0.432920396 0.999441981 0.261723489
0.481433511 0.999347448 0.240676999
0.539746165 0.997382700 0.216354057
0.605929375 0.992172241 0.198034003
0.674894989 0.984939456 0.181125239
0.740877509 0.977606773 0.144831970
0.801550686 0.970055342 0.075884797
0.850879848 0.956479251 -0.007306750
0.890019774 0.940014541 -0.007402937
0.924740016 0.924332976 -0.007507000
0.006505312 0.006505312 0.028279688
0.034753121 -0.000272813 0.022622813
0.072529748 -0.000521625 0.020858500
0.108569197 -0.000770438 0.020075688
0.143035620 -0.001022250 0.019832626
0.178016201 -0.001274563 0.019780375
0.215179384 -0.001527500 0.019372188
0.256267190 -0.001781250 0.019156875
0.302285820 -0.002034813 0.019088687
0.352323145 -0.002288437 0.019002186
0.405176550 -0.002542563 0.018952813
0.459397435 -0.002796562 0.018931875
0.512117803 -0.003050625 0.018912185
0.560853183 -0.003304750 0.018893749
0.604393423 -0.003558688 0.018874062
0.643164933 -0.003811688 0.018905248
0.679246247 -0.004063000 0.019538563
0.012422813 0.037055627 0.030006565
0.041903436 0.033860628 0.024469689
0.084533691 0.007721439 0.002656501
0.118111826 0.006169312 0.002722312
0.150566012 0.006741000 0.003869625
0.184279755 0.007030374 0.004436126
0.220451578 0.007086562 0.004593438
0.260935575 0.006969749 0.004640063
0.306516975 0.006883188 0.004651999
0.356134683 0.006856625 0.004633311
0.408605754 0.006835250 0.004613562
0.462370902 0.006829687 0.004597811
0.514527082 0.006817500 0.004580373
0.562793016 0.006819687 0.004561063
0.605967820 0.006844124 0.004539998
0.644530058 0.006534995 0.004204556
0.679956853 0.002142312 -0.000237999
0.026688250 0.093062431 0.037772499
0.044839371 0.093904689 0.034140497
0.094935186 0.085357495 0.005969251
0.131295085 0.071288377 0.000344813
0.162471250 0.064280502 0.000144938
0.194123507 0.060307190 0.000205500
0.228509635 0.057836749 0.000221750
0.267441988 0.056260191 0.000209813
0.311875433 0.055146873 0.000197812
0.360733062 0.054481246 0.000181312
0.412585884 0.054119505 0.000164124
0.465710521 0.053810932 0.000147500
0.517373919 0.053469248 0.000130625
0.565425932 0.053378813 0.000113687
0.608351409 0.053331066 0.000096500
0.646750867 0.053423189 0.000079437
0.681956232 0.055643752 -0.000253375
0.039764129 0.154098257 0.048355319
0.051641125 0.155197188 0.044944689
0.099689007 0.151360080 0.033545818
0.146414816 0.141346753 0.001566625
0.180397257 0.128946692 0.000005563
0.211575940 0.120139942 -0.000083187
0.244406015 0.113852322 -0.000096687
0.281459779 0.109276071 -0.000111187
0.323863029 0.106001072 -0.000126438
0.371017009 0.103718072 -0.000142125
0.421567261 0.102202512 -0.000158125
0.473564863 0.101182073 -0.000174250
0.524207354 0.100357383 -0.000190688
0.571549833 0.099872768 -0.000207125
0.613912463 0.099590138 -0.000223688
0.651820421 0.099437773 -0.000240250
0.686938405 0.101055883 -0.000256750
0.049278062 0.216050953 0.056772627
0.058682315 0.217017502 0.053894877
0.103421494 0.214149699 0.047482312
0.153680116 0.208865687 0.032047559
0.196013808 0.198475689 0.000655187
0.230387300 0.185925990 -0.000059437
0.263967305 0.175555304 -0.000112750
0.300343752 0.167030007 -0.000124812
0.341491967 0.160253942 -0.000138063
0.386952013 0.155194938 -0.000152125
0.435669333 0.151599437 -0.000166812
0.486075968 0.149094746 -0.000181938
0.535409749 0.147332311 -0.000197438
0.581632614 0.146057621 -0.000213187
0.623159945 0.145218819 -0.000229125
0.660388172 0.144633383 -0.000245187
0.695077479 0.145246074 -0.000261250
0.055881437 0.279616416 0.063087754
0.064194314 0.280388176 0.060302809
0.106965944 0.278066993 0.056207377
0.157289326 0.273609698 0.047186874
0.204386011 0.267614692 0.031321436
0.245959491 0.257213205 0.000192063
0.282889396 0.243877992 -0.000119875
0.320932657 0.231576234 -0.000142938
0.362151325 0.220872313 -0.000154187
0.406753153 0.212184131 -0.000166438
0.454081953 0.205575317 -0.000179562
0.502936661 0.200740010 -0.000193313
0.550849736 0.197326124 -0.000207687
0.595784307 0.194836199 -0.000222438
0.636314273 0.193107948 -0.000237500
0.672721267 0.191785812 -0.000252875
0.706684113 0.191476434 -0.000268250
0.059852503 0.345201522 0.067412190
0.068071254 0.345834017 0.064623743
0.109949693 0.343869030 0.061843313
0.160355642 0.340025336 0.056005187
0.208600193 0.334787637 0.046639312
0.255032510 0.328417212 0.030857569
0.298674524 0.317267329 0.000310625
0.340058237 0.302440822 -0.000123813
0.383189440 0.288156390 -0.000173562
0.428370655 0.275720328 -0.000184187
0.475177199 0.265587062 -0.000195687
0.523023188 0.257766515 -0.000208063
0.569763601 0.252011627 -0.000221062
0.613534629 0.247793198 -0.000234687
0.653034925 0.244775191 -0.000248750
0.688598096 0.242473125 -0.000263188
0.721870422 0.241249189 -0.000277813
0.062761746 0.412400395 0.070648745
0.071125746 0.412904590 0.067885563
0.112348802 0.411244094 0.065929502
0.162912816 0.407878309 0.061862879
0.211902186 0.403121203 0.055551253
0.259673864 0.397393078 0.046063937
0.308366328 0.390339136 0.029624250
0.356165409 0.377397090 0.000330562
0.402579039 0.360684842 -0.000164875
0.449679822 0.344961345 -0.000204562
0.497348309 0.331424832 -0.000214625
0.545003831 0.320410341 -0.000225500
0.591142237 0.311941385 -0.000237250
0.634114742 0.305547178 -0.000249625
0.672754109 0.300843149 -0.000262625
0.707501233 0.297252506 -0.000276063
0.740116179 0.294906706 -0.000289750
0.065530561 0.480230808 0.073538810
0.074065931 0.480620146 0.070979625
0.114454240 0.479214340 0.069535688
0.164934695 0.476220012 0.066559121
0.214494258 0.471975654 0.062124692
0.263176829 0.466624081 0.055544063
0.313225627 0.460142404 0.045503557
0.366896540 0.451958656 0.026189182
0.419045806 0.436286509 0.000037563
0.469226182 0.418143630 -0.000221875
0.518760264 0.401680201 -0.000235562
0.567357242 0.387665063 -0.000245187
0.613602161 0.376455814 -0.000255688
0.656285524 0.367722601 -0.000266938
0.694431663 0.361133456 -0.000278812
0.728604198 0.355980277 -0.000291250
0.760438621 0.352116942 -0.000304000
0.069054559 0.548389256 0.077189252
0.077769749 0.548761904 0.074853189
0.116909064 0.547569335 0.073729746
0.166916832 0.544920623 0.071525998
0.216704875 0.541143358 0.068245813
0.266044348 0.536272943 0.063707627
0.317013949 0.530168891 0.056737058
0.372197270 0.522643983 0.045044426
0.431440324 0.512661576 0.017191807
0.486219138 0.494196266 -0.000207125
0.538521469 0.475464553 -0.000257812
0.588855326 0.458856642 -0.000266625
0.636005163 0.445037305 -0.000276000
0.678950548 0.434019893 -0.000286125
0.716921568 0.425436914 -0.000297000
0.750825047 0.418586463 -0.000308375
0.782162070 0.412939370 -0.000320187
0.074721128 0.617561042 0.082955189
0.083485439 0.617927253 0.080811121
0.120549560 0.616888881 0.079883054
0.169462010 0.614588261 0.078319184
0.219082132 0.611190915 0.075874060
0.268691987 0.606795788 0.072523497
0.320329398 0.601160347 0.067660622
0.376494527 0.594031513 0.059824426
0.437764138 0.585224152 0.043931365
0.500362456 0.572737873 0.006019875
0.556281269 0.552626073 -0.000279437
0.608965516 0.533863902 -0.000289313
0.657629132 0.517708004 -0.000297687
0.701406240 0.504501581 -0.000306875
0.739703298 0.493993819 -0.000316750
0.773515522 0.485416830 -0.000327188
0.804834962 0.477982521 -0.000338063
0.083995558 0.687729776 0.092028998
0.092583686 0.687964737 0.090250872
0.126502812 0.687022209 0.089534998
0.173383325 0.685020566 0.088452935
0.222161204 0.681976974 0.086750686
0.271602005 0.677992463 0.084242426
0.323488206 0.672831535 0.080740623
0.380285978 0.666089356 0.075074427
0.442652047 0.657755971 0.065248057
0.508327365 0.647707582 0.043160062
0.571433306 0.632386863 0.000318062
0.627227783 0.612054348 -0.000313000
0.677815914 0.593896329 -0.000320563
0.722991824 0.578695476 -0.000328812
0.762086689 0.566389918 -0.000337813
0.796469629 0.556321979 -0.000347437
0.827976882 0.547172487 -0.000357375
0.098236188 0.757545948 0.105783753
0.106427312 0.757654846 0.104460001
0.136177316 0.756828070 0.103943132
0.179839268 0.755030632 0.103147820
0.226804554 0.752376378 0.102018259
0.275411725 0.748774171 0.100280948
0.327018142 0.744027257 0.097717755
0.383930713 0.737735510 0.093564689
0.446780950 0.729761302 0.086317748
0.513671756 0.720519483 0.072279878
0.581608415 0.709764242 0.037991017
0.642704666 0.691764712 -0.000152375
0.696008563 0.672220469 -0.000344312
0.742937386 0.655495286 -0.000351875
0.783457160 0.641711295 -0.000360062
0.818696082 0.630235314 -0.000368813
0.850886166 0.619505942 -0.000378000
0.118179277 0.826238275 0.125284776
0.125895083 0.826371968 0.124329649
0.150866896 0.825666547 0.123902462
0.190120727 0.824039936 0.123330712
0.234170586 0.821742833 0.122606896
0.281058073 0.818532169 0.121511094
0.331700325 0.814177632 0.119627349
0.388120532 0.808417559 0.116478778
0.450938791 0.801031172 0.110999778
0.518194497 0.792325914 0.100817777
0.587597966 0.782911658 0.076584667
0.655509353 0.771726489 0.019922873
0.712125182 0.752162933 -0.000368749
0.761262596 0.734157205 -0.000375562
0.803312659 0.719152749 -0.000383062
0.839730978 0.706388474 -0.000391188
0.872969329 0.694613099 -0.000399625
0.144440114 0.893884957 0.151091859
0.151739657 0.894040704 0.150528982
0.171917111 0.893354714 0.150204986
0.205818608 0.892003417 0.149878040
0.245888352 0.889961183 0.149326473
0.289965600 0.887095988 0.148497477
0.338739961 0.883218765 0.147119343
0.393945903 0.877951503 0.144775286
0.456068218 0.871235549 0.140601099
0.523107231 0.863157749 0.132800967
0.592666626 0.854430914 0.117452726
0.662203312 0.845130384 0.078316495
0.726127207 0.832930565 0.000682072
0.777818978 0.814378321 -0.000400063
0.821812212 0.798397422 -0.000406938
0.859516323 0.784850001 -0.000414375
0.893782198 0.772018254 -0.000422125
0.182635918 0.958202243 0.188890412
0.189838797 0.958263397 0.188895985
0.205088541 0.957724452 0.188608229
0.232520223 0.956524372 0.188199863
0.266891897 0.954799473 0.187573731
0.306282103 0.952383041 0.186608016
0.351290524 0.949348867 0.185003027
0.403464019 0.945084155 0.182289183
0.463329792 0.939505577 0.177449867
0.529196858 0.932532370 0.169935599
0.598428309 0.924552441 0.158342853
0.668263793 0.916626811 0.134869367
0.734761417 0.908067584 0.082805790
0.792362511 0.895190120 0.000385187
0.838206887 0.878567338 -0.000431313
0.877717912 0.864353418 -0.000438188
0.912306547 0.850107253 -0.000445312
0.295363188 0.999571979 0.300560683
0.301963180 0.999570131 0.301904112
0.307520032 0.999564946 0.301031232
0.320282638 0.999551773 0.298716187
0.338800251 0.999533296 0.295108587
0.362667918 0.999506712 0.289898694
0.392920226 0.999473870 0.281955153
0.431558043 0.999445915 0.269694686
0.479883254 0.999356091 0.249343306
0.537954450 0.997651100 0.223871052
0.604170263 0.992818594 0.203902006
0.673537493 0.985601962 0.187133998
0.740012169 0.978013992 0.151768982
0.801087379 0.970358312 0.083452672
0.850559771 0.956805408 -0.000455875
0.890037060 0.940394163 -0.000462250
0.924907804 0.924449265 -0.000469187
0.021564625 0.021564625 0.097936369
0.045498688 0.016791999 0.096867122
0.090302378 -0.000548249 0.087820500
0.125077501 -0.000800750 0.079796880
0.157166511 -0.001044250 0.075467251
0.189654812 -0.001290938 0.072786942
0.224872887 -0.001540750 0.071313128
0.264166772 -0.001791438 0.069685817
0.308475554 -0.002043250 0.068589255
0.357418835 -0.002296000 0.067982495
0.409513116 -0.002549250 0.067825869
0.462920576 -0.002802500 0.067741252
0.515050113 -0.003055750 0.067292497
0.563502014 -0.003309188 0.067251377
0.606817186 -0.003563000 0.067249127
0.645471215 -0.003815250 0.067292564
0.681424856 -0.004066500 0.067976125
0.023456249 0.041696314 0.099225752
0.046720002 0.040158562 0.104533628
0.096524313 0.011552690 0.095157124
0.134523213 0.001083751 0.079458997
0.165175259 0.000420875 0.070061371
0.196272612 0.000492375 0.064760506
0.230290443 0.000521063 0.061428748
0.268818527 0.000522375 0.059040941
0.312791020 0.000507875 0.057606313
0.361323565 0.000500500 0.056641128
0.412945330 0.000489688 0.056081127
0.465970069 0.000481187 0.055849191
0.517624795 0.000467625 0.055572938
0.565584302 0.000456125 0.055415064
0.608467042 0.000449938 0.055179313
0.646848977 0.000420374 0.055192627
0.682472348 -0.000094187 0.056764062
0.030999500 0.094120748 0.100677878
0.047292124 0.094585001 0.101326376
0.098604001 0.088498130 0.095102623
0.142927140 0.067548677 0.075468309
0.179028004 0.045361370 0.053969502
0.211765245 0.024093121 0.030243319
0.244948506 0.016098874 0.020452250
0.282061726 0.015458126 0.016588688
0.324628651 0.015520375 0.014903750
0.371776789 0.014756877 0.013718378
0.422049105 0.013586875 0.012143251
0.473700851 0.012261562 0.010503627
0.523940504 0.010913875 0.008892249
0.570569277 0.009690312 0.007372499
0.612310708 0.008608749 0.006007001
0.650390983 0.007166682 0.004678123
0.690135717 0.001023875 0.000786122
0.041319251 0.154495388 0.104707435
0.052630436 0.155443817 0.101192243
0.096585944 0.153444558 0.092293307
0.149388567 0.144092828 0.072523616
0.188132316 0.128019884 0.054002814
0.222474188 0.111881599 0.033699751
0.256671190 0.098175809 0.014458811
0.293919235 0.088929139 0.004915686
0.335828036 0.082575381 0.001756624
0.382116884 0.077732950 0.001191312
0.431426287 0.074573576 0.001037188
0.481936693 0.073677450 0.000879312
0.531071901 0.074508891 0.000726687
0.576907158 0.075716883 0.000585125
0.618092597 0.076735571 0.000459875
0.655791402 0.072908774 0.000401813
0.696740329 0.018859521 0.000697063
0.049929876 0.216242120 0.108975500
0.058937505 0.217137933 0.103807874
0.091802761 0.217240497 0.086907499
0.150504261 0.211150378 0.075567305
0.197864875 0.200414628 0.049059495
0.235126227 0.185634062 0.035940684
0.270822912 0.172071263 0.022244120
0.308439523 0.160277426 0.008957372
