hollywood-luts/Alita, Battle Angel.cube
TITLE "17x17x17 Adobe/IRIDAS cube 3D LUT exported with GrossGrade v0.2.2 (beta) 64 bit"
DOMAIN_MIN 0 0 0
DOMAIN_MAX 1 1 1
LUT_3D_SIZE 5
0.000000000 0.000000000 0.000000000
0.142308503 -0.001016250 -0.001016250
0.302028000 -0.002032500 -0.002032500
0.511859000 -0.003049000 -0.003049000
0.679130018 -0.004063000 -0.004063000
0.049735751 0.216034994 0.049735751
0.195356995 0.197763756 -0.001801250
0.339658737 0.162279248 -0.002500500
0.533995986 0.150055498 -0.003341000
0.694248736 0.147672504 -0.004264000
0.065531507 0.480235517 0.065531507
0.216448009 0.471336752 0.056312248
0.418796003 0.435987532 -0.003700000
0.612950563 0.376917779 -0.004294000
0.759741545 0.352713019 -0.004993500
0.098213509 0.757584035 0.098213509
0.228724763 0.752037525 0.095771752
0.447487265 0.729467750 0.079979256
0.695934474 0.672159493 -0.005634000
0.850477219 0.619782031 -0.006134500
0.295441002 0.999571979 0.295441002
0.339967251 0.999533474 0.288594991
0.481433511 0.999347448 0.240676999
0.740877509 0.977606773 0.144831970
0.924740016 0.924332976 -0.007507000
0.042144753 0.042144753 0.251596242
0.194782495 -0.001134000 0.235106260
0.345037520 -0.002087000 0.196328506
0.537907243 -0.003080750 0.179953262
0.697480977 -0.004084000 0.176035509
0.051399250 0.216787755 0.256948233
0.205147743 0.207689255 0.247175261
0.382098258 0.139292240 0.174804747
0.581569791 0.017236751 0.047093004
0.754488766 0.000790500 0.000879500
0.065204002 0.478664756 0.264073253
0.178194255 0.481322736 0.203445256
0.423717529 0.440921783 0.167993754
0.637870252 0.363891482 0.029523004
0.818781793 0.290648997 0.000791250
0.102992252 0.755914271 0.273916245
0.165756002 0.761572719 0.176703513
0.431783527 0.736503839 0.160373241
0.701621056 0.677107334 0.032170501
0.886835456 0.619864225 0.000495000
0.299215734 0.999553204 0.371705502
0.341796488 0.999520957 0.363226265
0.481113017 0.999336243 0.330829501
0.740444005 0.978251994 0.272827983
0.941552281 0.941068470 0.000003000
0.053393498 0.053393498 0.511458516
0.210143253 0.042820003 0.505372763
0.407990992 -0.002296000 0.465705514
0.608269513 -0.003207500 0.409703016
0.758051038 -0.004170500 0.384865999
0.056366749 0.217582747 0.513325512
0.207605004 0.209775254 0.528943002
0.431837022 0.169079497 0.487867296
0.649011254 0.014609252 0.411048532
0.800750494 0.000790500 0.356544793
0.071991503 0.474747002 0.519807518
0.177002266 0.477163762 0.521730244
0.435943544 0.453835547 0.497204512
0.682848454 0.374483258 0.418451279
0.862655520 0.268451035 0.337482512
0.126641512 0.750252724 0.526723266
0.179685503 0.755075693 0.511088490
0.411250532 0.743739784 0.476092279
0.715055227 0.689755082 0.416445017
0.919013739 0.624949992 0.331463754
0.315457523 0.999485970 0.559928536
0.355481774 0.999488235 0.555856466
0.488348484 0.998670995 0.541922569
0.743641734 0.978235006 0.513027012
0.950217962 0.949715495 0.364522517
0.079543501 0.079543501 0.760201037
0.216843516 0.075800508 0.756892502
0.434491992 0.035451744 0.737508059
0.672200024 -0.003444500 0.672994733
0.830384493 -0.004338250 0.627407491
0.083443254 0.223122254 0.760821283
0.209327504 0.210550517 0.795544505
0.452489495 0.180950999 0.774504781
0.705382586 0.008522001 0.702938497
0.857195497 0.000789000 0.631766498
0.110774256 0.474356234 0.766482234
0.191051751 0.474995524 0.787599027
0.440726280 0.458906293 0.773865283
0.722046494 0.385653228 0.719443500
0.910677731 0.169423550 0.644293547
0.184985757 0.744799733 0.770881534
0.223150253 0.748415053 0.774007261
0.420654535 0.741082788 0.766255498
0.730329216 0.705261528 0.731172502
0.942748249 0.627664804 0.660710514
0.354335994 0.999359965 0.779571235
0.388895512 0.999227524 0.777932286
0.515914798 0.994328797 0.772328496
0.752973080 0.977513969 0.754113495
0.951565266 0.951130271 0.685262501
0.158202007 0.158202007 0.997438014
0.247749239 0.157042742 0.997418761
0.448249519 0.137596995 0.986058474
0.713502049 -0.003780750 0.946760535
0.891245008 -0.004589000 0.891116023
0.167580992 0.257276505 0.999225974
0.252519518 0.255270004 0.998567462
0.450299025 0.243532747 0.987251759
0.716256499 0.071610756 0.959788978
0.904834747 0.000789000 0.904508471
0.215956509 0.488900006 0.999395013
0.276972234 0.485453755 0.999166012
0.460753500 0.477739543 0.989385009
0.727026224 0.435239732 0.968374968
0.947111011 0.005959001 0.946914017
0.295887768 0.746237993 0.998871982
0.345205486 0.745033324 0.997319221
0.494167507 0.738745809 0.990167260
0.742976546 0.718917251 0.975903749
0.959716260 0.609055519 0.959405482
0.488875985 0.990935981 0.991037011
0.514070272 0.990878999 0.990979791
0.602406025 0.986427009 0.986520529
0.786732256 0.976558268 0.976660013
0.951453984 0.951161981 0.951352000
