hollywood-luts/Avengers.cube
TITLE "17x17x17 Adobe/IRIDAS cube 3D LUT exported with GrossGrade v0.2.2 (beta) 64 bit"
DOMAIN_MIN 0 0 0
DOMAIN_MAX 1 1 1
LUT_3D_SIZE 5
0.001648000 0.003174000 0.000000000
0.308492750 0.037339747 0.000000000
0.486398518 0.063722000 0.007464501
0.618542790 0.091572255 0.027481252
0.743192971 0.148430005 0.062555000
0.031570502 0.171588004 0.014119251
0.245324746 0.195181251 0.000000000
0.484273255 0.220829755 0.008996753
0.669222295 0.255352259 0.039205499
0.798418999 0.292319000 0.062882252
0.076723009 0.343426526 0.060858503
0.247340009 0.374767751 0.017074252
0.497196496 0.424070030 0.049079008
0.706223726 0.450451791 0.081858501
0.834635019 0.462505043 0.095767498
0.121647254 0.523625016 0.123312503
0.286662757 0.564108491 0.067327499
0.545510471 0.629178524 0.114509754
0.748048782 0.661614537 0.158372000
0.877715230 0.660012543 0.162360996
0.161705002 0.701996982 0.216298997
0.313804269 0.724864244 0.146520257
0.511620998 0.756956518 0.140767992
0.722456992 0.799467504 0.191431761
0.909979999 0.814828992 0.220593005
0.000000000 0.051663250 0.187293753
0.302383751 0.061415248 0.261568755
0.512594819 0.064164996 0.228145018
0.641409039 0.077267997 0.219735250
0.743052959 0.131393000 0.223230004
0.000000000 0.229310513 0.230845749
0.190576509 0.220227003 0.219531760
0.484359503 0.231501743 0.193741247
0.665756583 0.255594999 0.192628503
0.777736247 0.287358224 0.198918507
0.002517751 0.398495525 0.277178496
0.175403744 0.396933526 0.220758751
0.482092798 0.425379753 0.194637001
0.712507308 0.438093752 0.206064999
0.828503489 0.431305021 0.201981753
0.083108999 0.568820715 0.311258495
0.242594272 0.581349552 0.229023516
0.503915012 0.632152975 0.216279998
0.756386757 0.668645501 0.254967511
0.893302739 0.653045535 0.253748000
0.137896508 0.725945532 0.372898996
0.279169261 0.731179714 0.286751509
0.476632774 0.756901264 0.248906255
0.705631495 0.804850221 0.285398483
0.915349483 0.828179002 0.315645486
0.000000000 0.097450003 0.333327532
0.246359736 0.088510498 0.467443526
0.496121496 0.101921000 0.436681032
0.644266009 0.108414754 0.415797025
0.756508470 0.143090993 0.405259520
0.000000000 0.271452755 0.368148506
0.090989500 0.242057502 0.404346257
0.441888034 0.251141995 0.441107273
0.666777968 0.255874217 0.390569746
0.770115972 0.278293252 0.343554795
0.000000000 0.426835030 0.414433986
0.084335007 0.434453726 0.420315295
0.410689056 0.447606981 0.434181005
0.694364548 0.455389768 0.408461034
0.810931504 0.439724505 0.361293525
0.061849255 0.595399737 0.463321030
0.185779512 0.614366233 0.441470504
0.412071288 0.645303011 0.421095520
0.740167499 0.687066555 0.435726523
0.890218019 0.656188726 0.411001265
0.123085998 0.745597482 0.510564029
0.248356521 0.744879246 0.440666735
0.425350487 0.763777494 0.395103514
0.687612057 0.810997248 0.403109789
0.916692495 0.840442002 0.430214018
0.000000000 0.117192507 0.450729012
0.243435249 0.103069499 0.610853076
0.468408525 0.120822996 0.616749227
0.631836474 0.131855994 0.607093275
0.753866255 0.167315245 0.611745775
0.000000000 0.305090517 0.500153959
0.049607001 0.255644739 0.537351251
0.348727554 0.259580255 0.636268556
0.645948231 0.274052262 0.632723808
0.781445026 0.302545995 0.581700265
0.000000000 0.451894522 0.530385733
0.067822501 0.448383510 0.550567985
0.305353999 0.449752271 0.604286790
0.659469545 0.459953547 0.657811999
0.808621526 0.448366523 0.574548542
0.038320255 0.622734785 0.598105490
0.164084762 0.651557207 0.621080339
0.318039000 0.672353566 0.637540996
0.691277742 0.710887492 0.685692787
0.877903044 0.680389524 0.632177055
0.139977992 0.771265984 0.650878310
0.233772501 0.776741743 0.632661521
0.345952243 0.785158515 0.599630773
0.628571510 0.826068461 0.585379243
0.918282032 0.862024546 0.593369007
0.000000000 0.163752005 0.566227973
0.272161484 0.113528498 0.716847241
0.479270011 0.132596999 0.735177994
0.632597268 0.148757249 0.747299254
0.754634976 0.204661995 0.781548023
0.000000000 0.340085745 0.607182503
0.037968755 0.266702503 0.642538428
0.331058532 0.260201991 0.745152712
0.614004493 0.281088233 0.784648001
0.776853979 0.340145499 0.802222013
0.000000000 0.482054502 0.639360487
0.077427253 0.434757024 0.639527500
0.202342510 0.407935977 0.698980987
0.592474699 0.427595794 0.802929759
0.805238008 0.480841994 0.825881004
0.012437758 0.634069502 0.695430279
0.111791506 0.628254771 0.695931792
0.231867030 0.623476744 0.709560990
0.569172502 0.655558288 0.802261770
0.865298748 0.689671040 0.873550773
0.120697998 0.788317025 0.763255000
0.217062503 0.802502275 0.775613248
0.306894004 0.816387534 0.787898004
0.437045276 0.853267550 0.821350753
0.905022025 0.906583011 0.903578997
