hollywood-luts/Avengers.cube
TITLE "17x17x17 Adobe/IRIDAS cube 3D LUT exported with GrossGrade v0.2.2 (beta) 64 bit"
DOMAIN_MIN 0 0 0
DOMAIN_MAX 1 1 1
LUT_3D_SIZE 17
0.001648000 0.003174000 0.000000000
0.084837064 0.014841188 0.000000000
0.168435618 0.024479251 0.000000000
0.243615896 0.032062188 0.000000000
0.308492750 0.037339747 0.000000000
0.363142312 0.042278748 0.000000000
0.409229517 0.048850626 0.000000001
0.449508458 0.056406505 0.002541377
0.486398518 0.063722000 0.007464501
0.521234930 0.070499375 0.012967313
0.554538488 0.077030003 0.018154126
0.586765051 0.083830312 0.022911314
0.618542790 0.091572255 0.027481252
0.650103986 0.100980639 0.032014072
0.681465924 0.113301642 0.039070763
0.712524593 0.129394069 0.049337201
0.743192971 0.148430005 0.062555000
0.004924562 0.043600876 0.000000000
0.073497996 0.051836815 0.000000000
0.145822182 0.060275257 0.000000000
0.216577455 0.067489751 0.000000000
0.282380939 0.073454313 0.000000000
0.342137575 0.078590371 0.000000000
0.395156384 0.084222503 0.000000000
0.442093402 0.091838002 0.000360565
0.485068202 0.100152247 0.004581815
0.525486708 0.108344942 0.011618501
0.563572586 0.116404817 0.018572813
0.599509776 0.124330938 0.024476312
0.633880258 0.132750258 0.029253628
0.667081475 0.142258197 0.034258820
0.699200630 0.153567836 0.040483132
0.730227590 0.166889191 0.048127763
0.760281801 0.182313114 0.057866562
0.009801500 0.086902998 0.001242500
0.067286938 0.092169188 0.000000000
0.130233258 0.098452121 0.000000000
0.197038010 0.104751378 0.000000000
0.263847381 0.110276379 0.000000000
0.326298177 0.115661129 0.000000000
0.383934885 0.121270627 0.000000000
0.436162561 0.128388941 0.000000002
0.484287381 0.137049869 0.003883627
0.529497802 0.146095991 0.011952750
0.571802855 0.155085385 0.019753125
0.611049294 0.163818493 0.025915623
0.647551000 0.172614381 0.031496253
0.681889355 0.181961954 0.037053008
0.714498162 0.192349881 0.042774133
0.745549798 0.204096332 0.049243070
0.775126994 0.216793865 0.056615997
0.019512566 0.129463136 0.006405501
0.067826688 0.133179009 0.000535626
0.123177119 0.138836265 0.000000000
0.186116382 0.145388395 0.000000000
0.251726359 0.151407510 0.000000000
0.315744191 0.156850398 0.000000000
0.376000285 0.162230387 0.000000001
0.431887269 0.168799073 0.000493316
0.484009027 0.176987141 0.005621566
0.533192039 0.186047763 0.013794937
0.579035580 0.195249885 0.021436688
0.620991111 0.204193950 0.028006125
0.659170628 0.212917328 0.034386754
0.694285989 0.221911713 0.040545195
0.727132022 0.231645897 0.046443693
0.758173168 0.242319524 0.052331444
0.787649930 0.253420055 0.058618877
0.031570502 0.171588004 0.014119251
0.071848504 0.174576744 0.004361375
0.121500999 0.180219248 0.000068750
0.181229755 0.187635511 0.000000000
0.245324746 0.195181251 0.000000000
0.309446216 0.201563314 0.000000000
0.370954782 0.207189247 0.000000002
0.429106116 0.213328257 0.003456003
0.484273255 0.220829755 0.008996753
0.536633015 0.229453802 0.017079312
0.585400879 0.238381997 0.024743252
0.629635334 0.247046992 0.032074064
0.669222295 0.255352259 0.039205499
0.704932809 0.263725489 0.045687944
0.737882197 0.272682637 0.051519379
0.768908739 0.282325059 0.057094820
0.798418999 0.292319000 0.062882252
0.043291815 0.213733315 0.023377249
0.079013444 0.215860263 0.011186375
0.123360500 0.221545309 0.002948562
0.179456204 0.230082572 0.000000000
0.242619067 0.239482731 0.000000000
0.306313366 0.248012617 0.000242000
0.368095875 0.254883558 0.003399502
0.427732021 0.261172324 0.007950315
0.485165298 0.268136054 0.014594940
0.540078282 0.276057810 0.022210250
0.591217577 0.284458518 0.030264314
0.637410998 0.292591631 0.038372748
0.678300321 0.300254136 0.045869812
0.714554846 0.307761937 0.052304383
0.747492969 0.315666825 0.058013819
0.778437614 0.324156344 0.063545503
0.807964444 0.332834810 0.068875186
0.054435253 0.255973637 0.034408502
0.087537125 0.257428348 0.019968504
0.127780616 0.263019890 0.010518127
0.180133820 0.272387773 0.004374565
0.242073506 0.283622772 0.001756877
0.306245565 0.294535786 0.003431377
0.368094623 0.303725123 0.008115756
0.428116798 0.311090708 0.015025508
0.486945897 0.318050772 0.022946130
0.543814600 0.325383514 0.030965194
0.596969724 0.333074778 0.039188005
0.644899130 0.340558201 0.047356818
0.687023520 0.347502410 0.054643009
0.723837256 0.354047269 0.060806327
0.756722987 0.360608518 0.066305265
0.787415981 0.367530137 0.071426392
0.816718459 0.374405771 0.076223008
0.065472446 0.298872918 0.046819322
0.097179256 0.300073832 0.029484380
0.134350747 0.305655718 0.018722191
0.182982892 0.315684706 0.012112316
0.243597120 0.328284919 0.008290317
0.308800757 0.341266274 0.008948755
0.371671379 0.352917075 0.015014822
0.431498706 0.362389565 0.024683824
0.490526050 0.370100498 0.034713570
0.548435152 0.377306581 0.043779507
0.603215218 0.384443969 0.052180443
0.652775109 0.391252339 0.059866820
0.696146011 0.397401899 0.066408888
0.733579278 0.402905107 0.071943827
0.766413927 0.407925725 0.076806389
0.796625614 0.412767142 0.081047378
0.825373113 0.417300165 0.084912136
0.076723009 0.343426526 0.060858503
0.108068198 0.344711185 0.041235566
0.143244863 0.350463629 0.027799753
0.188602760 0.361053526 0.020860625
0.247340009 0.374767751 0.017074252
0.313655257 0.389318526 0.017864065
0.378566027 0.402995765 0.025018755
0.438967228 0.414608002 0.036902882
0.497196496 0.424070030 0.049079008
0.555049598 0.431864947 0.060006943
0.610687375 0.438827634 0.068750128
0.661618710 0.445103347 0.076024383
0.706223726 0.450451791 0.081858501
0.744376779 0.454807580 0.086538568
0.777218580 0.458207399 0.090304390
0.806791365 0.460736156 0.093301877
0.834635019 0.462505043 0.095767498
0.088195816 0.389622062 0.076654248
0.120076947 0.391387999 0.055636127
0.154327139 0.397503555 0.039724063
0.197385192 0.408631951 0.031435378
0.254093319 0.423191935 0.027986376
0.320801377 0.438924313 0.029481687
0.387884378 0.454098403 0.037896566
0.449899405 0.467574984 0.051463008
0.507934451 0.478797495 0.066058069
0.564635098 0.487932682 0.078305066
0.620078862 0.495295614 0.087853879
0.671683729 0.501290560 0.095000811
0.717281520 0.505900741 0.100556180
0.756157994 0.509147525 0.104329996
0.789101422 0.511006415 0.107006319
0.818066120 0.511455476 0.108653128
0.844841897 0.510595620 0.109552376
0.099742621 0.436130136 0.093143374
0.132643253 0.438811958 0.071127497
0.166967243 0.445507765 0.053752746
0.208795696 0.457108736 0.044208065
0.263976365 0.472300738 0.041055627
0.330386817 0.488830388 0.043518063
0.398874879 0.505043626 0.052861128
0.462678909 0.519902289 0.067582697
0.521402895 0.532741129 0.083506629
0.577302814 0.543201685 0.097231872
0.631451488 0.551337540 0.107953876
0.682676196 0.557339370 0.115599811
0.728651464 0.561407030 0.120747499
0.768106759 0.563716054 0.124130756
0.801284909 0.564406753 0.125787005
0.829882383 0.563416839 0.126406744
0.855817378 0.560832500 0.125964254
0.111093879 0.481221378 0.108898371
0.144937932 0.485064179 0.086463057
0.179932117 0.492435932 0.068121307
0.221422583 0.504378140 0.057669125
0.275586128 0.519941211 0.054845311
0.341403365 0.536952257 0.058161814
0.410316199 0.553777516 0.067978695
0.475280821 0.569572985 0.083308443
0.535012007 0.583615005 0.100225002
0.590875745 0.595233738 0.115272440
0.643828988 0.604080319 0.126993567
0.693721175 0.610269964 0.135328874
0.739278078 0.614043772 0.140719190
0.779009819 0.615766644 0.143746629
0.812623262 0.615858197 0.145081371
0.841334462 0.614380240 0.145073935
0.866987050 0.611388147 0.143989563
0.121647254 0.523625016 0.123312503
0.156235188 0.528554976 0.100843310
0.191922009 0.536460519 0.081580125
0.233410329 0.548538208 0.070122689
0.286662757 0.564108491 0.067327499
0.351396501 0.581184983 0.071214505
0.419876248 0.598174512 0.081260376
0.485128760 0.614364982 0.096773639
0.545510471 0.629178524 0.114509754
0.601861119 0.641693532 0.130636320
0.654471278 0.651233852 0.143346757
0.703279793 0.657761693 0.152442575
0.748048782 0.661614537 0.158372000
0.787830830 0.663252175 0.161651939
0.822135806 0.663346529 0.162976757
0.851565599 0.662242413 0.163118124
0.877715230 0.660012543 0.162360996
0.130884275 0.563570440 0.137359262
0.166195750 0.569107533 0.114297710
0.202327266 0.577161551 0.094199397
0.243472874 0.588974118 0.081937268
0.295286268 0.603978217 0.078803949
0.357967556 0.620439947 0.082607254
0.424816877 0.636925578 0.092183203
0.489329457 0.652820349 0.106975265
0.549701273 0.667792380 0.124591008
0.606471598 0.680956602 0.141528383
0.659575522 0.691344678 0.155384436
0.708539903 0.698625088 0.165600896
0.753289044 0.703147888 0.172429264
0.793682337 0.705417156 0.176661879
0.829134464 0.706033528 0.178659827
0.860018492 0.705711901 0.179387823
0.887667179 0.704634905 0.179342330
0.139431015 0.603655279 0.154435277
0.175385892 0.609148741 0.130347967
0.211578771 0.616766572 0.109525405
0.251841009 0.627624869 0.096486650
0.301222503 0.641216695 0.092115276
0.360317051 0.656083882 0.094414704
0.423736274 0.671047151 0.102063775
0.485878706 0.685667336 0.114516459
0.545006633 0.699891031 0.130385131
0.601594687 0.713176370 0.147006616
0.655462146 0.724461019 0.161959007
0.705877125 0.733077526 0.173814178
0.752370417 0.738954842 0.182487383
0.794749379 0.742540479 0.188249514
0.832737505 0.744264245 0.191657901
0.866199136 0.744763374 0.193457395
0.896645486 0.744664907 0.194255888
0.149157524 0.649073303 0.180123717
0.185270399 0.653809667 0.155224845
0.221297696 0.660371363 0.133973673
0.260382146 0.669408560 0.120107919
0.306589305 0.680474281 0.113548093
0.360495448 0.692440033 0.112368658
0.418188155 0.704452634 0.115655638
0.475555360 0.716396332 0.123166457
0.531277180 0.728528798 0.134718955
0.585941374 0.740749657 0.148913816
0.639792383 0.752357483 0.163639501
0.692125380 0.762468398 0.177183807
0.742053211 0.770440817 0.188328251
0.788585722 0.776003480 0.196726635
0.831170559 0.779417574 0.202457130
0.869199753 0.780569077 0.205743954
0.903755903 0.780496895 0.207654580
0.161705002 0.701996982 0.216298997
0.197652489 0.705631733 0.191140249
0.233198375 0.710696161 0.170502633
0.271075070 0.717304051 0.156098872
0.313804269 0.724864244 0.146520257
0.361292005 0.732666850 0.140143946
0.411242008 0.740421236 0.136617377
0.461534202 0.748327971 0.136383936
0.511620998 0.756956518 0.140767992
0.562242866 0.766782939 0.150041997
0.614387393 0.777740598 0.162900746
0.668237984 0.789096534 0.177434817
0.722456992 0.799467504 0.191431761
0.774581134 0.807170928 0.203089386
0.823025286 0.811657965 0.211489752
0.868112206 0.814146459 0.217097074
0.909979999 0.814828992 0.220593005
0.000178000 0.011964938 0.040132500
0.080657691 0.017813064 0.057629064
0.169248998 0.022292126 0.060314439
0.250951171 0.025691876 0.054843120
0.318599761 0.029604811 0.050166376
0.373188794 0.035973251 0.048553623
0.418526381 0.044191878 0.049223125
0.458151460 0.052509315 0.051095061
0.494339883 0.060134940 0.053550564
0.528303087 0.066893503 0.056077503
0.560626626 0.072951131 0.058632940
0.591690660 0.078924999 0.061600689
0.621945620 0.085607067 0.065784380
0.651675105 0.094117016 0.071423575
0.680948853 0.106241398 0.079085261
0.709984183 0.123199716 0.089326575
0.738897383 0.143517494 0.102010623
0.000103000 0.054943681 0.050689690
0.064589873 0.058480877 0.055725940
0.142926201 0.062675558 0.052476190
0.221750826 0.065907128 0.045488123
0.291830957 0.069899313 0.039590251
0.351310283 0.075556241 0.037525184
0.402397007 0.082705632 0.038584691
0.447950751 0.090527944 0.041730564
0.490061760 0.098220065 0.046237942
0.529583812 0.105627432 0.050730124
0.566664934 0.112888440 0.054818437
0.601458788 0.120165616 0.059123814
0.634383023 0.128060192 0.064171381
0.665912211 0.137665391 0.070066445
0.696341217 0.149693385 0.077319250
0.725786686 0.164468333 0.086339951
0.754345536 0.181280002 0.096415624
0.000705563 0.099747308 0.059948936
0.054602314 0.101420745 0.055627063
0.123425111 0.104165189 0.048116937
0.199034557 0.107647441 0.039330814
0.270843148 0.111448750 0.033709377
0.334223568 0.116453439 0.031756062
0.390121371 0.122685991 0.033236567
0.440791279 0.129867703 0.037261691
0.488025457 0.137669802 0.042555250
0.532525718 0.145587444 0.048305064
0.574003518 0.153499261 0.053871877
0.612195790 0.161365256 0.059301812
0.647436559 0.169640943 0.064541750
0.680362821 0.179169267 0.070412695
0.711421907 0.190388829 0.077205755
0.740853190 0.203098193 0.084541067
0.768897653 0.216557860 0.092586443
0.006768689 0.143090710 0.068967879
0.051726311 0.143629208 0.058724754
0.112079807 0.146451578 0.047726374
0.183334708 0.150762752 0.037665810
0.255748689 0.155207127 0.030943813
0.322103173 0.159847468 0.029369064
0.381648004 0.165221691 0.031471189
0.436316609 0.171628952 0.036074631
0.487762451 0.178986266 0.041946378
0.536464572 0.186898336 0.048502374
0.581785202 0.194895700 0.054993376
0.623039305 0.202769637 0.060972624
0.660272956 0.210818142 0.066479623
0.694206893 0.219671026 0.072229572
0.725523829 0.229640216 0.078362197
0.754646599 0.240445331 0.084586442
0.782026887 0.251338124 0.090979628
0.013156876 0.186149821 0.078180507
0.053510621 0.185736939 0.064214006
0.107501239 0.188513950 0.050900251
0.173904210 0.193830386 0.038934309
0.245109692 0.199753255 0.031063315
0.313184738 0.205038756 0.029192751
0.375572979 0.210111201 0.031790316
0.433449149 0.215681180 0.036693193
0.488318205 0.222215116 0.042939689
0.540493250 0.229644999 0.050227500
0.589064598 0.237355441 0.057251062
0.633010745 0.244866759 0.063700877
0.672058582 0.252316952 0.069504626
0.706852198 0.260243446 0.075083822
0.738331258 0.269010454 0.080652006
0.767130494 0.278147161 0.086174637
0.793879390 0.286970586 0.091659002
0.021240812 0.229005247 0.087317757
0.059879690 0.227686316 0.070806757
0.108269989 0.230177566 0.056014936
0.169415832 0.236269400 0.042907998
0.238412768 0.243969068 0.033608936
0.306964189 0.251096487 0.030653125
0.371118575 0.256849170 0.033406254
0.431399971 0.262043387 0.039208502
0.489015907 0.267835766 0.046320125
0.544058919 0.274440587 0.053806875
0.595395207 0.281519145 0.061015442
0.641727269 0.288454950 0.067705750
0.682507038 0.295238435 0.073755562
0.718216956 0.302256793 0.079298198
0.749906957 0.309852064 0.084664255
0.778444290 0.317435443 0.089694574
0.804631352 0.324216366 0.094394132
0.031613380 0.271896452 0.097243495
0.069426499 0.269911766 0.078374751
0.113400005 0.272037596 0.062224876
0.169227570 0.278588593 0.048440315
0.235306129 0.287751853 0.038176499
0.303693771 0.297044784 0.034293126
0.368769348 0.304791361 0.037272628
0.430364281 0.310687929 0.044319816
0.489934802 0.316058934 0.052194443
0.547316492 0.321875155 0.059791069
0.601023495 0.328122646 0.067032635
0.649532855 0.334382892 0.073796816
0.692008376 0.340481699 0.079995513
0.728714883 0.346620649 0.085476205
0.760692298 0.352981657 0.090597570
0.789032161 0.358843267 0.095127694
0.814731956 0.363357306 0.099074565
0.044131003 0.315437615 0.108544879
0.081162818 0.313220978 0.087761447
0.121708304 0.315127015 0.070025258
0.172616005 0.321932226 0.056005187
0.235328749 0.332126379 0.045437254
0.303538650 0.343343019 0.041062254
0.369517893 0.353402674 0.044189699
0.431646675 0.361255407 0.052222699
0.492007017 0.367137343 0.061075445
0.550951481 0.372549355 0.069052190
0.606662333 0.378105342 0.076245509
0.657178581 0.383641481 0.082927071
0.701352179 0.389031768 0.088977888
0.739142120 0.394285351 0.094327763
0.771501660 0.399307221 0.099101074
0.799642861 0.403166085 0.102842070
0.824805021 0.405015707 0.105781436
0.058339320 0.360320061 0.121494688
0.094563007 0.358434588 0.099033117
0.132701188 0.360435873 0.079638317
0.179395646 0.367458135 0.064977504
0.238542259 0.378394991 0.054869749
0.306159139 0.390975386 0.050664689
0.373567641 0.403094769 0.053902507
0.436475873 0.413253546 0.062689386
0.496772081 0.420978069 0.073273629
0.556180060 0.426886082 0.082315505
0.613275290 0.432150900 0.089805320
0.665548325 0.437170088 0.096215010
0.711369216 0.441818506 0.101980008
0.750316262 0.446135432 0.106854945
0.783163548 0.449720412 0.110938191
0.811134338 0.451394200 0.113670811
0.835704982 0.450424314 0.115084693
0.073427185 0.406389177 0.135465190
0.109238759 0.405317008 0.111750185
0.145881623 0.407785565 0.090925872
0.189487264 0.415134817 0.075276747
0.245261073 0.426664740 0.065591559
0.311637521 0.440290183 0.061954811
0.380259663 0.453958780 0.065702438
0.444811195 0.466241956 0.075609572
0.505307674 0.476192534 0.087669693
0.564250529 0.483800828 0.098768681
0.621682882 0.489614129 0.107216373
0.675148249 0.494410187 0.113871500
0.722372115 0.498474002 0.119185135
0.762452602 0.501803577 0.123504505
0.795867085 0.503992140 0.126593560
0.823790550 0.503661931 0.128191248
0.847859621 0.500166953 0.127933756
0.088439748 0.452297479 0.149263427
0.124221705 0.452372283 0.124998689
0.160252556 0.455625385 0.103029057
0.201968640 0.463473797 0.086482190
0.255081892 0.475562125 0.076932624
0.319848686 0.490007222 0.074184313
0.388949156 0.504881620 0.078729883
0.455150604 0.518841207 0.089906260
0.516751111 0.530946136 0.103797823
0.575425327 0.540523767 0.116670251
0.632172644 0.547694385 0.126930386
0.685778975 0.552835166 0.134170264
0.733848751 0.556532502 0.139483690
0.774873316 0.559051335 0.143142313
0.808903694 0.560060322 0.145384878
0.836977780 0.558393002 0.145893812
0.860877573 0.553325593 0.144380867
0.102468878 0.496294200 0.161979929
0.138263881 0.497690439 0.137660563
0.174373627 0.501890421 0.114949256
0.215196386 0.510334849 0.097745255
0.266490817 0.522917330 0.088343754
0.329635292 0.537989557 0.086471379
0.398455262 0.553727210 0.091937758
0.465698659 0.568938315 0.104084946
0.528563619 0.582732022 0.119723067
0.587664306 0.594177186 0.134495556
0.643770933 0.602771282 0.146420509
0.696583688 0.608721554 0.154881999
0.744662523 0.612464547 0.160414323
0.786306143 0.614491045 0.163834572
0.821017563 0.614879310 0.165541440
0.849544942 0.612757325 0.165349677
0.873780787 0.607610941 0.163295195
0.114747748 0.537199736 0.173281431
0.150697008 0.539807856 0.149087816
0.187089831 0.544905424 0.125959128
0.227510884 0.553855538 0.108296186
0.277487814 0.566739619 0.099092007
0.338939309 0.582103848 0.097939312
0.406753719 0.598268569 0.104095191
0.474063754 0.614199042 0.116750136
0.537748039 0.629116297 0.133403629
0.597558439 0.641994596 0.149887681
0.653628707 0.651929438 0.163288116
0.705767810 0.658809721 0.173093557
0.753421724 0.663057685 0.179483503
0.795415044 0.665156662 0.183136612
0.830960155 0.665530682 0.184873074
0.860389769 0.663903177 0.184756309
0.885517955 0.659976840 0.183058873
0.125095576 0.575366378 0.184368894
0.161368206 0.578788638 0.159940630
0.197888955 0.584401488 0.136394262
0.237873897 0.593498886 0.118405394
0.286411136 0.606242120 0.109223016
0.345688939 0.621288538 0.108291827
0.411528498 0.637155652 0.114408389
0.477692842 0.653018296 0.126771882
0.541109204 0.668308318 0.143334895
0.601305485 0.682082236 0.160679117
0.657864332 0.693231106 0.175580800
0.710217118 0.701282978 0.186868131
0.758081913 0.706500232 0.194573209
0.800873160 0.709399879 0.199259967
0.837707639 0.710362613 0.201707885
0.868698180 0.709724665 0.202273011
0.895494580 0.707635701 0.201632515
0.134053826 0.613606155 0.198877528
0.170704082 0.617238045 0.173553899
0.207169220 0.622743130 0.149496958
0.246469006 0.631306052 0.131296888
0.293127954 0.643037438 0.121677518
0.349253803 0.656776965 0.119821772
0.411590785 0.671282172 0.124315582
0.474898785 0.685942173 0.134644076
0.536422729 0.700520039 0.149504110
0.595793962 0.714411378 0.166291744
0.652637482 0.726549923 0.182197377
0.706095934 0.736080825 0.195246696
0.755546033 0.742858410 0.204928011
0.800399899 0.747168303 0.211325839
0.839867473 0.749345601 0.215127945
0.873619497 0.749780178 0.216986269
0.903505504 0.749270201 0.217656687
0.143864334 0.657125890 0.222402096
0.180558205 0.660195649 0.195972264
0.216684833 0.664962888 0.172038049
0.254880130 0.672189116 0.154029533
0.298958600 0.681729317 0.143308833
0.350638449 0.692743003 0.138768405
0.407579213 0.704378605 0.139250696
0.465866476 0.716310382 0.144644439
0.523344696 0.728694797 0.154905245
0.579861879 0.741400898 0.168860078
0.635605156 0.753713727 0.184219003
0.690006137 0.764744759 0.198711500
0.742123067 0.773700476 0.210792184
0.790892065 0.780120969 0.219827071
0.835027397 0.783924520 0.225737959
0.873754382 0.785054505 0.229107887
0.908269405 0.784839690 0.230886370
0.156109065 0.708191037 0.256345242
0.192424074 0.710386693 0.229773685
0.227654070 0.713942647 0.207302064
0.264318675 0.719081819 0.190311134
0.305250853 0.725394666 0.177926868
0.351444125 0.732325912 0.168843329
0.401397020 0.739610910 0.162729874
0.452730149 0.747385144 0.160237685
0.504217923 0.756102204 0.162887618
0.555906892 0.766218305 0.171316370
0.608636737 0.777695239 0.184213132
0.663024843 0.789843082 0.199253887
0.718207240 0.801260889 0.213891447
0.771957576 0.810007632 0.225945815
0.822387934 0.815273523 0.234478936
0.869204521 0.817948580 0.240018249
0.912070632 0.818546176 0.243517697
0.000010000 0.023771999 0.089368500
0.069498815 0.026870001 0.122142568
0.158527240 0.030289998 0.134134486
0.247295648 0.031463873 0.128932998
0.321057141 0.033324998 0.120607637
0.379240990 0.036871314 0.114617810
0.426425904 0.042812128 0.111031249
0.466726512 0.049881689 0.108840436
0.502945483 0.056910004 0.107551754
0.536545396 0.063563682 0.106921807
0.568204403 0.069674999 0.107093871
0.598388314 0.075308874 0.108455747
0.627553105 0.081154004 0.111535251
0.655910969 0.088903509 0.116502389
0.683452845 0.100485764 0.123282887
0.710477412 0.117140584 0.131474823
0.737351000 0.137939125 0.140193135
0.000005000 0.068176992 0.102435187
0.052241873 0.068887934 0.116445445
0.129370317 0.070636690 0.120837122
0.214966267 0.071954370 0.114463374
0.291875333 0.073825747 0.105733871
0.355234861 0.077190936 0.099488124
0.407808751 0.082506999 0.096487939
0.453634977 0.088984817 0.095559314
0.495440483 0.095954247 0.095998250
0.534365594 0.102881253 0.097135991
0.570618749 0.109607436 0.098649748
0.604336143 0.116425872 0.100913815
0.635977983 0.123964258 0.104587756
0.666080594 0.133419335 0.110057510
0.694949210 0.145739630 0.117271505
0.722858727 0.161312327 0.125670761
0.750061274 0.179046735 0.134295374
0.000000000 0.113416746 0.114970751
0.040992249 0.111927934 0.115538374
0.107098743 0.112512879 0.112410001
0.188965708 0.114196181 0.104379743
0.268197268 0.116286874 0.095214874
0.335995734 0.119606063 0.089376256
0.393321395 0.124561757 0.087242380
0.443976492 0.130745947 0.087595999
0.490765393 0.137634635 0.089564621
0.534637511 0.144861430 0.092255875
0.575332463 0.152117625 0.095094748
0.612565160 0.159382135 0.098244995
0.646633506 0.167288497 0.102142379
0.678249955 0.176867202 0.107411318
0.707998455 0.188608885 0.114196882
0.736178041 0.202144057 0.121783003
0.763094366 0.216630742 0.129313752
0.000054875 0.157420695 0.126305133
0.035030562 0.154912323 0.118707374
0.093809940 0.155265003 0.110138752
0.170372561 0.157846317 0.099607572
0.250483632 0.160786018 0.089635059
0.321991175 0.164284885 0.083973251
0.383484960 0.168848947 0.082809120
0.438302904 0.174596399 0.084539130
0.489361823 0.181312576 0.087788001
0.537576199 0.188544005 0.091624379
0.582350612 0.195777714 0.095444247
0.622921765 0.202883884 0.099271879
0.659280241 0.210354149 0.103243873
0.692117810 0.218976215 0.107973814
0.722238481 0.229110032 0.113838881
0.750107110 0.240110591 0.119942009
0.776182353 0.251056015 0.125853866
0.001206000 0.200889379 0.136799127
0.034284376 0.197559252 0.123989873
0.087556370 0.197678000 0.111654624
0.158275127 0.201080203 0.098736688
0.236848727 0.205551505 0.087412626
0.311091125 0.209793374 0.081271186
0.376316637 0.214118630 0.080576748
0.434796393 0.219210312 0.083491877
0.489525676 0.225298256 0.087823249
0.541473627 0.232092127 0.092558809
0.589828491 0.239047885 0.097123742
0.633460999 0.245728746 0.101284310
0.671994269 0.252414763 0.105262876
0.705988050 0.259841770 0.109723061
0.736341834 0.268282115 0.114714503
0.763657808 0.276907533 0.119679444
