hollywood-luts/Black Panther.cube
TITLE "17x17x17 Adobe/IRIDAS cube 3D LUT exported with GrossGrade v0.2.2 (beta) 64 bit"
DOMAIN_MIN 0 0 0
DOMAIN_MAX 1 1 1
LUT_3D_SIZE 5
0.002424000 0.001679000 0.002544000
0.250046492 0.000539000 0.000978500
0.491086513 0.001055500 0.002436500
0.749657512 0.002176250 0.004539751
1.006078005 0.027106000 0.052886002
0.000000000 0.133344501 0.158865750
0.232836753 0.173635498 0.081101499
0.511486053 0.193745017 0.006791750
0.776696265 0.222823501 0.010795999
1.006164074 0.318036258 0.085816503
0.000000000 0.250871003 0.308722526
0.013461493 0.283970267 0.262052536
0.441581517 0.351592034 0.068141505
0.769595504 0.444111258 0.015987750
1.006017923 0.501600027 0.059096001
0.000000000 0.366149008 0.454220772
0.000000000 0.412390262 0.455780506
0.056152027 0.431705743 0.302435249
0.646506786 0.541453719 0.054360013
1.006090283 0.700500727 0.077332266
0.000000000 0.489764005 0.586733997
0.000000000 0.546593726 0.619007707
0.000000000 0.606273532 0.617814004
0.240855783 0.677563488 0.451585740
0.874404013 0.842468023 0.371327013
0.001760250 0.073514499 0.120525494
0.204646513 0.007949250 0.215844750
0.444840014 0.000454250 0.298804015
0.731587768 0.001688250 0.340303004
1.006127000 0.060165003 0.397917271
0.000000000 0.175011992 0.231886744
0.188400760 0.199820757 0.247715756
0.503180206 0.195093751 0.209523514
0.797065496 0.186598763 0.211941764
1.006177902 0.352069527 0.343315512
0.000000000 0.268662244 0.359846771
0.004768748 0.306624502 0.337047011
0.452024519 0.394772738 0.285127759
0.782320738 0.472087294 0.233518749
1.006056547 0.520518780 0.289298743
0.000000000 0.371623516 0.488966763
0.000000000 0.411447525 0.488147795
0.084505029 0.464642018 0.435242504
0.668752313 0.593879521 0.303236008
1.006079078 0.730614483 0.299560785
0.000000000 0.495004475 0.608689964
0.000000000 0.548978209 0.632185519
0.000000000 0.614171028 0.646983504
0.277602553 0.679630995 0.565827250
0.904071510 0.880190492 0.536308229
0.000000000 0.121708006 0.218033999
0.140570000 0.084690012 0.341922760
0.366169006 0.000000000 0.435901523
0.639323294 0.000000000 0.619735479
1.001508951 0.091525994 0.825274527
0.000000000 0.234553516 0.308863014
0.104813002 0.254075527 0.369387031
0.432349503 0.198945254 0.420109540
0.776739538 0.200508267 0.511417270
1.006181002 0.440907776 0.661705017
0.000000000 0.322407961 0.422654510
0.000365750 0.355058491 0.420942485
0.442503512 0.437155515 0.471211493
0.797125518 0.480115533 0.455473244
1.006181002 0.579013467 0.540505052
0.000000000 0.416832507 0.538945258
0.000000000 0.454035044 0.537601233
0.185056776 0.523639262 0.529405296
0.731103778 0.663106918 0.508709252
1.006061316 0.749384284 0.525533736
0.000000000 0.515398026 0.623736978
0.000000000 0.570385218 0.645992041
0.024793012 0.643323481 0.676134467
0.450275034 0.745059729 0.670908034
0.954861522 0.925294995 0.690136015
0.000000000 0.177357003 0.297454238
0.020580500 0.223383754 0.476595998
0.336364746 0.003196000 0.539108276
0.557746232 0.000000000 0.644505739
0.903262973 0.000000001 0.905007958
0.000000000 0.306737483 0.398531258
0.001295500 0.335558534 0.459551245
0.356585234 0.252984494 0.556830287
0.695809484 0.202048779 0.681078792
1.006065249 0.462343484 0.846089959
0.000000000 0.384223759 0.488193005
0.000000000 0.425774246 0.504719734
0.364530772 0.479868025 0.603838027
0.769411266 0.494867027 0.649510264
1.006181002 0.682784975 0.732017517
0.000000000 0.485802263 0.594714046
0.000000000 0.535358191 0.611232698
0.273524284 0.602859199 0.632105231
0.772407770 0.720103800 0.691480041
1.006163239 0.796394229 0.725096762
0.000000000 0.591541529 0.670887530
0.001116263 0.651049018 0.703321993
0.274751306 0.710919261 0.725109041
0.636618495 0.825264752 0.766242743
0.995076776 0.965563476 0.834311724
0.000000000 0.239958003 0.372197002
0.000000000 0.350199252 0.568493485
0.278890520 0.200416476 0.681212544
0.539260030 0.000000000 0.702787757
0.880550027 0.041413002 0.933007002
0.000000000 0.396166027 0.511130512
0.000000000 0.436024249 0.559575200
0.275371045 0.389096975 0.692871749
0.637387514 0.220368505 0.767838240
0.970576465 0.447518766 0.941098213
0.000000000 0.452547491 0.563951492
0.000000000 0.504953504 0.594091773
0.243572041 0.550029993 0.677662492
0.701530814 0.515648782 0.790129304
1.006118536 0.691915512 0.925716043
0.000000000 0.548158050 0.651690781
0.000000000 0.611358047 0.684162259
0.261344790 0.687301755 0.723927021
0.766390026 0.766887307 0.837639451
1.006181002 0.863542795 0.901663482
0.000000000 0.686277986 0.746424973
0.182150006 0.760643244 0.790717006
0.492792010 0.829357028 0.821307540
0.813840747 0.920296967 0.875942469
1.006181002 0.999448001 0.942126989
