hollywood-luts/Black Panther.cube
TITLE "17x17x17 Adobe/IRIDAS cube 3D LUT exported with GrossGrade v0.2.2 (beta) 64 bit"
DOMAIN_MIN 0 0 0
DOMAIN_MAX 1 1 1
LUT_3D_SIZE 17
0.002424000 0.001679000 0.002544000
0.068947122 0.003561500 0.003357750
0.133764863 0.001811875 0.001932375
0.192539319 0.000651875 0.001089687
0.250046492 0.000539000 0.000978500
0.308539182 0.000666937 0.001213438
0.368322641 0.000775375 0.001596250
0.429190040 0.000869125 0.001989438
0.491086513 0.001055500 0.002436500
0.554081559 0.001328937 0.002894938
0.618214965 0.001605125 0.003272375
0.683418095 0.001878250 0.003655188
0.749657512 0.002176250 0.004539751
0.817652583 0.002534750 0.007098569
0.889377832 0.002874503 0.012691515
0.963541806 0.004720396 0.026041651
1.006078005 0.027106000 0.052886002
0.001731188 0.037416499 0.041487750
0.066598684 0.041835874 0.043050561
0.132476926 0.041808248 0.026846435
0.200150073 0.033872314 0.009256311
0.261375636 0.028915813 0.002780000
0.321361244 0.027276624 0.001930937
0.382762313 0.026475687 0.002485001
0.446290970 0.024045061 0.003550563
0.511376858 0.021537062 0.005371626
0.578045547 0.019558251 0.007671500
0.646701097 0.018091438 0.010910563
0.717126548 0.017701063 0.015726127
0.789578974 0.017710062 0.022468565
0.865236104 0.017834568 0.032839328
0.940388501 0.020833589 0.047061905
0.997783422 0.042791709 0.075793982
1.006174564 0.133694127 0.126737565
0.000210625 0.070910498 0.082815871
0.053108122 0.079418749 0.081210315
0.125316873 0.084715746 0.064612500
0.193253443 0.086804748 0.031213369
0.260372639 0.082497001 0.008723373
0.322272182 0.080600560 0.003192937
0.383908540 0.081098005 0.003075875
0.447176844 0.081772432 0.003767813
0.511949003 0.082195505 0.004662625
0.578315854 0.082500063 0.005866750
0.646277130 0.082285747 0.007278251
0.715351999 0.083157562 0.009164687
0.785553277 0.087032244 0.011415876
0.858980834 0.092606135 0.014595883
0.937080145 0.097398907 0.020420028
1.000071168 0.128579706 0.044051446
1.006181002 0.206865996 0.120789126
0.000000000 0.102682635 0.120468765
0.027748745 0.114080504 0.116591819
0.105314061 0.120647013 0.103349194
0.180014253 0.129120201 0.075579062
0.251990825 0.134108827 0.031668074
0.320693195 0.134414762 0.008219505
0.383954018 0.135288194 0.004325189
0.447180361 0.137377888 0.004829751
0.511741996 0.139878958 0.005633313
0.577380896 0.143383145 0.006462625
0.643850088 0.148223817 0.007427501
0.710985780 0.154531270 0.008555688
0.779375076 0.162896097 0.009837001
0.849827528 0.174725279 0.011350127
0.924622893 0.187976778 0.013447640
0.994145632 0.210426509 0.025239628
1.006176949 0.267074704 0.099164814
0.000000000 0.133344501 0.158865750
0.006311249 0.146351010 0.152053699
0.068312868 0.152089253 0.140081242
0.150135949 0.162941813 0.114596874
0.232836753 0.173635498 0.081101499
0.311028540 0.181285694 0.031318881
0.382041514 0.187048867 0.008293252
0.446895331 0.190231889 0.005825188
0.511486053 0.193745017 0.006791750
0.576896608 0.198548928 0.007792250
0.643005729 0.204679132 0.008771875
0.709460676 0.212621510 0.009763563
0.776696265 0.222823501 0.010795999
0.845497966 0.236182332 0.011964376
0.916957974 0.253629655 0.013420885
0.986578107 0.274871856 0.020425562
1.006164074 0.318036258 0.085816503
0.000000000 0.163679555 0.197473615
0.000503000 0.176675498 0.188062876
0.022420436 0.184547812 0.178715065
0.103942901 0.188953489 0.151656672
0.192179888 0.205559388 0.120600432
0.285589367 0.218327433 0.083325565
0.370349705 0.227554634 0.027851807
0.444036216 0.239539444 0.008426250
0.510332167 0.246708691 0.007639188
0.575849414 0.252290547 0.008876000
0.641681969 0.259172499 0.010055500
0.707976639 0.267483115 0.011228000
0.774495006 0.277904898 0.012341687
0.841833234 0.291131079 0.013430001
0.911743402 0.307558537 0.014690759
0.980447590 0.327829450 0.020422054
1.006140709 0.362775981 0.077710748
0.000000000 0.193459883 0.234832376
0.000000000 0.205982074 0.226429880
0.003401750 0.215098128 0.217170253
0.041018315 0.219340697 0.196582749
0.134687364 0.226689011 0.157020897
0.233239338 0.248381183 0.122888386
0.338223159 0.262837142 0.081781499
0.430169404 0.272864044 0.020583929
0.505912900 0.291814506 0.008123499
0.573637843 0.305508375 0.009528874
0.640258253 0.313863009 0.011174375
0.706473231 0.322406590 0.012511751
0.772765875 0.332785517 0.013816501
0.839091599 0.345686853 0.015121690
0.907219112 0.360598922 0.016509632
0.974863648 0.377727211 0.021559734
1.006046414 0.405789763 0.070761368
0.000000000 0.222502887 0.271743089
0.000000000 0.234462589 0.266434044
0.000000000 0.244881749 0.256572574
0.008023188 0.250515223 0.242159322
0.062520042 0.252617627 0.206835091
0.164338142 0.265816450 0.159446970
0.273567140 0.291612208 0.121902376
0.390377969 0.307368964 0.077383682
0.489318103 0.318091601 0.013564136
0.567797184 0.343757540 0.008476752
0.637468636 0.365293324 0.011631498
0.704866529 0.377929151 0.013630125
0.771237493 0.388738483 0.015078001
0.837759018 0.400657326 0.016498502
0.904653132 0.414701164 0.018082693
0.970278203 0.429634303 0.022647725
1.006011844 0.451209962 0.063489750
0.000000000 0.250871003 0.308722526
0.000000000 0.262468696 0.307185590
0.000000000 0.273553014 0.297951281
0.000245937 0.281334698 0.285566866
0.013461493 0.283970267 0.262052536
0.082874864 0.286575437 0.211172506
0.194482893 0.306628019 0.159869760
0.313269854 0.335134029 0.118114546
0.441581517 0.351592034 0.068141505
0.547888279 0.363569438 0.009269200
0.630514145 0.394977629 0.009255623
0.702094734 0.424746394 0.013367686
0.769595504 0.444111258 0.015987750
0.836208463 0.457748711 0.017789125
0.903243899 0.470471263 0.019416753
0.967540324 0.484335035 0.023986971
1.006017923 0.501600027 0.059096001
0.000000000 0.278782368 0.345332265
0.000000000 0.290274203 0.347348660
0.000000000 0.300984174 0.340661913
0.000000000 0.311078817 0.328694493
0.000000000 0.316437900 0.312384993
0.018023310 0.316775650 0.276031256
0.104346603 0.323218256 0.213237047
0.225238234 0.349027276 0.158771917
0.352889717 0.378599316 0.110918984
0.492905378 0.396456867 0.055566005
0.606681108 0.410036564 0.007598811
0.694012463 0.446168005 0.009843187
0.767752886 0.483874261 0.014819501
0.835210562 0.511059880 0.018357817
0.901699722 0.527926445 0.020790819
0.965664327 0.541253746 0.025708217
1.006005287 0.555932403 0.057631750
0.000000000 0.307101250 0.381801367
0.000000000 0.318850577 0.386895955
0.000000000 0.329121768 0.383775890
0.000000000 0.339861393 0.373500049
0.000000000 0.348242253 0.358770251
0.000169687 0.351034313 0.336032629
0.025662038 0.350743979 0.286204368
0.129613191 0.363219142 0.215130985
0.260195404 0.395650864 0.158940375
0.395460695 0.424861819 0.104576997
0.545333028 0.443310887 0.044857502
0.665825546 0.458415866 0.007269063
0.758629441 0.498696387 0.010540751
0.834995925 0.543306768 0.016168192
0.902383864 0.577764809 0.021016009
0.964830637 0.597733438 0.027782777
1.006000638 0.611971259 0.056426503
0.000000000 0.336437196 0.418399513
0.000000000 0.348748118 0.426081687
0.000000000 0.359249145 0.426523924
0.000000000 0.369650722 0.419796467
0.000000000 0.379963636 0.406547099
0.000000000 0.386225253 0.388921052
0.001635332 0.386407137 0.357267588
0.036867686 0.387790263 0.293478012
0.163252711 0.410637349 0.221198678
0.303088635 0.449909866 0.165300369
0.442075491 0.475796521 0.104051255
0.596855521 0.491528094 0.040845938
0.725861311 0.509592712 0.008767625
0.825080097 0.554121017 0.011626447
0.904474676 0.604504883 0.019188015
0.967527211 0.642953157 0.031801961
1.006029367 0.664344668 0.060291812
0.000000000 0.366149008 0.454220772
0.000000000 0.378888458 0.463498324
0.000000000 0.389941156 0.466919631
0.000000000 0.400713563 0.464490622
0.000000000 0.412390262 0.455780506
0.000000000 0.422241151 0.440767944
0.000000002 0.426127881 0.419623733
0.003935963 0.424196750 0.376110405
0.056152027 0.431705743 0.302435249
0.207677290 0.468144685 0.236267716
0.350354254 0.508630633 0.178467661
0.489654005 0.528830945 0.112469718
0.646506786 0.541453719 0.054360013
0.787743092 0.565399408 0.023059333
0.894499838 0.612844050 0.024664661
0.970833778 0.665048897 0.043604422
1.006090283 0.700500727 0.077332266
0.000000000 0.396154672 0.489044040
0.000000000 0.409354478 0.499349236
0.000000000 0.421133220 0.504946530
0.000000000 0.432237387 0.505805552
0.000000000 0.444445342 0.502371073
0.000000000 0.457626522 0.492312640
0.000000000 0.467347324 0.476492375
0.000000000 0.468432605 0.450076073
0.010924302 0.465405852 0.394961625
0.090065613 0.483614385 0.319231093
0.257811129 0.530862272 0.260635078
0.397586524 0.567123771 0.200078785
0.538583338 0.584085882 0.138350904
0.699671328 0.596549928 0.097741187
0.853148580 0.624933183 0.073514767
0.961804688 0.671032965 0.078200839
1.006080270 0.714246571 0.109244063
0.000000000 0.426703662 0.522875190
0.000000000 0.440522105 0.533868134
0.000000000 0.453135997 0.541001797
0.000000000 0.464748710 0.544130147
0.000000000 0.477267265 0.544524670
0.000000000 0.491222352 0.540472984
0.000000000 0.505494297 0.530203879
0.000000000 0.514857173 0.513767004
0.000299250 0.513474047 0.481561810
0.026932847 0.512702465 0.420945048
0.136994779 0.541073561 0.349508762
0.305662632 0.592378676 0.295005023
0.445364982 0.626899600 0.235626355
0.591434419 0.644377768 0.182852879
0.760576129 0.657578707 0.158319205
0.923486948 0.686704695 0.149112254
1.002831697 0.723758161 0.171511978
0.000000000 0.457863718 0.555309057
0.000000000 0.472352326 0.566665947
0.000000000 0.485942036 0.574990690
0.000000000 0.498358667 0.579883337
0.000000000 0.511306465 0.582895875
0.000000000 0.525369823 0.583489954
0.000000000 0.540679276 0.579488516
0.000000000 0.555371165 0.570170462
0.000000000 0.564771235 0.554564595
0.001170749 0.563768446 0.521177292
0.045044087 0.566002071 0.461531252
0.185470521 0.601036787 0.394850612
0.353764415 0.657729626 0.341244906
0.498605341 0.697127521 0.285064936
0.655071795 0.719812393 0.242099568
0.830671489 0.733962774 0.231135279
0.974387348 0.765854657 0.272199571
0.000000000 0.489764005 0.586733997
0.000000000 0.505047143 0.598340273
0.000000000 0.519757152 0.607673287
0.000000000 0.533138394 0.614008248
0.000000000 0.546593726 0.619007707
0.000000000 0.560486376 0.623138905
0.000000000 0.574985743 0.625388622
0.000000000 0.590494215 0.623999238
0.000000000 0.606273532 0.617814004
0.000000000 0.619392335 0.606118858
0.005336625 0.623625100 0.577713013
0.070780382 0.631727576 0.520611763
0.240855783 0.677563488 0.451585740
0.408097446 0.751037478 0.397838265
0.561586559 0.803360879 0.348193228
0.728422225 0.836011469 0.324020803
0.874404013 0.842468023 0.371327013
0.002136188 0.022041500 0.031283062
0.062709935 0.018419001 0.044165246
0.124476559 0.011772876 0.047120996
0.186518699 0.002384313 0.048746005
0.242485374 0.000598062 0.052465063
0.300068378 0.000633375 0.056526814
0.360144854 0.000773813 0.059953749
0.421848476 0.000886750 0.062105693
0.484723955 0.001138500 0.062933378
0.548941791 0.001474500 0.062538683
0.614656985 0.001763562 0.061315626
0.681591868 0.002091062 0.060442377
0.749554753 0.002492438 0.061549567
0.819032729 0.002880875 0.066887267
0.891066492 0.003341504 0.079411335
0.965187371 0.005619339 0.097920209
1.006073356 0.033699438 0.124061935
0.001372125 0.053425252 0.067883059
0.059328366 0.054532439 0.078990564
0.122336619 0.051757313 0.073222563
0.188629076 0.042200804 0.064685687
0.255346000 0.027279688 0.054032750
0.320400983 0.014954125 0.047463998
0.382394254 0.011329439 0.047777191
0.444508225 0.012107689 0.051668692
0.508371711 0.013500688 0.056572501
0.574595451 0.014707750 0.061509185
0.643291056 0.015655437 0.067165248
0.714484692 0.016331375 0.074905813
0.788624942 0.016796751 0.086267754
0.865025520 0.017306380 0.102841333
0.940670192 0.021109655 0.120458156
0.997906864 0.046235152 0.146502972
1.006174564 0.142623812 0.187352568
0.000186688 0.083631001 0.103729308
0.043835815 0.089896306 0.108173683
0.115184449 0.093298063 0.102729499
0.182743758 0.094817877 0.083251297
0.251411527 0.088912375 0.065047875
0.320332587 0.076648369 0.047358561
0.389064282 0.059419870 0.034613684
0.455502898 0.047131248 0.028354624
0.520367622 0.042927124 0.027836751
0.585664630 0.043024499 0.030111939
0.652754068 0.044146128 0.032724939
0.721807420 0.046254564 0.035943881
0.793614984 0.048881687 0.040613569
0.869647741 0.051715519 0.049448397
0.946684718 0.065108255 0.069775172
1.000396848 0.133271769 0.118566990
1.006181002 0.212619424 0.177559376
0.000000000 0.112446383 0.139181197
0.019373436 0.122478828 0.137353256
0.093260869 0.128125876 0.131765634
0.170104757 0.135304257 0.115463570
0.243784338 0.141938761 0.085181318
0.315828770 0.140395761 0.060926192
0.386474699 0.132744566 0.041852999
0.455043912 0.124166511 0.031112123
0.521140099 0.119960703 0.027883314
0.586759984 0.120117188 0.028439563
0.653289020 0.122941270 0.029849064
0.720788360 0.128736004 0.031457249
0.790154040 0.137243330 0.033364810
0.863077760 0.147942394 0.036072008
0.938577771 0.164287686 0.045866042
0.996815860 0.212135434 0.087357998
1.006180286 0.273080617 0.154352307
0.000000000 0.140806243 0.175206572
0.003836437 0.152428061 0.168730885
0.053186439 0.160188437 0.161973819
0.140702948 0.166127503 0.146491379
0.225813761 0.179327801 0.122265249
0.306065261 0.190153122 0.083766438
0.381391317 0.193775877 0.055217057
0.452897578 0.190345317 0.037536871
0.519939661 0.189405277 0.032559000
0.585068643 0.192433745 0.033331372
0.650651813 0.197654814 0.034644812
0.717025101 0.205099314 0.035783626
0.784867823 0.215107381 0.036916062
0.855512321 0.227579460 0.038177256
0.928718746 0.244587675 0.043089282
0.991259336 0.276806623 0.072319373
1.006172299 0.324298203 0.137890503
0.000000000 0.169156626 0.211493313
0.000225750 0.180728137 0.202705696
0.014627937 0.190630749 0.194972008
0.093066581 0.194569498 0.179361239
0.186428562 0.207540944 0.154241130
0.282243639 0.224676937 0.125455260
0.368802577 0.237817645 0.079291865
0.447064281 0.247517064 0.048185054
0.517780721 0.250202090 0.036739625
0.583704293 0.254247427 0.036575686
0.648793638 0.260762006 0.038585685
0.714412034 0.268986195 0.040349498
0.781190872 0.278929204 0.041682314
0.850126386 0.290932626 0.042590130
0.921087265 0.306820601 0.045655027
0.984952807 0.332211554 0.066790938
1.006158352 0.369866580 0.126600251
0.000000000 0.197456449 0.247386470
0.000000000 0.208491445 0.239017084
0.001768500 0.219254747 0.229621828
0.032164384 0.225643694 0.217618823
0.130962923 0.229537502 0.187072068
0.231220379 0.250923812 0.157732695
0.338043779 0.270467132 0.125305563
0.431423157 0.284450680 0.071193300
0.511961639 0.300551623 0.041544065
0.581463456 0.311333627 0.037735064
0.647413075 0.319027901 0.040137187
0.713037312 0.327209711 0.042415500
0.778884590 0.337373346 0.044385247
0.845883906 0.349384338 0.045931127
0.914652228 0.363669842 0.048642769
0.978822052 0.383728057 0.064357735
1.006119967 0.413025707 0.115869492
0.000000000 0.225646332 0.283297807
0.000000000 0.236198455 0.277076930
0.000000000 0.247211143 0.267024130
0.005352312 0.255215585 0.255874544
0.057306796 0.258330405 0.231474280
0.164492399 0.267560899 0.189155787
0.274816990 0.295209080 0.156937629
0.392505348 0.315680832 0.120597564
0.493282586 0.330018997 0.058778260
0.575936079 0.352791697 0.035435818
0.645186484 0.372465223 0.038272060
0.711516976 0.384422153 0.042383309
0.777495027 0.394647330 0.044822559
0.843775749 0.406258911 0.046694815
0.910815597 0.419640511 0.049679011
0.973997712 0.436150372 0.062534660
1.006069422 0.458109021 0.104888059
0.000000000 0.253789186 0.319297582
0.000000000 0.263939828 0.316013694
0.000000000 0.274729848 0.307092667
0.000091562 0.284464836 0.295094192
0.011986118 0.289486378 0.277902454
0.083849609 0.291226387 0.236906439
0.196749002 0.308529705 0.188104317
0.316605240 0.339716256 0.151985183
0.445467532 0.360726386 0.111402631
0.554314792 0.375150323 0.043688886
0.639434278 0.404244483 0.030343939
0.709672570 0.432514191 0.037840810
0.776143730 0.450857788 0.043125309
0.842313409 0.464020520 0.045866504
0.909002662 0.476376593 0.048911326
0.971228838 0.491125971 0.060990028
1.006048560 0.508268416 0.096951313
0.000000000 0.282074213 0.355241001
0.000000000 0.291908920 0.354779422
0.000000000 0.302154750 0.348354757
0.000000000 0.313118249 0.336461812
0.000000000 0.320570111 0.322188914
0.019432250 0.322495311 0.293452382
0.108539596 0.326560855 0.236631989
0.229199380 0.351809740 0.184698179
0.357408315 0.384105921 0.142952546
0.497877270 0.406225622 0.097964376
0.614645004 0.420983046 0.030923812
0.702880263 0.455459028 0.026825251
0.775370181 0.491711527 0.035921566
0.841705382 0.517940283 0.042307131
0.907585561 0.534375310 0.046711266
0.969627798 0.548287749 0.058521654
1.006038904 0.562651098 0.091728061
0.000000000 0.311301440 0.391432911
0.000000000 0.321072429 0.393492937
0.000000000 0.330989271 0.390166342
0.000000000 0.341767073 0.380216122
0.000000000 0.351299077 0.365901470
0.000415000 0.355903625 0.346285373
0.027587598 0.355993032 0.302427620
0.134804696 0.366327345 0.234593466
0.264052272 0.398328930 0.180435345
0.399884582 0.430265039 0.131941617
0.550168633 0.452322513 0.082017750
0.674152374 0.468666434 0.024070438
0.767314076 0.507806420 0.023839939
0.842586994 0.551322341 0.032887761
0.908757746 0.584897757 0.041410327
0.969394684 0.605002344 0.054677155
1.006038070 0.618868232 0.086967066
0.000000000 0.341587812 0.427473873
0.000000000 0.351838112 0.432140410
0.000000000 0.361916244 0.432010204
0.000000000 0.372345328 0.425585181
0.000000000 0.383152306 0.412582755
0.000000000 0.390379757 0.395556062
0.001951583 0.391657114 0.366735399
0.040232196 0.392832935 0.306918740
0.167518288 0.413355887 0.235206544
0.306025445 0.452412724 0.180766940
0.446065843 0.480940342 0.124884568
0.601377666 0.499382764 0.069690317
0.733833015 0.519345760 0.024131376
0.833381414 0.563146234 0.023907075
0.911703229 0.612661600 0.034675896
0.972770810 0.650611043 0.053393032
1.006065607 0.671061218 0.089342125
0.000000000 0.371620625 0.462086380
0.000000000 0.383013785 0.469398826
0.000000000 0.393391132 0.471836656
0.000000000 0.404267341 0.469520897
0.000000000 0.416197121 0.461112022
0.000000000 0.426547378 0.446408570
0.000000003 0.431151122 0.425774753
0.005404714 0.429580688 0.384091377
0.059967525 0.436321050 0.312200695
0.211145461 0.471203804 0.245848641
0.354306698 0.512971103 0.190614462
0.494529277 0.535049379 0.129227951
0.651951075 0.549448490 0.076722518
0.795056224 0.574759305 0.041845709
0.901818156 0.621844828 0.042300917
0.976779401 0.673038840 0.063170746
1.006115675 0.706714928 0.108697578
0.000000000 0.401600778 0.495774359
0.000000000 0.414300531 0.505342662
0.000000000 0.425084084 0.509587705
0.000000000 0.436347604 0.510496616
0.000000000 0.448758215 0.507202446
0.000000000 0.462139040 0.497476131
0.000000000 0.472358674 0.482032537
0.000000000 0.474018991 0.456342667
0.011998365 0.471153975 0.402692378
0.093676567 0.488204241 0.328011155
0.261428922 0.534601212 0.269802541
0.402089208 0.572344422 0.211812526
0.543896019 0.590820849 0.153446332
0.705656171 0.604890525 0.117380314
0.860463381 0.634272516 0.096186638
0.968532026 0.679325283 0.097896241
1.006106377 0.721505642 0.145599186
0.000000000 0.432483286 0.529381633
0.000000000 0.445945293 0.539741397
0.000000000 0.457391471 0.545451224
0.000000000 0.469218016 0.548620760
0.000000000 0.481937855 0.549223661
0.000000000 0.496053100 0.545381665
0.000000000 0.510592580 0.535430551
0.000000000 0.520456195 0.519584477
0.000334875 0.519661844 0.488404185
0.028724160 0.518441856 0.429123700
0.141819850 0.545298696 0.358350813
0.309677213 0.597035825 0.304830939
0.450707257 0.633327544 0.247727975
0.597852111 0.652403414 0.197700486
0.767240703 0.666404009 0.174662948
0.931214869 0.696211994 0.167163640
1.002490401 0.735120595 0.212425232
0.000000000 0.463957101 0.561685085
0.000000000 0.478230655 0.572425902
0.000000000 0.490942389 0.579519808
0.000000000 0.503330648 0.584376395
0.000000000 0.516355276 0.587505519
0.000000000 0.530535877 0.588354886
0.000000000 0.545960069 0.584671974
0.000000000 0.560842514 0.575859189
0.000000000 0.570882618 0.561051428
0.001353749 0.570755243 0.529407203
0.047501709 0.572835028 0.471405923
0.191253081 0.606910110 0.404810697
0.358720124 0.664966464 0.351786345
0.505037010 0.706709504 0.297219425
0.662984133 0.731158674 0.256073296
0.838990331 0.746642709 0.247894064
0.971703053 0.780938208 0.314252853
0.000000000 0.495904624 0.592546523
0.000000000 0.511348009 0.604230583
0.000000000 0.525301218 0.612541556
0.000000000 0.538478911 0.618586659
0.000000000 0.551922441 0.623796463
0.000000000 0.565837920 0.628226519
0.000000000 0.580295086 0.630908906
0.000000000 0.595706940 0.630324900
0.000000000 0.611931145 0.624865651
0.000000000 0.626090407 0.613820255
0.005899125 0.631697178 0.586462855
0.073698193 0.640975118 0.530423939
0.246893734 0.687813342 0.461833298
0.414809048 0.763771355 0.408982515
0.570205390 0.818834543 0.361676991
0.738226771 0.853261471 0.341154933
0.875351846 0.853261471 0.410673857
0.003334125 0.042365499 0.062226251
0.056675125 0.034622625 0.083173312
0.113130249 0.024029000 0.094547883
0.174703389 0.008310686 0.105032504
0.231120631 0.001310125 0.113912746
0.287255198 0.000515250 0.122818433
0.346936017 0.000654125 0.131088123
0.409076214 0.000801438 0.137078881
0.473023534 0.001012000 0.140471756
0.538356423 0.001331750 0.141949564
0.605036080 0.001658750 0.142275363
0.673188567 0.001998812 0.142607495
0.742718220 0.002394250 0.144841492
0.813988030 0.002796875 0.151342079
0.888339818 0.003242254 0.164343506
0.964414597 0.005772280 0.182883590
1.006074786 0.037424624 0.206833363
0.000580313 0.071188122 0.096259005
0.049984314 0.069176808 0.114971995
0.110481061 0.063111305 0.117362939
0.173549324 0.052182123 0.117597125
0.239758611 0.035296001 0.117686816
0.306655586 0.016487811 0.117811188
0.369922638 0.009071501 0.120753057
0.432358414 0.009084688 0.125510305
0.496763855 0.010686062 0.131414250
0.563911319 0.012224812 0.138304248
0.633981287 0.013541499 0.146044880
0.706956267 0.014529563 0.156068817
0.783269823 0.015238314 0.170286313
0.862714350 0.015966821 0.188369632
0.940492392 0.021232914 0.207300216
0.998008907 0.054809656 0.233119771
1.006174207 0.153845116 0.266483992
0.000162750 0.097978130 0.126241371
0.034499250 0.101488933 0.137417123
0.102268621 0.102408871 0.141311139
0.168943703 0.100765184 0.131963566
0.237408727 0.094282627 0.122318879
0.307135552 0.082795314 0.112740502
0.377177775 0.066412248 0.104333498
0.446582228 0.047115434 0.098106250
0.514169574 0.035639498 0.095525250
0.580987334 0.033968315 0.096290618
0.649009347 0.036260251 0.099408999
0.719328880 0.038838249 0.105417997
0.793368697 0.041232754 0.115141258
0.870826840 0.045720026 0.131619096
0.946820557 0.066625819 0.158734545
1.000405550 0.138296187 0.200491413
1.006181002 0.220182374 0.250443637
0.000000000 0.124156877 0.160104066
0.012216374 0.131719187 0.162860885
0.081004798 0.136793822 0.161231697
0.157907516 0.142852068 0.156383872
0.233557835 0.148700878 0.136977315
0.305997431 0.147192940 0.121128693
0.377414286 0.139676511 0.106708437
0.448484242 0.127569437 0.093634307
0.519443452 0.112514883 0.082369193
0.590354741 0.097199395 0.073688313
0.661198616 0.086804584 0.068826437
0.731496036 0.085327402 0.069000311
0.802049041 0.091800913 0.074702203
0.873373270 0.111512497 0.089760214
0.942274809 0.156093881 0.121736296
0.997201800 0.216545314 0.168427929
1.006180286 0.279083371 0.223599002
0.000000000 0.150285870 0.194062874
0.002626189 0.159334928 0.190569818
0.040071622 0.168264508 0.185603753
0.127421960 0.174374267 0.180158183
0.215526372 0.185555637 0.166718245
0.298897237 0.198924884 0.138511375
0.375043631 0.202699006 0.118116751
0.447754174 0.198788941 0.101512432
0.518971741 0.192606628 0.087376624
0.589714885 0.185941994 0.076373309
0.659595013 0.181594372 0.070162505
0.728390098 0.183775440 0.068962872
0.797545433 0.192050770 0.071413755
0.867604017 0.207475841 0.080620214
0.935121417 0.238842413 0.105237797
0.991968513 0.281554788 0.150167122
