hollywood-luts/Blade Runner 2049.cube
TITLE "17x17x17 Adobe/IRIDAS cube 3D LUT exported with GrossGrade v0.2.2 (beta) 64 bit"
DOMAIN_MIN 0 0 0
DOMAIN_MAX 1 1 1
LUT_3D_SIZE 5
0.000000000 0.000476000 0.009380000
0.166468248 0.005629750 0.013576250
0.386449516 0.023916502 0.022173000
0.656076729 0.037762754 0.025626000
0.952354014 0.082730003 0.078772001
0.048571501 0.199803755 0.060431998
0.176872000 0.172758013 0.033173002
0.420983255 0.197874010 0.024181999
0.682110786 0.225999013 0.026847502
0.965517223 0.290905505 0.058460750
0.138892010 0.402674496 0.150373995
0.205393761 0.396389782 0.153806001
0.425006509 0.378136009 0.057378002
0.696307063 0.453166515 0.035425752
0.976613522 0.498121023 0.041198500
0.223412991 0.610098720 0.235379994
0.292892218 0.609677255 0.237395003
0.405983776 0.611184299 0.229062751
0.691285729 0.658755541 0.063457251
0.998039484 0.746001780 0.016552249
0.145062000 0.902507007 0.158562005
0.309761226 0.906485736 0.153964505
0.497268021 0.918848515 0.134775996
0.716527760 0.941138744 0.093970492
0.990055025 0.985496998 0.022878001
0.058682751 0.090730004 0.189098999
0.086644255 0.023474000 0.207790002
0.234356523 0.070754752 0.271478504
0.570633769 0.078170754 0.303461999
0.925088525 0.143057764 0.355832756
0.070872501 0.166793495 0.204468518
0.136288747 0.194831759 0.205530733
0.451188028 0.230802253 0.237640262
0.724745750 0.249624014 0.255516261
0.986662805 0.274011254 0.275103003
0.065421000 0.356815249 0.319221258
0.181451499 0.402063012 0.248435006
0.406549275 0.411533266 0.252472997
0.705013275 0.473513514 0.262259275
0.982858717 0.506972551 0.277352512
0.129210249 0.610064268 0.353492528
0.283006489 0.615810990 0.321924746
0.402137756 0.622669280 0.338516742
0.679980040 0.672884226 0.278741747
0.998187780 0.747836769 0.268573999
0.120559245 0.906555772 0.319619745
0.296668231 0.910987258 0.326167256
0.492124259 0.921741009 0.323591977
0.717607021 0.942626238 0.306225747
0.990415454 0.985984504 0.269980252
0.140973002 0.192088515 0.386002004
0.126256511 0.104298756 0.352747500
0.257550001 0.055840999 0.416360497
0.382979274 0.095580250 0.494279772
0.837910056 0.205265999 0.657284498
0.152737513 0.246648759 0.358885050
0.191228002 0.264387727 0.371248484
0.331878483 0.214073271 0.403002262
0.647102535 0.252993017 0.478620291
0.983958244 0.273225754 0.511673272
0.174275011 0.319596499 0.378051043
0.179309249 0.363728762 0.411548525
0.297233522 0.416246533 0.420835972
0.673407793 0.451765776 0.443953037
0.971840978 0.516084552 0.509153008
0.112571254 0.537918270 0.520324230
0.176509246 0.587519288 0.500153303
0.356950760 0.636881292 0.461770266
0.656628013 0.670811296 0.489867777
0.992105722 0.744095802 0.502158999
0.078696996 0.914410949 0.502925038
0.251398742 0.919579446 0.503415227
0.464091003 0.929364026 0.504958034
0.715984285 0.946301222 0.511100769
0.990043044 0.985782504 0.500454545
0.238321260 0.304956496 0.548672557
0.255760252 0.241796270 0.508234799
0.183720008 0.133202508 0.549314499
0.467711240 0.071322501 0.635998785
0.706858218 0.260115504 0.788042009
0.248691007 0.358775258 0.530022740
0.279859751 0.378187269 0.546787262
0.336722016 0.304307997 0.556840360
0.535827756 0.241980270 0.634342253
0.826295018 0.388729513 0.785454750
0.253397256 0.409953028 0.529176295
0.267100036 0.454764247 0.573756754
0.395149291 0.503466547 0.627715468
0.602260530 0.451809496 0.645855486
0.867936552 0.571261466 0.774505019
0.194224745 0.540249228 0.607296228
0.221478522 0.577941716 0.636082530
0.376795262 0.628691494 0.660623252
0.582640052 0.666688025 0.666584074
0.964205265 0.723797560 0.718478262
0.074768499 0.919844270 0.713047028
0.249335766 0.925469995 0.714954257
0.429487258 0.938895702 0.715464711
0.692816734 0.953921497 0.715296209
0.987115979 0.982934237 0.729192019
0.281343013 0.514317989 0.794852972
0.388291508 0.498921484 0.814041257
0.484109998 0.403152466 0.806873441
0.613120794 0.273228735 0.831438243
0.849700987 0.113622002 0.922675014
0.296151251 0.562751710 0.798601508
0.383585989 0.590289235 0.830924988
0.515802741 0.579811454 0.873021722
0.661222994 0.448386729 0.845010996
0.898383498 0.322934002 0.939006269
0.294390023 0.612297535 0.800745010
0.385308266 0.652427733 0.838243484
0.506029963 0.667478025 0.849162459
0.650912523 0.602262497 0.806367993
0.939572990 0.522306979 0.955350041
0.233236492 0.666059256 0.814445257
0.339325964 0.700036526 0.852648497
0.496544480 0.725092530 0.879937530
0.687654257 0.724102497 0.881070733
0.949670255 0.727378011 0.953351259
0.069476001 0.927945018 0.923196018
0.253190011 0.932810247 0.928357482
0.441437513 0.945364475 0.940945029
0.685254276 0.962532520 0.958207726
0.867749989 0.867009997 0.861791015
