hollywood-luts/Blade Runner 2049.cube
TITLE "17x17x17 Adobe/IRIDAS cube 3D LUT exported with GrossGrade v0.2.2 (beta) 64 bit"
DOMAIN_MIN 0 0 0
DOMAIN_MAX 1 1 1
LUT_3D_SIZE 17
0.000000000 0.000476000 0.009380000
0.018195938 0.000921312 0.009677187
0.064639501 0.001658875 0.010475750
0.117238820 0.002977938 0.011829313
0.166468248 0.005629750 0.013576250
0.218094379 0.010012188 0.015369937
0.273012519 0.014662502 0.017784625
0.328993648 0.019264691 0.020062752
0.386449516 0.023916502 0.022173000
0.450173885 0.027668374 0.023607749
0.520065665 0.030279875 0.023975249
0.589210927 0.033385813 0.024445875
0.656076729 0.037762754 0.025626000
0.725177288 0.042174444 0.027299631
0.797342658 0.048170887 0.032183643
0.872929037 0.060265645 0.047620781
0.952354014 0.082730003 0.078772001
0.001286250 0.034043189 0.011694687
0.021025313 0.028992876 0.012489688
0.066896617 0.027854439 0.011916250
0.124486081 0.028109189 0.012137501
0.175772756 0.032385625 0.013902313
0.227111250 0.037876189 0.016142437
0.280850649 0.043133754 0.018252753
0.335892320 0.048848815 0.020258876
0.393886566 0.054713875 0.022032000
0.457869947 0.060112499 0.023183689
0.525959313 0.065249369 0.023694562
0.593106270 0.070492685 0.024295563
0.659718394 0.075980753 0.025298564
0.728798270 0.082623631 0.027105568
0.801066101 0.092133954 0.031573076
0.876647294 0.108339652 0.043875530
0.954669595 0.134701252 0.072796375
0.007217875 0.093708128 0.021265749
0.026179936 0.084016815 0.022311000
0.066429004 0.077046752 0.019062625
0.121773265 0.075993434 0.016869439
0.180156380 0.074921004 0.015714750
0.235072061 0.078399807 0.017226249
0.289785504 0.084557377 0.019138249
0.345854968 0.091553748 0.020781562
0.405976772 0.098533750 0.022058502
0.470054746 0.105208680 0.022779750
0.535317481 0.111462124 0.023434749
0.599996865 0.117542811 0.024472376
0.665893793 0.124379501 0.025693752
0.734079480 0.133519575 0.028032631
0.805340171 0.146656021 0.032732889
0.879958868 0.165357962 0.043678526
0.956933618 0.191181362 0.068687126
0.024368819 0.148191199 0.039563816
0.043576822 0.141951382 0.040280003
0.071435824 0.129108578 0.038304821
0.120056137 0.125204265 0.025501063
0.179387882 0.130005956 0.024176752
0.236455947 0.130149320 0.021214250
0.295062780 0.133164257 0.021054251
0.356075853 0.138581708 0.021600626
0.418032140 0.145708084 0.022457562
0.481340230 0.153054953 0.023217374
0.545410514 0.160160631 0.023762250
0.609764040 0.167270377 0.024707625
0.675294936 0.175330698 0.026117126
0.742348552 0.185567275 0.028691316
0.812332749 0.199371338 0.033257823
0.885167360 0.218560159 0.042859644
0.960564613 0.242684454 0.064492628
0.048571501 0.199803755 0.060431998
0.066862881 0.196617946 0.061098564
0.088943005 0.187599123 0.060924254
0.117507458 0.170903817 0.051509377
0.176872000 0.172758013 0.033173002
0.241084054 0.185106367 0.030286752
0.297021151 0.187108010 0.026607251
0.356756270 0.192323312 0.025237937
0.420983255 0.197874010 0.024181999
0.486224174 0.203405440 0.023999501
0.551171601 0.209506884 0.024420377
0.616146445 0.216987699 0.025314562
0.682110786 0.225999013 0.026847502
0.749582291 0.236925200 0.029250067
0.819401801 0.250843525 0.032963760
0.891273379 0.269204110 0.040791582
0.965517223 0.290905505 0.058460750
0.072456688 0.250680953 0.083194494
0.089192122 0.248959452 0.083734125
0.108160436 0.244291455 0.084422007
0.131808192 0.231954694 0.081387125
0.163280889 0.211048990 0.064612120
0.236681178 0.221223176 0.041009873
0.305828393 0.242502570 0.034533627
0.361495912 0.245578870 0.030617813
0.420554519 0.251666546 0.029117374
0.484600067 0.258499056 0.027724687
0.551342010 0.264132380 0.026831938
0.618930101 0.269973636 0.026798502
0.686343312 0.277984679 0.027967563
0.754156053 0.288675249 0.030043440
0.823808551 0.302361190 0.032982130
0.895280540 0.319893867 0.039289515
0.968803346 0.339842260 0.053854812
0.094835132 0.301198751 0.105983257
0.110819817 0.300067514 0.106416382
0.127727389 0.297984421 0.107240885
0.148225501 0.291612148 0.107513130
0.174269497 0.275640637 0.101209879
0.210805565 0.250729471 0.075543016
0.298310280 0.271533519 0.047729246
0.372310907 0.302914262 0.037790999
0.428707153 0.306640387 0.033965625
0.487867773 0.312577248 0.032661311
0.551639497 0.320820898 0.031680875
0.618927002 0.327890188 0.030709438
0.687641144 0.334938377 0.030507000
0.756654501 0.343816161 0.031270877
0.826651275 0.355910659 0.033377502
0.897686303 0.372107506 0.038636446
0.970645487 0.390501022 0.050860122
0.116852894 0.351849258 0.128371894
0.132320508 0.350720346 0.128561825
0.148121193 0.349721014 0.129299447
0.165914074 0.347150594 0.130369574
0.189637512 0.338683069 0.130653262
0.218331441 0.319066077 0.119714454
0.263773531 0.291042924 0.081883326
0.360960394 0.323793352 0.053329125
0.440029263 0.365948081 0.039700635
0.498120427 0.370860666 0.036214691
0.558577240 0.376890898 0.035143625
0.622804046 0.385488778 0.034523126
0.689840436 0.394301713 0.033890814
0.758800626 0.402942598 0.033665624
0.828754663 0.413395107 0.034855254
0.899483085 0.427059531 0.038870882
0.972405553 0.443090856 0.047615435
0.138892010 0.402674496 0.150373995
0.153768748 0.401493460 0.150562316
0.169012010 0.400777042 0.151163131
0.185214132 0.399774462 0.152207002
0.205393761 0.396389782 0.153806001
0.232747197 0.385890007 0.153204948
0.265064776 0.362389117 0.136851117
0.323280931 0.332827210 0.085811310
0.425006509 0.378136009 0.057378002
0.508481443 0.431169629 0.040139258
0.569228351 0.438183874 0.036916375
0.631368160 0.444633901 0.035965435
0.696307063 0.453166515 0.035425752
0.763594031 0.462860525 0.035287499
0.832604289 0.473147660 0.035642128
0.903019071 0.484755844 0.037542939
0.976613522 0.498121023 0.041198500
0.160879508 0.453638017 0.172438249
0.175410181 0.452526510 0.172721490
0.190338567 0.451904565 0.173252374
0.205825627 0.451331824 0.174158379
0.223052815 0.450129807 0.175424680
0.246795431 0.445919693 0.177729756
0.277827829 0.433324039 0.175205559
0.314854831 0.405981898 0.153315350
0.389568329 0.378627270 0.090988934
0.490571618 0.434892833 0.060147628
0.576172709 0.497403800 0.040431626
0.640889764 0.507770002 0.036391687
0.705117702 0.515214503 0.035025626
0.771066725 0.524006188 0.034457687
0.839379191 0.534225941 0.034011938
0.909122169 0.545018613 0.033668313
0.983005047 0.556533933 0.033127375
0.182996631 0.504732847 0.194874495
0.197421938 0.503726363 0.195106998
0.212429121 0.503150344 0.195718125
0.227773055 0.502744496 0.196550757
0.243577242 0.502139270 0.197573006
0.263305724 0.500748634 0.199714184
0.291724771 0.495671004 0.202403739
0.325887263 0.481203109 0.196802929
0.368528634 0.451211601 0.169694737
0.459921211 0.430738181 0.098687321
0.557301760 0.496596247 0.062426873
0.643050790 0.565129936 0.040734373
0.712754846 0.580230474 0.034159873
0.779248476 0.588915348 0.031797811
0.847145319 0.598201513 0.030173624
0.916185021 0.607743323 0.028522436
0.989342093 0.618192375 0.026420875
0.205505997 0.555997550 0.217445746
0.219997257 0.555126309 0.217697009
0.235556558 0.554599226 0.218545556
0.251526982 0.554318845 0.219507813
0.267630309 0.554005027 0.220494807
0.285490125 0.553564250 0.221854180
0.310119838 0.552291751 0.224552616
0.343040854 0.548056901 0.224032432
0.381313622 0.534236968 0.213083997
0.430367768 0.507247627 0.180410683
0.529425502 0.500358760 0.104414068
0.624482393 0.570796490 0.063757494
0.710915625 0.637656152 0.039455749
0.784459829 0.655740142 0.029749746
0.853352606 0.664439559 0.025903184
0.921942174 0.672222495 0.023507873
0.994548023 0.681667387 0.020956812
0.223412991 0.610098720 0.235379994
0.239237741 0.609461486 0.235690489
0.256316990 0.609250307 0.236361995
0.274291575 0.609333992 0.237020373
0.292892218 0.609677255 0.237395003
0.312651813 0.610085845 0.237500623
0.336586654 0.610767305 0.237798497
0.367460907 0.611866891 0.236250177
0.405983776 0.611184299 0.229062751
0.450746775 0.602645278 0.212663814
0.504010797 0.586110055 0.176947758
0.596671522 0.595097899 0.104073197
0.691285729 0.658755541 0.063457251
0.779936194 0.712704897 0.036310054
0.855765581 0.729834497 0.024275245
0.925489604 0.737402976 0.019553559
0.998039484 0.746001780 0.016552249
0.223646984 0.672682583 0.235783666
0.243771911 0.672535002 0.236037165
0.264884412 0.672942340 0.235878348
0.287338763 0.673795402 0.235296115
0.311088443 0.675191462 0.233977243
0.336450130 0.676855087 0.232011601
0.364683568 0.678887784 0.229651242
0.396811336 0.681556821 0.226222426
0.434436411 0.684563458 0.220545799
0.479029059 0.685792565 0.211154804
0.528986335 0.681395531 0.195136100
0.583721638 0.673548341 0.163202509
0.665309548 0.690619111 0.102282152
0.759045720 0.743495464 0.061732061
0.850332439 0.785721183 0.031533245
0.927849293 0.801299512 0.017508244
1.000714779 0.810547948 0.012880811
0.206224963 0.743049920 0.218839213
0.232794538 0.743114710 0.219224960
0.260260612 0.743603349 0.219091341
0.289193928 0.744536877 0.218536720
0.319640994 0.746030569 0.217295974
0.351864457 0.747837901 0.215423211
0.386214644 0.750018537 0.212831467
0.422087193 0.752996743 0.208427027
0.460880280 0.756832659 0.202013090
0.505156577 0.760961413 0.193847597
0.555662334 0.764076173 0.183393598
0.609881818 0.764528513 0.168257594
0.667272031 0.765085816 0.142017484
0.740956485 0.785120428 0.095531791
0.830654144 0.824449003 0.056272984
0.922288239 0.857416868 0.025227746
1.002460837 0.874064207 0.011099759
0.179866672 0.817373633 0.193404168
0.212865904 0.817631721 0.193642601
0.246757403 0.818403661 0.193274111
0.282050997 0.819463253 0.192463279
0.318961024 0.821008205 0.190961152
0.357716262 0.822918653 0.188852146
0.398411870 0.825248241 0.185936972
0.439595878 0.828525603 0.180907026
0.482218891 0.832696736 0.173817962
0.528420210 0.837417841 0.165481329
0.579125881 0.842461884 0.155969769
0.633990586 0.847365677 0.144884527
0.691846430 0.851709068 0.130864263
0.753266335 0.858336687 0.109360397
0.826926172 0.878117740 0.073518656
0.908735335 0.904135227 0.042274859
0.995803714 0.929762721 0.020116128
0.145062000 0.902507007 0.158562005
0.184823245 0.902730107 0.158489808
0.225177750 0.903661966 0.157462120
0.266630054 0.904832184 0.156059071
0.309761226 0.906485736 0.153964505
0.354670614 0.908637941 0.151260629
0.401698768 0.911223888 0.147808135
0.449077398 0.914658129 0.142331436
0.497268021 0.918848515 0.134775996
0.547813714 0.923652232 0.126023129
0.601173401 0.929100275 0.116341375
0.657423675 0.934968710 0.105600752
0.716527760 0.941138744 0.093970492
0.778332651 0.947851598 0.081139863
0.843472064 0.956160486 0.064717352
0.916263461 0.971752286 0.040442046
0.990055025 0.985496998 0.022878001
0.001945312 0.007561625 0.036966875
0.015691875 0.004037563 0.042611562
0.029127812 0.004445250 0.050193124
0.059119511 0.008228626 0.059871815
0.108802825 0.014652438 0.066223249
0.173432231 0.017185813 0.067289375
0.245625660 0.018230002 0.062878691
0.313215733 0.020062502 0.057798065
0.375584483 0.023194565 0.056136936
0.441581190 0.026506750 0.057527937
0.512940049 0.029226501 0.059667189
0.582985580 0.032416750 0.061730877
0.650935292 0.036913563 0.064202376
0.720960617 0.041810319 0.069460332
0.793832898 0.048252389 0.082009092
0.870505393 0.060548767 0.105665207
0.951383650 0.083708748 0.136357933
0.002004375 0.043638501 0.050823122
0.018375939 0.036541626 0.048510313
0.050480001 0.034445059 0.048748001
0.103952259 0.033432934 0.047987998
0.162842572 0.034975752 0.047421686
0.220583916 0.037633814 0.047683500
0.277957797 0.040436875 0.048211187
0.332895726 0.045313127 0.049460314
0.393196881 0.052756563 0.053495813
0.464069933 0.060757000 0.059775874
0.537087083 0.067158118 0.064719379
0.603295922 0.072174571 0.067119941
0.667147994 0.077487379 0.069263689
0.734450758 0.083804511 0.073465884
0.805627644 0.092988320 0.083269775
0.880682528 0.108977772 0.103567399
0.957499921 0.136293128 0.133161992
0.005339000 0.091728061 0.062811807
0.020075187 0.089917943 0.055794999
0.063106753 0.084337376 0.058081001
0.120899633 0.081978187 0.054819617
0.186012954 0.074203879 0.044921376
0.243305385 0.072420374 0.044044875
0.294863582 0.076466627 0.046387441
0.348443657 0.083206445 0.050055314
0.411850780 0.093342826 0.055960439
0.482025802 0.103521317 0.062182002
0.549240351 0.110231876 0.065979190
0.611097574 0.114756756 0.067651629
0.674373448 0.120087504 0.069402255
0.741186440 0.127347276 0.072911695
0.811640799 0.138339400 0.080796957
0.885903955 0.155535340 0.097891286
0.960316002 0.185552761 0.127522364
0.011941003 0.143187329 0.075348072
0.030739876 0.143033713 0.070615567
0.069432437 0.136048317 0.073102258
0.121012390 0.135095134 0.070015624
0.179757640 0.139575213 0.069356561
0.238740295 0.137248263 0.060413070
0.300432146 0.137503311 0.055301443
0.365093678 0.143640950 0.056978192
0.430824429 0.152157962 0.061331876
0.495684624 0.159517586 0.065153882
0.558110058 0.164651766 0.067433879
0.619141221 0.169265091 0.069113620
0.682139814 0.175245270 0.071360126
0.748049796 0.183448151 0.075195760
0.817363679 0.195338711 0.082106516
0.890130341 0.212516040 0.096631020
0.963438869 0.238685071 0.122236252
0.023529563 0.194912627 0.090867005
0.049663689 0.195548996 0.088669121
0.083515435 0.191619068 0.090667687
0.121094823 0.180566072 0.090861186
0.178340882 0.184646249 0.077804193
0.242688894 0.195539370 0.079362564
0.299338132 0.197669566 0.074309573
0.364413589 0.204020321 0.070354186
0.432523191 0.210156649 0.068613186
0.499214619 0.214608833 0.068112627
0.562902033 0.218400374 0.068837255
0.625706136 0.223387942 0.070797943
0.689652443 0.230104819 0.073589630
0.755636454 0.238952443 0.077521756
0.824278772 0.250944644 0.083754078
0.895502687 0.267440140 0.096122086
0.967998207 0.289177120 0.116741002
0.044195749 0.246805847 0.108218752
0.074608564 0.247604996 0.108018123
0.102752686 0.246268883 0.109487437
0.133459151 0.238189623 0.112129375
0.167172626 0.223093241 0.105139375
0.236834437 0.234023631 0.082939126
0.307816148 0.252307624 0.086122870
0.363769084 0.255423427 0.082912624
0.426336825 0.262916237 0.080439560
0.492487043 0.269813627 0.078096747
0.559659660 0.274504304 0.075793996
0.626699924 0.278852969 0.074836567
0.693404198 0.284878135 0.076138377
0.760244727 0.293605953 0.079628065
0.828849971 0.305459768 0.085244507
0.899328291 0.321077138 0.095817074
0.971781790 0.339780957 0.112351000
0.071518570 0.298531592 0.127048880
0.101211369 0.299097866 0.127850130
0.124719195 0.299052984 0.129092515
0.149016082 0.295326710 0.131896883
0.178093821 0.283354223 0.131910756
0.212221324 0.264157265 0.117962763
0.297418386 0.284374446 0.089351751
0.374065399 0.311371207 0.090626821
0.430763185 0.314848930 0.088247813
0.491148740 0.321224123 0.086842626
0.556285620 0.329583585 0.085601941
0.623949468 0.336348355 0.083841935
0.692628026 0.342447490 0.082935937
0.761367202 0.350037575 0.083937377
0.830926061 0.360658467 0.087882504
0.901245177 0.375014037 0.096747763
0.973517358 0.391968220 0.110350437
0.100754887 0.349939048 0.146557897
0.127192959 0.350168556 0.147938088
0.147663519 0.350460410 0.149068832
0.167801380 0.349385768 0.151519448
0.192221820 0.343353122 0.154318005
0.221543923 0.327906698 0.150623649
0.259338588 0.304718971 0.129054636
0.359687090 0.336286098 0.095950320
0.441233963 0.372940689 0.093666196
0.499941379 0.377533078 0.091950499
0.560594916 0.383408964 0.091121562
0.625584245 0.391997963 0.090632692
0.692833483 0.400498182 0.090230748
0.761869431 0.408547342 0.090179816
0.831712365 0.418025583 0.092586324
0.902076602 0.430428296 0.098899692
0.974333763 0.445382476 0.108900368
0.128243014 0.401146263 0.166684374
0.151889056 0.401057631 0.168447062
0.170473561 0.401336610 0.169522017
0.188431814 0.401275277 0.171666875
0.208674699 0.399159938 0.174606502
0.235663444 0.391071379 0.176981002
0.266176015 0.372226506 0.168555677
0.312390983 0.346081823 0.135209858
0.423219442 0.389916390 0.102084816
0.509052455 0.437019229 0.095735438
0.570629478 0.443377942 0.094150312
0.632703424 0.449494183 0.093609378
0.697878659 0.457795829 0.093537316
0.765304387 0.467153341 0.094074190
0.834225297 0.476781756 0.095708311
0.904470026 0.487579286 0.099146754
0.977480352 0.500226557 0.104373813
0.153797880 0.452307492 0.187416434
0.175624385 0.452034265 0.189479679
0.193026379 0.452244848 0.190587193
0.209904820 0.452448338 0.192512512
0.227530196 0.451972067 0.194937646
0.250223875 0.448879033 0.198382869
0.280208826 0.439010620 0.199354112
0.313743919 0.416591138 0.185467035
0.374281347 0.391591519 0.137431741
0.488039047 0.445767105 0.107605442
0.576091349 0.502322078 0.097632691
0.641541779 0.511558652 0.095301881
0.705896020 0.518689692 0.094534069
0.771946967 0.527137935 0.094680503
0.840108931 0.536915302 0.095374882
0.909775317 0.547012627 0.096543439
0.983252406 0.557996333 0.097644500
0.178430244 0.503525019 0.208787560
0.198920995 0.503252387 0.211134315
0.215599805 0.503351748 0.212267816
0.232138380 0.503596425 0.214104876
0.248666182 0.503570676 0.216185004
0.267693311 0.502676368 0.218993187
0.294231206 0.498802781 0.222923011
0.326901078 0.487319946 0.221669361
0.365581363 0.462447792 0.202136785
0.443121254 0.443669885 0.140877753
0.553882301 0.506222308 0.112537943
0.642425120 0.568940938 0.099537939
0.712733507 0.582720280 0.095295057
0.779627204 0.591051102 0.093712941
0.847420633 0.599970818 0.093095191
0.916474760 0.609071612 0.092713118
0.989396155 0.619125724 0.091863260
0.202054754 0.555042267 0.230882004
0.221751302 0.554820657 0.233483568
0.238183320 0.554829001 0.234726816
0.255180806 0.555045545 0.236581564
0.272128791 0.555155754 0.238616690
0.290074795 0.555055082 0.240745068
0.313150436 0.554251790 0.243917003
0.344370604 0.551091492 0.245961070
0.380724400 0.540345371 0.240053996
0.426551700 0.518012464 0.215118498
0.514481783 0.511500657 0.147246242
0.620585144 0.578047752 0.116493121
0.710321605 0.640132844 0.100168124
0.784233987 0.656967223 0.093688428
0.853254437 0.665400982 0.090718009
0.921957970 0.672969282 0.089120686
0.994538367 0.682249546 0.087501496
0.219872013 0.609608471 0.249757737
0.240126953 0.609479904 0.252656668
0.257438421 0.609623253 0.253799915
0.276148140 0.610073388 0.255241632
0.295492321 0.610629976 0.256783128
0.315845400 0.611316919 0.257932603
0.339295208 0.612226248 0.258994013
0.369362414 0.613430858 0.259507954
0.406240135 0.613602579 0.255789250
0.449225545 0.607599676 0.244528502
0.501024365 0.594239771 0.216911554
0.586493433 0.601951957 0.152609453
0.688219786 0.662774920 0.118798494
0.779509306 0.713962257 0.099237055
0.855595350 0.730284691 0.090437815
0.925339997 0.737682402 0.086759187
0.997996092 0.746315837 0.084359810
0.220128730 0.672729790 0.254331946
0.244057864 0.672916889 0.257596880
0.264591962 0.673532784 0.258045375
0.287265211 0.674601138 0.258336604
0.311477304 0.676082611 0.258373231
0.337464124 0.677882969 0.257777572
0.365948796 0.680002153 0.256707549
0.398380876 0.682517529 0.255309105
0.435238093 0.685502768 0.251981258
0.478191346 0.687451303 0.245377868
0.527371109 0.684831083 0.233507246
0.582047522 0.678863585 0.208403885
0.659938991 0.694274843 0.155404598
0.757210314 0.745331168 0.119612187
0.850238502 0.786213696 0.096305117
0.927700639 0.801449239 0.085337378
1.000736713 0.810705662 0.081635937
0.202609345 0.743499637 0.243960232
0.232915118 0.743805707 0.248045534
0.258965045 0.744363010 0.248383671
0.287629187 0.745310247 0.248460978
0.318265229 0.746830583 0.248239338
0.350884557 0.748692811 0.247488141
0.385731250 0.750896394 0.246178135
0.422710478 0.753673971 0.243794218
0.461744487 0.757277608 0.239312544
0.505080223 0.761432827 0.232995182
0.554576457 0.764991641 0.224860668
0.608683646 0.766422451 0.212820604
0.666679740 0.767877638 0.191409111
0.740027726 0.787116051 0.150795430
0.830264807 0.825259984 0.116400123
0.922481656 0.857726157 0.091459990
1.002487779 0.874201000 0.080164380
0.176360279 0.817983031 0.225207359
0.213445425 0.818479359 0.229887158
0.245099530 0.819100440 0.229910225
0.279766411 0.820169568 0.229565769
0.316674441 0.821701050 0.228811666
0.355590165 0.823666811 0.227618724
0.396783769 0.826053798 0.225890785
0.439374954 0.829092920 0.222823218
0.482722849 0.832987010 0.217496902
0.528665662 0.837634683 0.210564792
0.578909099 0.842729032 0.202639654
0.633424282 0.847818136 0.193342537
0.691402376 0.852559030 0.181611404
0.753232360 0.859368980 0.163509846
0.826978266 0.878873587 0.132095411
0.908841968 0.904464006 0.105309546
0.995947182 0.929814160 0.087473318
0.142459497 0.902985096 0.197602302
0.186743245 0.903382599 0.202358246
0.224450871 0.904001236 0.201761946
0.265143752 0.905184805 0.200690314
0.308007210 0.906989336 0.199155748
0.352907300 0.909189641 0.197131693
0.399946570 0.911785424 0.194612175
0.448366612 0.914979517 0.190940619
0.497327089 0.919074893 0.185048938
0.547927022 0.923928082 0.177480817
0.601222694 0.929227531 0.169115692
0.657432437 0.934973955 0.159960121
0.716599345 0.941305578 0.150001377
0.778378665 0.948006928 0.138990164
0.843491018 0.956336260 0.124825545
0.916145325 0.971763492 0.104066484
0.990132809 0.985638559 0.089285813
0.007591874 0.032919876 0.095983751
0.021749690 0.013123438 0.087401815
0.033987749 0.007506375 0.103222758
0.046851318 0.010001940 0.111791000
0.075495750 0.020469377 0.121183380
0.120170757 0.035018377 0.133276761
0.177288264 0.044522878 0.142755866
0.242143646 0.049959250 0.144667000
0.315124154 0.049841620 0.141623005
0.401830196 0.042615000 0.136726320
0.492901862 0.035410248 0.131108373
0.572819650 0.034649938 0.127326131
0.643884778 0.037738498 0.128057510
0.715705812 0.042482823 0.133884400
0.789963186 0.049734518 0.146832272
0.867991388 0.063862398 0.169073224
0.949137628 0.090703122 0.198804498
0.007488187 0.058809128 0.100709379
0.028201502 0.048238497 0.093338192
0.050051440 0.040991314 0.094289377
0.066606313 0.041860942 0.098920569
0.101291507 0.050751939 0.106443316
0.149743930 0.059847943 0.113590561
0.209698617 0.064491004 0.116070502
0.280018896 0.063189745 0.113513812
0.362470150 0.061922126 0.111090623
0.451470643 0.063886806 0.112491064
0.532725513 0.067460373 0.115127191
0.600196600 0.071509317 0.116585627
0.663877010 0.076772697 0.119117312
0.731260777 0.083295695 0.125536144
0.803040266 0.092770457 0.138312072
0.878928244 0.109422654 0.159578964
0.956903219 0.138387516 0.188029304
0.009033876 0.091959126 0.115551747
0.021842437 0.094174877 0.108262807
0.052948996 0.090305880 0.101559252
0.099793196 0.088858932 0.102512568
0.149829641 0.088811629 0.101900622
0.211854383 0.084132560 0.096241809
0.277176648 0.078916751 0.091678999
0.342378855 0.082991317 0.093443125
0.420870781 0.098168373 0.105190620
0.505958140 0.115050808 0.120202944
0.577459395 0.123381503 0.127341628
0.633794606 0.124472439 0.126374990
0.690772057 0.126676142 0.125995249
0.752927363 0.131586269 0.129366949
0.820328712 0.140519515 0.138679400
0.892030776 0.156292230 0.156192526
0.964812338 0.185826883 0.182228506
0.012534315 0.133807629 0.132698566
0.024767812 0.141560376 0.117914684
0.046365064 0.143126011 0.109879002
0.112160198 0.140135199 0.113212377
0.174299881 0.143475026 0.114124440
0.242017254 0.136465639 0.098541126
0.311197490 0.131822333 0.090463199
0.379498184 0.142337471 0.097881131
0.450247467 0.158801883 0.112323254
0.519997478 0.170341462 0.122653812
0.582938790 0.174849778 0.126025632
0.640105426 0.175864130 0.125545949
0.698230326 0.177502334 0.125150055
0.760487854 0.182060882 0.127762437
0.827109218 0.190904170 0.135342896
0.897587359 0.205906972 0.150790662
0.968194842 0.235438004 0.176985011
0.019514877 0.182004765 0.148093373
0.033523373 0.190980256 0.128003627
0.061027125 0.193870261 0.121484116
0.113728255 0.188055560 0.125491381
0.174997121 0.191229999 0.126205117
0.240452439 0.201852560 0.127575815
0.302921385 0.204763249 0.122027501
0.376177520 0.211882755 0.118597433
0.449347764 0.220777139 0.119857490
0.518663526 0.227162451 0.122263566
0.581912279 0.230204001 0.123785503
0.642301977 0.232668057 0.125204057
0.702738285 0.235929504 0.126649886
0.765808046 0.241422683 0.129974395
0.832219064 0.250349253 0.136782765
0.901631117 0.264351130 0.149863154
