hollywood-luts/Constantine.cube
TITLE "17x17x17 Adobe/IRIDAS cube 3D LUT exported with GrossGrade v0.2.2 (beta) 64 bit"
DOMAIN_MIN 0 0 0
DOMAIN_MAX 1 1 1
LUT_3D_SIZE 5
0.000000000 0.000000000 0.000000000
0.210242242 0.029724000 0.025136251
0.524108052 0.063980006 0.059312500
0.801350236 0.099159248 0.092997000
0.854686975 0.104489997 0.098140001
0.019785250 0.190596744 0.031125501
0.166917250 0.209787011 0.075585246
0.451491296 0.218735501 0.058280498
0.787574232 0.168648005 0.098073997
0.864409268 0.175758764 0.105849251
0.029888002 0.399038017 0.046491005
0.085236251 0.443153024 0.062482752
0.429684490 0.475502491 0.174619496
0.717916489 0.514814019 0.143167257
0.913469493 0.587234020 0.163158506
0.055214513 0.656502783 0.083603255
0.136136264 0.711024284 0.104276754
0.299600542 0.723094285 0.159329012
0.731705010 0.747792959 0.341302782
0.929175258 0.789157033 0.302496016
0.209879994 0.882986009 0.173204005
0.270358235 0.909449756 0.199392751
0.329530537 0.916123509 0.226349011
0.735404491 0.918526232 0.401446998
0.951815009 0.934731007 0.543622017
0.009539001 0.006726250 0.062338751
0.147090241 0.029207001 0.087812506
0.474626273 0.059360504 0.110396005
0.802788019 0.099532753 0.104117006
0.855052471 0.104715496 0.108060256
0.024600249 0.185886756 0.079894997
0.183846250 0.226038501 0.170259506
0.498908043 0.242974490 0.171101496
0.804864049 0.191238016 0.161949515
0.874494493 0.200557753 0.181326509
0.030208502 0.397899002 0.123415500
0.108038992 0.464641750 0.215619743
0.458845258 0.502434731 0.341022015
0.765512526 0.538293540 0.255235255
0.916115463 0.575319231 0.222100258
0.063197762 0.664240003 0.146720499
0.152920261 0.728293777 0.231299505
0.329114795 0.747936547 0.356576025
0.752734721 0.771919787 0.536071241
0.949379742 0.814996541 0.509421527
0.210302755 0.888735533 0.222560003
0.276133269 0.923679233 0.272080243
0.337716758 0.933703780 0.411160260
0.756793261 0.936606467 0.575627208
0.966291010 0.949551761 0.696173251
0.024246000 0.019110002 0.144280016
0.119208500 0.036559500 0.192029506
0.276754528 0.055237003 0.194580525
0.712963343 0.084906742 0.253183484
0.846258998 0.102898002 0.255600005
0.022455998 0.160118759 0.177992761
0.107606001 0.211504743 0.286377728
0.376408517 0.256454736 0.336541027
0.743646741 0.236651272 0.374344260
0.877241254 0.238091528 0.354686260
0.031668499 0.394307017 0.161695018
0.127512500 0.458885491 0.294382751
0.474586517 0.514497995 0.418622017
0.797768712 0.557391047 0.381388009
0.926937938 0.576324522 0.402221978
0.063507259 0.664317966 0.148225754
0.160035759 0.724821806 0.331851751
0.343984276 0.759319544 0.480326504
0.768615484 0.785270572 0.654767513
0.965422511 0.838479280 0.678542256
0.210488498 0.893070459 0.289009511
0.277370512 0.923862696 0.458794504
0.349473506 0.940486014 0.582246542
0.763590813 0.953455508 0.714452505
0.975942016 0.963119507 0.812363029
0.030341499 0.026721751 0.213518262
0.109127998 0.043881249 0.377360016
0.243720025 0.083429508 0.298032999
0.467788249 0.097158253 0.327151030
0.836745739 0.121653005 0.425772727
0.028804252 0.155891508 0.280625761
0.075450502 0.202193007 0.448986769
0.288289994 0.243748263 0.508890748
0.561043322 0.306049734 0.511079311
0.858296514 0.321749777 0.592471778
0.039011251 0.360996783 0.321000725
0.110690266 0.397964507 0.495297998
0.342817515 0.495171517 0.625053942
0.714634240 0.569113016 0.670940518
0.936762571 0.615007043 0.718474805
0.074622765 0.656535268 0.284784496
0.169831261 0.711174071 0.479920268
0.421122015 0.762766004 0.606684506
0.778557777 0.793386817 0.717670798
0.971866965 0.838897765 0.746559024
0.210107759 0.892273784 0.265122741
0.277418762 0.923983693 0.457937986
0.354435772 0.941309571 0.617954254
0.762694776 0.963717699 0.833119273
0.983963013 0.972122490 0.898649454
0.031544000 0.033481002 0.317488998
0.100961998 0.064110748 0.558849514
0.292904019 0.100271001 0.512634993
0.416607261 0.143477246 0.446729749
0.724533021 0.166467994 0.498423010
0.043490499 0.162551999 0.441130757
0.097476996 0.203348756 0.611618698
0.248709515 0.225302756 0.705816746
0.570160270 0.315780014 0.665064991
0.776772738 0.365119278 0.696164727
0.049169000 0.338352025 0.470178008
0.118913993 0.383232027 0.681239486
0.210861012 0.471451998 0.781464934
0.674444318 0.559030771 0.814951003
0.869558513 0.626155496 0.827881515
0.100672513 0.644174755 0.540268481
0.238306999 0.694150031 0.722196698
0.443078041 0.737744510 0.825865984
0.722009480 0.796736717 0.886328280
0.938493252 0.837841749 0.919804990
0.222376004 0.887121022 0.498573005
0.283523768 0.910306454 0.683409512
0.519835532 0.937659502 0.800278544
0.887967765 0.967843235 0.960281491
0.995693982 0.983735979 0.979988992
