hollywood-luts/Constantine.cube
TITLE "17x17x17 Adobe/IRIDAS cube 3D LUT exported with GrossGrade v0.2.2 (beta) 64 bit"
DOMAIN_MIN 0 0 0
DOMAIN_MAX 1 1 1
LUT_3D_SIZE 17
0.000000000 0.000000000 0.000000000
0.056534063 0.013258125 0.006839063
0.103432626 0.024149375 0.013203874
0.155781388 0.028139999 0.019484440
0.210242242 0.029724000 0.025136251
0.276895702 0.035483502 0.032398313
0.353224128 0.043460377 0.040454250
0.435559183 0.052992880 0.049211062
0.524108052 0.063980006 0.059312500
0.613314867 0.075194187 0.069982685
0.694581509 0.085504249 0.079854004
0.760622144 0.093945809 0.087964624
0.801350236 0.099159248 0.092997000
0.816467822 0.101083562 0.094843313
0.827485383 0.102521628 0.096227750
0.837509155 0.103705309 0.097375937
0.854686975 0.104489997 0.098140001
0.012210000 0.066714376 0.011466563
0.048211876 0.069601879 0.019388437
0.089412436 0.069648370 0.017796874
0.142949954 0.067943878 0.021529876
0.197817564 0.065419875 0.026550937
0.266395748 0.057061873 0.033155315
0.340814471 0.053069126 0.040276129
0.421817094 0.058827132 0.048517127
0.510310173 0.067746624 0.058283065
0.601072311 0.077407248 0.068923496
0.685035527 0.087962560 0.079103813
0.754761219 0.096791431 0.087655254
0.800841212 0.102598749 0.093323998
0.817708492 0.104758941 0.095398314
0.828589082 0.106181249 0.096776620
0.838073730 0.107349686 0.097903624
0.855188549 0.108125627 0.098587193
0.017039374 0.105977371 0.019372750
0.048674121 0.110760123 0.029634375
0.082482375 0.114228629 0.037898377
0.124195643 0.114684254 0.031343125
0.182503253 0.112554997 0.026670501
0.250512630 0.107724249 0.033287000
0.326042503 0.097257495 0.043327127
0.406210721 0.087946557 0.052054878
0.491791546 0.082383998 0.059043877
0.581759870 0.084649369 0.067689314
0.667805910 0.093726501 0.077881746
0.741669118 0.101821437 0.086800814
0.795592308 0.107151881 0.093263507
0.818747282 0.109804317 0.096093871
0.830092013 0.110978000 0.097458750
0.839362144 0.111913875 0.098513931
0.855836272 0.112683505 0.099190123
0.017245751 0.146144450 0.024807313
0.037446253 0.151992083 0.032279372
0.074391618 0.156293899 0.042451687
0.121176451 0.159720197 0.055589132
0.165411815 0.160518944 0.048638880
0.229791388 0.160955071 0.036827885
0.305981517 0.163117319 0.042827629
0.387613446 0.162978202 0.056512877
0.474034101 0.140799642 0.063352749
0.566368997 0.120391831 0.069531687
0.656024396 0.115959324 0.078984126
0.733154833 0.118327767 0.087718062
0.793153107 0.123216569 0.094805747
0.823008895 0.125585824 0.098341815
0.833691239 0.123631507 0.099313684
0.841404140 0.121922068 0.099877931
0.857963383 0.123460330 0.100677624
0.019785250 0.190596744 0.031125501
0.030912627 0.196155369 0.034944691
0.057567250 0.201336876 0.041769251
0.107500948 0.205903322 0.055986069
0.166917250 0.209787011 0.075585246
0.215649009 0.212169826 0.071095124
0.283532649 0.214731753 0.053277500
0.363238424 0.219103694 0.053160563
0.451491296 0.218735501 0.058280498
0.542667508 0.204771936 0.065692686
0.634578466 0.194462001 0.078538254
0.718446970 0.180698246 0.089753687
0.787574232 0.168648005 0.098073997
0.827560842 0.165668443 0.102673814
0.840465248 0.165347889 0.104055874
0.847268701 0.167050019 0.104742937
0.864409268 0.175758764 0.105849251
0.021999937 0.237280011 0.033741064
0.032009378 0.243939251 0.036968376
0.046326812 0.250084996 0.044198189
0.077512197 0.256777942 0.054607943
0.142261505 0.261647195 0.074603871
0.220302567 0.267139643 0.098734692
0.276836336 0.271382421 0.094053432
0.346090853 0.276762187 0.074621752
0.429059565 0.283700258 0.071166068
0.521032870 0.285411239 0.069595434
0.613303900 0.286023200 0.073637873
0.699375510 0.284573495 0.081887245
0.772777259 0.278857499 0.092164561
0.824074805 0.279127002 0.100213192
0.847066522 0.282633305 0.103478119
0.856983364 0.287358522 0.104440495
0.876694918 0.297099769 0.104882061
0.023156501 0.288593143 0.037753250
0.032017440 0.297751248 0.041179813
0.041677877 0.305741012 0.046836503
0.058859885 0.313092947 0.052621752
0.099179000 0.319931149 0.062774628
0.188870683 0.325160593 0.092770316
0.284454763 0.332479000 0.123537511
0.343817085 0.337749064 0.118038513
0.415667027 0.345748901 0.101899639
0.501464725 0.353418201 0.092630640
0.592452884 0.358917385 0.087365255
0.679418564 0.366122901 0.087034762
0.753086507 0.373753011 0.092220008
0.811543822 0.382390201 0.099786952
0.849416256 0.391649634 0.105250135
0.869448602 0.398387671 0.107033633
0.891225219 0.407081664 0.109626755
0.025924565 0.343189031 0.041945003
0.034048378 0.354083896 0.045153879
0.043532688 0.364244163 0.048568688
0.056980196 0.372580916 0.052604128
0.086680375 0.380752742 0.061287813
0.157437488 0.387491912 0.084025182
0.258131295 0.393300653 0.118415192
0.354205906 0.402147472 0.147820085
0.416920841 0.409313798 0.146849453
0.492632151 0.419184715 0.129237652
0.577453613 0.427206397 0.115379274
0.659967601 0.435505450 0.112152152
0.732577920 0.446051359 0.112606764
0.794411182 0.459986001 0.116360083
0.845423639 0.476408660 0.122705013
0.877731562 0.488853633 0.127022281
0.903852820 0.500769615 0.133259267
0.029888002 0.399038017 0.046491005
0.036593817 0.412056267 0.049505003
0.047028627 0.424340636 0.052461751
0.060111631 0.434080511 0.055505689
0.085236251 0.443153024 0.062482752
0.145335108 0.451465964 0.078646123
0.237870902 0.457295537 0.108592257
0.337770045 0.464712203 0.145346895
0.429684490 0.475502491 0.174619496
0.496589810 0.484415352 0.174731702
0.571841002 0.495018780 0.157511011
0.648612440 0.504355550 0.146277890
0.717916489 0.514814019 0.143167257
0.781040907 0.530710518 0.144947320
0.839714527 0.550863266 0.150246635
0.881497622 0.569401741 0.156023324
0.913469493 0.587234020 0.163158506
0.033076189 0.457141876 0.053151000
0.040608000 0.472138941 0.056626566
0.052308314 0.486819685 0.060060561
0.064870819 0.498708308 0.063004188
0.083952881 0.508661747 0.067419186
0.124714874 0.518318713 0.075633816
0.210753277 0.525287211 0.100107513
0.319252104 0.530673683 0.137798265
0.419773072 0.538704693 0.176050574
0.508958876 0.549081564 0.207159817
0.576066434 0.557850003 0.206205621
0.644830883 0.568212748 0.193731442
0.710944593 0.579059780 0.179188192
0.775051832 0.594561160 0.175512806
0.835055292 0.614118516 0.178803757
0.883158028 0.634557009 0.183397949
0.920207024 0.655786335 0.189713508
0.036897626 0.519691527 0.061531123
0.047016811 0.536111414 0.065394565
0.059362751 0.552749634 0.068885624
0.073588639 0.566336334 0.072513998
0.091098130 0.577059865 0.076425627
0.114759751 0.586562455 0.081068248
0.167761415 0.594511271 0.094672263
0.277305484 0.598095477 0.129294515
0.401185781 0.602040350 0.172430754
0.501023650 0.609426379 0.213390633
0.587047338 0.618987381 0.245417118
0.650911093 0.627331138 0.247897431
0.711479783 0.637927890 0.233665109
0.773343682 0.651816487 0.219011113
0.832257092 0.667088151 0.212532997
0.882622242 0.685879946 0.209774509
0.923671246 0.705867708 0.214713246
0.043236688 0.586971521 0.071175501
0.054866686 0.603789032 0.075281128
0.069147557 0.621601224 0.079270124
0.088345446 0.636333585 0.083829314
0.108327821 0.646280766 0.088036813
0.127498195 0.653969347 0.092881061
0.153500721 0.660079300 0.100099504
0.219586432 0.663221598 0.120312087
0.351630330 0.663331330 0.162352636
0.484516799 0.667193830 0.209202245
0.580442369 0.675280213 0.255633682
0.662332952 0.685830772 0.290592432
0.721043885 0.694716513 0.294291377
0.776401997 0.706270218 0.286664695
0.832014620 0.718441963 0.267378479
0.881833911 0.731480002 0.246835187
0.925534070 0.747745514 0.245385438
0.055214513 0.656502783 0.083603255
0.071594760 0.671192765 0.088706374
0.091986261 0.688532114 0.094388880
0.115421891 0.702520490 0.099752568
0.136136264 0.711024284 0.104276754
0.153880015 0.716275036 0.109421998
0.170709535 0.720197260 0.115629755
0.206096858 0.722610295 0.128327459
0.299600542 0.723094285 0.159329012
0.442973971 0.724565804 0.209468499
0.570749164 0.730306625 0.260149747
0.659679651 0.738683343 0.305706263
0.731705010 0.747792959 0.341302782
0.784813643 0.756315708 0.349566460
0.834523559 0.766039073 0.338250607
0.882325768 0.776331484 0.312955499
0.929175258 0.789157033 0.302496016
0.083604485 0.723223031 0.100792520
0.105701908 0.735572517 0.106165513
0.128062904 0.750382185 0.112452209
0.147832975 0.760300875 0.117980585
0.165399835 0.765980244 0.123554021
0.182295278 0.769811809 0.129769966
0.198550284 0.773100793 0.136259273
0.228973299 0.775901854 0.147006974
0.303488880 0.777398288 0.171101332
0.426323831 0.778504193 0.213287324
0.554444075 0.781610489 0.265471756
0.657490790 0.786671937 0.314625949
0.732120693 0.794208705 0.355907500
0.793169618 0.801986814 0.389691532
0.841416001 0.810188293 0.399441063
0.886687279 0.819660902 0.397368670
0.934152603 0.830538690 0.389830410
0.124053665 0.780406952 0.118751146
0.141675606 0.788477540 0.124644279
0.161023408 0.799596846 0.131556019
0.180504605 0.810326517 0.139154777
0.197922662 0.816734791 0.146720022
0.214993849 0.821013570 0.154393718
0.230905533 0.824438035 0.161558151
0.255800664 0.826853514 0.171113223
0.315011352 0.828119218 0.191379875
0.423106790 0.828503132 0.229020506
0.547918141 0.829473972 0.276616246
0.651675940 0.832173884 0.323074698
0.732278943 0.837252796 0.366244525
0.793962061 0.844427884 0.410092503
0.848004937 0.851004303 0.445344687
0.892491400 0.859441578 0.459964335
0.940895259 0.869908929 0.469054043
0.163684726 0.831475139 0.141855896
0.179939479 0.838261306 0.149059325
0.198948056 0.848801076 0.157857090
0.217513859 0.858257055 0.166668773
0.234997779 0.865171611 0.174773470
0.250234038 0.868729711 0.181436285
0.263405144 0.870586038 0.187116846
0.277021915 0.872103035 0.193154469
0.311244458 0.873193204 0.205389708
0.400758326 0.873195231 0.235822394
0.531780243 0.873111844 0.284828097
0.646973252 0.875168681 0.338741332
0.730949759 0.879014254 0.391453445
0.797331631 0.884188175 0.438868016
0.851201236 0.889400721 0.474430740
0.898080349 0.894629419 0.499535143
0.945825279 0.902762294 0.509092987
0.209879994 0.882986009 0.173204005
0.225103125 0.892209113 0.180836186
0.241535500 0.900142491 0.187913626
0.256358564 0.904928744 0.193644926
0.270358235 0.909449756 0.199392751
0.283149600 0.912783742 0.205020308
0.294247746 0.913783729 0.209940627
0.305710405 0.914549470 0.215344012
0.329530537 0.916123509 0.226349011
0.400913000 0.917112529 0.254962951
0.523060262 0.916724622 0.303022742
0.645368993 0.916618049 0.355192751
0.735404491 0.918526232 0.401446998
0.800735176 0.921736419 0.444716573
0.857262313 0.926392734 0.485443652
0.903171897 0.930613458 0.517033577
0.951815009 0.934731007 0.543622017
0.001360312 0.001650000 0.012145313
0.047273438 0.012389062 0.028001251
0.093603246 0.024262061 0.038270313
0.146321699 0.029244998 0.041357126
0.203256190 0.029382376 0.042591937
0.268462121 0.034859560 0.048234999
0.341223806 0.043000691 0.055750813
0.423027992 0.052145567 0.060488250
0.512810290 0.062786438 0.065861560
0.604597151 0.074192688 0.074253686
0.689718127 0.084972881 0.083617128
0.759000838 0.093824878 0.091589935
0.801567316 0.099262059 0.096467309
0.816717923 0.101212747 0.098146684
0.827708364 0.102606058 0.099316753
0.837611020 0.103793494 0.100370184
0.854809821 0.104539685 0.101093128
0.013367813 0.064357504 0.040511250
0.054416250 0.077081256 0.057391874
0.092724055 0.077082247 0.057957187
0.147029936 0.074433625 0.053876065
0.203738809 0.069875628 0.050002500
0.268885672 0.063741691 0.052412689
0.341372877 0.059486315 0.056371126
0.421514839 0.063442625 0.060321379
0.507837296 0.070268378 0.066032939
0.597460687 0.078612126 0.074582562
0.682881653 0.089061692 0.084231004
0.754497051 0.098003633 0.092531189
0.801446676 0.103777811 0.098067068
0.818432450 0.105976753 0.100208439
0.829283118 0.107357427 0.101555131
0.838886082 0.108502932 0.102662250
0.855665803 0.109333120 0.103829689
0.019129062 0.103485748 0.049966186
0.053874876 0.116088748 0.064054690
0.088461876 0.120503128 0.072747432
0.134610310 0.119767629 0.064301193
0.195558757 0.116290376 0.053541563
0.262484252 0.110964566 0.053648502
0.336231202 0.101435937 0.060100369
0.414118469 0.091248058 0.063449621
0.496742129 0.084571250 0.065848999
0.584870815 0.086446628 0.072733253
0.671182990 0.095272377 0.082630068
0.744901121 0.102844559 0.091260634
0.797062337 0.107968554 0.097454190
0.819445848 0.110678241 0.100231312
0.830522716 0.111648567 0.101539373
0.839940429 0.112584941 0.102619633
0.856528699 0.113567248 0.103379130
0.020324999 0.144465446 0.050353624
0.045064814 0.156423643 0.063513063
0.079643741 0.161735505 0.074608125
0.127857327 0.165163577 0.088020757
0.176955059 0.166594833 0.077750631
0.247171000 0.164769575 0.061814509
0.326382905 0.165628076 0.062758997
0.408319920 0.160385951 0.069199309
0.492733717 0.136598408 0.070897564
0.580563307 0.118803523 0.075323500
0.665688097 0.116678514 0.084196813
0.739339769 0.119329765 0.092383504
0.795775533 0.124002568 0.099066317
0.823633611 0.126268134 0.102376506
0.834193110 0.123939693 0.103264496
0.841788232 0.122130513 0.103856683
0.858336389 0.123397134 0.104576878
0.021531999 0.188926503 0.053725064
0.035465688 0.200534821 0.063794754
0.063228942 0.205664828 0.072250560
0.112970196 0.210576952 0.087717324
0.173854738 0.215004757 0.107087128
0.225303128 0.218080193 0.097921439
0.300892770 0.220193252 0.077484496
0.385894060 0.223062947 0.070083939
0.475700885 0.218112499 0.070247434
0.566347420 0.201390564 0.075213745
0.654439628 0.189076439 0.085822441
0.732346892 0.176393300 0.095334940
0.794734120 0.167952001 0.102761939
0.829527140 0.164593115 0.106650501
0.840868354 0.161785185 0.107664816
0.847377777 0.161171705 0.108159743
0.864510298 0.169134200 0.109258749
0.022282187 0.236099362 0.053521186
0.034156874 0.248225614 0.062887751
0.048661061 0.254437745 0.070607938
0.081619821 0.261250734 0.083710566
0.147217005 0.267377883 0.104296006
0.226019874 0.272484332 0.130689308
0.284566283 0.277791768 0.122668549
0.361443788 0.283946782 0.100059122
0.450007617 0.290286362 0.089636691
0.545291841 0.286335886 0.081566624
0.636806846 0.282788068 0.082759440
0.718239188 0.279800564 0.090360932
0.785152793 0.275907695 0.099600881
0.828639388 0.275386423 0.106440574
0.846393526 0.276897520 0.109009251
0.855434954 0.280568212 0.109808318
0.875469029 0.290901929 0.110070750
0.023485877 0.288249403 0.054012626
0.033433065 0.302749395 0.064316683
0.042415503 0.310763001 0.072292127
0.059546508 0.318154424 0.083583131
0.099775627 0.325566441 0.097526252
0.192398861 0.331981033 0.125509560
0.289673835 0.338455588 0.158477515
0.351746917 0.344951510 0.151382133
0.429348707 0.353241652 0.128008142
0.519240379 0.360118210 0.110575952
0.612635791 0.361701161 0.098770194
0.697268665 0.367146671 0.097353518
0.767814100 0.373035491 0.101274565
0.821721017 0.379056722 0.106796071
0.853409410 0.385908365 0.110125013
0.869066715 0.392977625 0.112483703
0.890168667 0.402390122 0.115266450
0.026347939 0.343783587 0.057809941
0.035517063 0.360243440 0.067675248
0.043852001 0.370287776 0.073235065
0.057246260 0.378730208 0.081002563
0.087545127 0.386739969 0.092542194
0.158965051 0.394368291 0.117848121
0.263394207 0.400307298 0.153649449
0.360936582 0.408985019 0.187536523
0.425523877 0.416814476 0.182316631
0.504766405 0.426925033 0.157058910
0.591477692 0.433470994 0.134678274
0.673914313 0.440589428 0.126145020
0.745305717 0.449580014 0.124050140
0.806655467 0.460701108 0.126221821
0.853363991 0.473312438 0.129853144
0.879390478 0.484016955 0.133322388
0.903168976 0.495155692 0.138803273
0.030098500 0.401137590 0.059935566
0.039049253 0.419320703 0.068499379
0.048456565 0.430742800 0.072919875
0.060982447 0.440446079 0.079496369
0.087911315 0.449251592 0.090602055
0.149490297 0.457991958 0.112566814
0.241216213 0.464930892 0.143887073
0.344309121 0.471956402 0.184415445
0.437254697 0.483134180 0.219323456
0.505762100 0.493036628 0.218235120
0.582890511 0.503790736 0.193093270
0.659557998 0.511034012 0.169431761
0.727875948 0.520565748 0.158377260
0.791901410 0.535111785 0.157266945
0.848326921 0.552558959 0.161004007
0.884761393 0.568509042 0.165247500
0.914043546 0.584955871 0.171173885
0.033320379 0.461194009 0.063931622
0.042951878 0.480760515 0.072196625
0.053047873 0.493908226 0.076576501
0.064963259 0.505185664 0.083035693
0.085291252 0.514200866 0.090811253
0.130525872 0.523535848 0.105533816
0.216337487 0.531728685 0.134551510
0.323514074 0.538591325 0.176797703
0.426339626 0.546184123 0.221081764
0.515829086 0.557354629 0.256581306
0.585146070 0.567617357 0.257409394
0.655428708 0.577589095 0.235122919
0.720735967 0.586381733 0.207404435
0.784075558 0.600386322 0.196053877
0.843344033 0.618431211 0.194126308
0.888195693 0.637735486 0.194633618
0.922466338 0.658162236 0.200022683
0.037388310 0.524749875 0.072380252
0.049356434 0.545934737 0.080229752
0.059619125 0.560729206 0.084165692
0.073729195 0.573087931 0.089391872
0.091697566 0.582715750 0.095338374
0.118045866 0.591246963 0.104882121
0.174170047 0.599240005 0.125212893
0.283126801 0.604874015 0.166445956
0.406784624 0.609630644 0.216079324
0.507744014 0.616686404 0.261351138
0.593804300 0.626885474 0.297371477
0.659629047 0.636730671 0.300370365
0.722182393 0.647482216 0.281189859
0.782395601 0.659093380 0.257392168
0.839669406 0.672561586 0.240504682
0.888981640 0.690346539 0.227810383
0.927040756 0.709282637 0.228989691
0.043707624 0.590740860 0.082203314
0.058039188 0.614547729 0.089715183
0.070963249 0.630491793 0.093743123
0.090042941 0.643326759 0.098337308
0.111089692 0.652274251 0.104221322
0.130585253 0.658942521 0.112450622
0.157726645 0.664516509 0.126726702
0.225526989 0.668540716 0.156380221
0.358656079 0.670354843 0.204308659
0.491951138 0.674116492 0.256912798
0.588046491 0.681926847 0.305700749
0.669663310 0.692708015 0.343962759
0.729527593 0.703485250 0.350580543
0.785404205 0.715501070 0.341263652
0.839431882 0.725503623 0.313493162
0.888246715 0.737499595 0.285518378
0.930122793 0.751778662 0.275897026
0.055703450 0.657772601 0.094628185
0.074962504 0.682707846 0.104038313
0.094278879 0.698468924 0.109237060
0.116955265 0.710254550 0.114339814
0.138463512 0.717186034 0.119295627
0.156595066 0.721219838 0.124880321
0.173305839 0.724439085 0.135942578
0.210432678 0.727203071 0.158429325
0.307263106 0.729090095 0.198027268
0.452489674 0.731417835 0.254939944
0.579941273 0.736934364 0.313330054
0.668247938 0.744973063 0.362910450
0.738386333 0.754439950 0.397923827
0.791424096 0.764297783 0.406145871
0.841873825 0.774537027 0.396817327
0.889157712 0.783705235 0.373067677
0.935066640 0.795139015 0.356948584
0.085578859 0.724333525 0.111531392
0.113750353 0.745725393 0.121537521
0.134432167 0.759120584 0.127557635
0.153177142 0.767096400 0.132662401
0.168828279 0.770983338 0.137507588
0.183735341 0.773928046 0.143351838
0.198673472 0.777062774 0.154454708
0.230564058 0.780525625 0.175741524
0.309241712 0.783442736 0.210335076
0.436276883 0.785745144 0.262234688
0.564662099 0.788835466 0.322208136
0.666467249 0.793580711 0.375344455
0.739983797 0.800153613 0.416374087
0.798856854 0.807820082 0.446067661
0.847275496 0.817001939 0.456695884
0.892965376 0.827180028 0.457104802
0.940194845 0.837802291 0.450147450
0.128454655 0.784224987 0.130214393
0.150953665 0.797517478 0.140175402
0.168937236 0.808313191 0.146959662
0.186557665 0.816950917 0.153819337
0.201651454 0.821295857 0.160084844
0.216714516 0.824521601 0.167361975
0.231739476 0.827793181 0.177370906
0.257373542 0.830966711 0.194915652
0.318958879 0.833422542 0.225050226
0.430344969 0.834746361 0.273502767
0.558292449 0.835832179 0.332447380
0.661768675 0.838283658 0.385796309
0.741325974 0.843247473 0.430849403
0.801153958 0.849598467 0.469982803
0.852585375 0.856486022 0.499291480
0.897473574 0.865368724 0.511892736
0.946361065 0.876549482 0.520328939
0.166477352 0.834721267 0.152131036
0.188397720 0.845391095 0.163938731
0.205990478 0.855578423 0.172207892
0.222848460 0.863929212 0.180026963
0.237706840 0.869112730 0.186716080
0.251278341 0.872180641 0.192751527
0.263811111 0.874107361 0.200396284
0.276905477 0.876092017 0.213420913
0.312393785 0.878108919 0.237405211
0.404398948 0.879379272 0.281569093
0.537709475 0.879833460 0.340916932
0.655525744 0.881137311 0.397962749
0.739269674 0.883935213 0.446888506
0.804339051 0.888348341 0.488654077
0.856540024 0.893571734 0.521589875
0.901085138 0.899187386 0.545079529
0.949015617 0.907196760 0.554395795
0.209231243 0.884913504 0.181735247
0.229625612 0.897711337 0.193199947
0.245414868 0.905990303 0.200043768
0.259776831 0.911435843 0.205865622
0.272307873 0.913982213 0.210978940
0.284313560 0.916047394 0.216796443
0.295249313 0.916899979 0.223936886
0.306286186 0.918204427 0.237016946
0.331144452 0.920462132 0.259225965
0.405476123 0.922414660 0.298975140
0.528559268 0.922698915 0.354120433
0.650375307 0.922302425 0.408698052
0.742528319 0.923610747 0.455578327
0.806808829 0.926119447 0.495652288
0.861662030 0.930290461 0.531803370
0.906748116 0.934816003 0.562043309
0.953417182 0.938969433 0.583951354
0.003383875 0.003699000 0.028391749
0.041424625 0.013379312 0.037973061
0.082889251 0.022383250 0.049537130
0.135416761 0.028106626 0.054963313
0.193595245 0.028674752 0.056631751
0.260355562 0.034082629 0.059981875
0.334604383 0.042516127 0.064518876
0.416765481 0.051695880 0.067401186
0.507173419 0.062244505 0.070884123
0.600488901 0.073748566 0.077724501
0.687396407 0.084703252 0.086158879
0.758159101 0.093741499 0.093704432
0.802075028 0.099358000 0.098550372
0.817029715 0.101280317 0.100119069
0.827774763 0.102669254 0.101136126
0.837626576 0.103825621 0.101923689
0.854874015 0.104578003 0.102564879
0.011785500 0.062426127 0.050684314
0.052862812 0.076968126 0.068335816
0.088576935 0.077907190 0.075474128
0.140036643 0.077135690 0.077937067
0.199256748 0.072038375 0.074777812
0.262756795 0.065309629 0.075966626
0.332303077 0.061050128 0.079101056
0.411358893 0.064388745 0.081959561
0.498817861 0.070289440 0.083308376
0.590784311 0.078238875 0.086688749
0.678153694 0.088837691 0.093059629
0.751872480 0.098079622 0.100538127
0.802168250 0.104090877 0.107072622
0.819545865 0.106350496 0.109954692
0.829775453 0.107634999 0.111406133
0.839317918 0.108792931 0.112499937
0.856098354 0.109580562 0.114138938
0.019083751 0.102976874 0.058507003
0.054317813 0.115643762 0.077997752
0.091244124 0.122716747 0.091165751
0.136581451 0.123664752 0.091064371
0.197469890 0.122167118 0.087363623
0.264890075 0.121305943 0.088363998
0.337282151 0.118833117 0.095433623
0.413025141 0.106467180 0.096482746
0.494457901 0.094079994 0.090516865
0.581537843 0.092701122 0.088407561
0.667606175 0.100277998 0.093201123
0.742861629 0.106589377 0.099950880
0.797354996 0.110787876 0.106042996
0.821272671 0.113672554 0.108849443
0.831802905 0.114080876 0.109593876
0.840907931 0.114780754 0.110272884
0.857916713 0.117165253 0.112769127
0.020538002 0.143353015 0.062568687
0.046839371 0.155426249 0.084772818
0.084169433 0.164950892 0.099919684
0.132717326 0.169137135 0.114792943
0.184839875 0.171026021 0.106913313
0.259046733 0.169950321 0.095917940
0.334995955 0.171494633 0.095748194
0.414250642 0.168267310 0.100363240
0.495998055 0.142300636 0.092420995
0.581638157 0.121211268 0.087131247
0.666355371 0.118282765 0.091851942
0.740800381 0.120578386 0.098907001
0.797138572 0.123645134 0.105243616
0.824412882 0.125899449 0.108234622
0.834775984 0.123711392 0.108755685
0.842249751 0.121458948 0.109077320
0.859250784 0.124757946 0.110925190
0.023663748 0.187115371 0.070429996
0.039149314 0.199885190 0.086708315
0.068931744 0.209824651 0.102555379
0.118961141 0.215517879 0.118519500
0.179531768 0.220163256 0.137798369
0.236145183 0.223855689 0.125929877
0.317209929 0.226382881 0.107639872
0.403479397 0.227715954 0.099920556
0.489806741 0.219173744 0.092772871
0.576898992 0.197931767 0.087325253
0.662236631 0.181819364 0.092715129
0.737964213 0.168706626 0.100905061
0.797919869 0.161081001 0.107514247
0.830198884 0.156250641 0.110789001
0.841078281 0.150672376 0.111337624
0.847134531 0.147255272 0.111523680
