hollywood-luts/Deadpool.cube
TITLE "17x17x17 Adobe/IRIDAS cube 3D LUT exported with GrossGrade v0.2.2 (beta) 64 bit"
DOMAIN_MIN 0 0 0
DOMAIN_MAX 1 1 1
LUT_3D_SIZE 17
0.000000000 0.000000000 0.000000000
0.049263749 0.000000000 0.000000000
0.095444001 0.000000000 0.000000000
0.141619325 0.000538688 0.000000000
0.188616008 0.003735000 0.000738000
0.238563865 0.008422688 0.004490938
0.292013884 0.014004251 0.010498752
0.349262357 0.019559689 0.016736878
0.411285013 0.024607502 0.023189001
0.478773385 0.029280376 0.029916313
0.551330268 0.033704624 0.035816375
0.628106833 0.037876502 0.040620435
0.707337022 0.041278750 0.044828251
0.784986794 0.041728746 0.047373377
0.858997822 0.036479115 0.047740627
0.928947091 0.027168240 0.046895247
0.991423011 0.015907001 0.044964001
0.000000000 0.040314373 0.023623124
0.023748750 0.041596875 0.020048436
0.090059243 0.038525626 0.012958311
0.141864151 0.040143311 0.009743812
0.193284199 0.042965624 0.008976188
0.246197239 0.046752941 0.010775938
0.301235139 0.051104251 0.014178126
0.359146982 0.055697314 0.018697940
0.421429992 0.060342878 0.024106314
0.488863677 0.065072186 0.029676002
0.561267197 0.069848433 0.034627438
0.637874901 0.074520245 0.038936999
0.716454625 0.078340381 0.042505689
0.793112814 0.079278812 0.044343561
0.866118193 0.075891927 0.044180062
0.935016274 0.069370240 0.042776745
0.991634846 0.061895125 0.040109627
0.000000000 0.084568001 0.052399129
0.003259750 0.089787997 0.048176065
0.069581613 0.088057876 0.033761874
0.139573261 0.085463569 0.021547060
0.196616635 0.086686626 0.017045999
0.252876937 0.088884436 0.015995938
0.309946895 0.091593504 0.017131500
0.369154513 0.094950378 0.019753190
0.432112396 0.098818630 0.023592250
0.499737978 0.102977559 0.027968749
0.572123349 0.107459128 0.032180123
0.648509204 0.112124309 0.036031377
0.726277530 0.115865998 0.038975127
0.801779211 0.116741061 0.039952312
0.873857319 0.114317492 0.038973622
0.941443384 0.109614372 0.036962431
0.991819620 0.104314998 0.032841999
0.000000000 0.132665008 0.066352688
0.000239500 0.137925759 0.065957308
0.023091622 0.143321395 0.056368567
0.121463954 0.139800638 0.041003000
0.194930583 0.137199447 0.026918190
0.256812632 0.137611449 0.020380190
0.317290574 0.138762265 0.018537000
0.378698707 0.140390128 0.019145999
0.443017572 0.142725512 0.021120936
0.511265934 0.145728827 0.024153123
0.583911300 0.149383008 0.027667247
0.660056412 0.153333336 0.030970749
0.736772060 0.156308010 0.033121996
0.811118603 0.156807318 0.033239558
0.882323623 0.154950768 0.031676620
0.948648512 0.151485756 0.028687179
0.992289245 0.148257762 0.022857245
0.000000000 0.184028760 0.070961252
0.000000000 0.188693747 0.070120126
0.003585374 0.196089134 0.066263624
0.072780713 0.200177133 0.061534807
0.178336263 0.195478752 0.044134252
0.254705369 0.192701250 0.028519999
0.321092427 0.192853004 0.020093000
0.386314988 0.193294764 0.016700249
0.452934980 0.193992510 0.016486999
0.522635221 0.195464879 0.018109437
0.595835745 0.197690517 0.020825747
0.671670556 0.200092256 0.023339437
0.747372508 0.201654762 0.024418248
0.820749044 0.201586634 0.023711372
0.891059577 0.200066760 0.021543870
0.956034899 0.198133260 0.016910804
0.992828488 0.197366253 0.010131249
0.000000000 0.237038121 0.066042870
0.000000000 0.241405994 0.062974378
0.000806250 0.247070879 0.060903497
0.049847081 0.255713761 0.066485129
0.136751577 0.260299325 0.063864686
0.239841193 0.255063236 0.043375127
0.318765581 0.252348244 0.026018873
0.389625847 0.252586365 0.016357310
0.460378379 0.253027141 0.011245687
0.532268703 0.253229260 0.009916437
0.606281579 0.253594011 0.010697999
0.681918144 0.254028380 0.012000499
0.756947935 0.253941000 0.012160688
0.829622090 0.253317505 0.010683998
0.898894131 0.252590507 0.008106621
0.962292433 0.252661824 0.004990622
0.993571460 0.254011810 0.002056562
0.000000000 0.291614413 0.049969740
0.000000000 0.295431256 0.047303490
0.002609256 0.299799770 0.047946997
0.046678454 0.307050526 0.054077867
0.116888501 0.318345875 0.065084241
0.204475254 0.324065447 0.062958561
0.306254029 0.318858892 0.039824493
0.387693554 0.316549093 0.020793244
0.462858915 0.316860020 0.010007624
0.538079679 0.317203164 0.004029375
0.613515615 0.316708893 0.002638500
0.689355910 0.315624356 0.002946750
0.763961136 0.314511001 0.003036750
0.835930645 0.313945115 0.002519999
0.904247999 0.314385891 0.001276124
0.966415167 0.316110522 0.000362625
0.994811177 0.318745255 0.000000000
0.000000000 0.347512841 0.022769678
0.000247501 0.350594044 0.023621490
0.013995756 0.354460984 0.026479241
0.053595707 0.360221624 0.032262430
0.113696754 0.370557547 0.045003049
0.186198235 0.384884149 0.060753174
0.275291413 0.391249478 0.058918748
0.377008080 0.386020094 0.032506742
0.460391581 0.384056151 0.011402749
0.538505793 0.384231150 0.003010750
0.616129398 0.384541184 0.000000000
0.692606449 0.384352833 0.000000000
0.766945243 0.383688033 0.000000000
0.838140309 0.383704334 0.000000000
0.905914605 0.384934604 0.000000000
0.967916250 0.387209237 0.000000000
0.996276796 0.389831215 0.000000000
0.000397500 0.404038012 0.003954998
0.001434000 0.406631321 0.005273185
0.026352253 0.410217524 0.006998247
0.067573451 0.415670007 0.009541433
0.116287254 0.423690528 0.014551742
0.182584614 0.437659651 0.030725617
0.256871283 0.454556763 0.052838489
0.349668622 0.460811257 0.050259862
0.451274514 0.455972016 0.019308496
0.535748243 0.454819202 0.002839376
0.614796281 0.455506891 0.000000000
0.692050040 0.456755638 0.000000000
0.766107798 0.458280504 0.000000000
0.836665332 0.459394336 0.000000000
0.904264450 0.460670650 0.000000000
0.966929317 0.462302089 0.000000000
0.997567534 0.463685513 0.000000000
0.017437937 0.460452944 0.000000000
0.023327189 0.462908864 0.000000000
0.046227749 0.466557890 0.000000000
0.081285641 0.472245574 0.000000000
0.127065003 0.479996115 0.000000000
0.182584941 0.491317064 0.004179750
0.257311642 0.508980691 0.015185632
0.336643249 0.527376533 0.037803184
0.431997269 0.532786191 0.031910926
0.530003011 0.529246330 0.005871375
0.612846136 0.529325247 0.000000000
0.689801276 0.530874610 0.000000000
0.763382733 0.532890499 0.000000000
0.833416462 0.535130978 0.000000000
0.901056528 0.536367118 0.000000000
0.964618027 0.537097812 0.000000000
0.998412371 0.537093103 0.000000000
0.050906125 0.521431506 0.000000000
0.063974872 0.523792684 0.000000000
0.083782867 0.527525783 0.000000000
0.111801267 0.533343196 0.000000000
0.152021885 0.541348517 0.000000000
0.201995566 0.551798463 0.000000000
0.264470398 0.566051424 0.000000003
0.345382065 0.585191727 0.004811442
0.428552270 0.602395773 0.017274873
0.520916760 0.606235147 0.010502438
0.610389113 0.604107797 0.000000000
0.688114107 0.604636788 0.000000000
0.760606170 0.605982006 0.000000000
0.830305457 0.607369602 0.000000000
0.897838295 0.608593404 0.000000000
0.962298036 0.609118283 0.000000000
0.998965144 0.608741760 0.000000000
0.070641130 0.592874944 0.000000000
0.091157377 0.594848037 0.000000000
0.117064938 0.598169506 0.000000000
0.151139438 0.603403270 0.000000000
0.191383570 0.610556066 0.000000000
0.238362432 0.619807839 0.000000000
0.292870581 0.631135941 0.000000000
0.359188944 0.645270169 0.000000001
0.439768434 0.662398338 0.001055251
0.521624923 0.676110566 0.003165750
0.605910361 0.678044319 0.000000000
0.686195076 0.676647723 0.000000000
0.758764684 0.676811039 0.000000000
0.827767193 0.677414775 0.000000000
0.895478547 0.678037345 0.000000000
0.960258901 0.678479314 0.000000000
0.999509513 0.678347349 0.000000000
0.067228749 0.669839501 0.000000000
0.098074250 0.671176791 0.000000000
0.131171867 0.673805773 0.000000000
0.172209024 0.677882314 0.000000000
0.217705265 0.683419526 0.000000000
0.267037481 0.690619171 0.000000000
0.321257144 0.699283481 0.000000000
0.381544411 0.709438860 0.000000000
0.450320274 0.721981287 0.000000000
0.527409792 0.736086547 0.000000000
0.605736911 0.746370435 0.000000000
0.682702303 0.746933937 0.000000000
0.756952524 0.745923519 0.000000000
0.826424837 0.746041656 0.000000000
0.893611908 0.746471643 0.000000000
0.958634794 0.746601582 0.000000000
0.999874234 0.746021748 0.000000000
0.058107991 0.743319690 0.000000000
0.095422179 0.744207084 0.000000000
0.134873122 0.746217608 0.000000000
0.179389700 0.749222755 0.000000000
0.228537574 0.753413200 0.000000000
0.281377792 0.758931875 0.000000000
0.337151527 0.765721560 0.000000000
0.396463037 0.773698390 0.000000000
0.461074203 0.783417404 0.000000000
0.531983316 0.795039177 0.000000000
0.607101083 0.806678832 0.000000000
0.682964802 0.814409375 0.000000000
0.755232215 0.814412236 0.000000000
0.825426996 0.813678563 0.000000000
0.892944455 0.813693821 0.000000000
0.957557559 0.813828886 0.000000000
1.000316381 0.813118458 0.000000000
0.050420363 0.812633276 0.000000000
0.090011805 0.813450992 0.000000000
0.134061515 0.815049052 0.000000000
0.181798071 0.817549944 0.000000000
0.233289391 0.821310520 0.000000000
0.288516521 0.826023340 0.000000000
0.346580923 0.831795216 0.000000000
0.406982124 0.838571787 0.000000000
0.470249653 0.846414506 0.000000000
0.537936032 0.855710685 0.000000000
0.609592021 0.866011143 0.000000000
0.683037281 0.875678003 0.000000000
0.756017268 0.881504893 0.000000000
0.824804902 0.881313324 0.000000000
0.892770708 0.881006539 0.000000000
0.957609355 0.880874395 0.000000000
1.001648426 0.879974067 0.000000000
0.038685620 0.881200373 0.000000000
0.082905799 0.881884992 0.000000000
0.128918499 0.883277893 0.000000000
0.179262698 0.885477960 0.000000000
0.233843863 0.888669491 0.000000000
0.291603565 0.892650247 0.000000000
0.351479709 0.897516787 0.000000000
0.413181633 0.903292120 0.000000000
0.476704389 0.909867525 0.000000000
0.542982697 0.917394698 0.000000000
0.612180293 0.925850093 0.000000000
0.683073401 0.934612691 0.000000000
0.755069733 0.942710161 0.000000000
0.825213850 0.946763098 0.000000000
0.892208755 0.946532011 0.000000000
0.957451165 0.946321905 0.000000000
1.002225280 0.945298135 0.000000000
0.031044999 0.939270020 0.000000000
0.078483440 0.939866245 0.000000000
0.127447873 0.941061914 0.000000000
0.180164576 0.942905605 0.000000000
0.236017242 0.945634484 0.000000000
0.294607937 0.949321747 0.000000000
0.355653256 0.953685462 0.000000000
0.417936087 0.958475351 0.000000000
0.481044531 0.963985503 0.000000000
0.546130419 0.970341325 0.000000000
0.613641858 0.977421880 0.000000000
0.682877183 0.985126853 0.000000000
0.753632009 0.992923498 0.000000000
0.824200869 0.998964548 0.000000000
0.891099930 0.999779403 0.000000000
0.956411481 0.999822140 0.000000000
1.002228022 0.999794006 0.000000000
0.000000000 0.004802813 0.025279688
0.041891251 0.000765938 0.032476876
0.090011373 0.001808938 0.033911001
0.136475578 0.004561438 0.035176124
0.184301630 0.008357625 0.037766252
0.235221058 0.012891625 0.041807566
0.289546072 0.017898940 0.047237501
0.347387344 0.022962252 0.053191751
0.409859866 0.027746063 0.059068501
0.477806747 0.032170873 0.065015748
0.550793231 0.036210749 0.070827693
0.627860904 0.040046189 0.076168880
0.707275569 0.043308686 0.080928311
0.785132527 0.043580122 0.084252000
0.859107733 0.038376991 0.085752249
0.929030597 0.028931988 0.086326316
0.991454840 0.017635752 0.085862435
0.000000000 0.045621563 0.044590317
0.017839689 0.047786251 0.048756562
0.084258690 0.043998376 0.050118063
0.137231573 0.044713374 0.049572624
0.189650610 0.047142193 0.049238250
0.243564248 0.050512563 0.050096817
0.299411386 0.054416128 0.052768752
0.357982010 0.058715872 0.056658253
0.420817971 0.063232563 0.061102755
0.488759577 0.067803502 0.066031061
0.561674833 0.072334878 0.071101248
0.638711572 0.076803684 0.075859502
0.717492282 0.080483682 0.079982311
0.794144869 0.081238180 0.082578935
0.867120087 0.077623054 0.083414689
0.935770690 0.071122624 0.083452627
0.991599202 0.063558251 0.082512751
0.000000000 0.088631816 0.069343939
0.002134314 0.093466125 0.070861563
0.056959562 0.093232244 0.068220496
0.135522693 0.088867500 0.062404126
0.194037065 0.089759313 0.059162438
0.250997066 0.091796800 0.057710689
0.308787405 0.094428502 0.057768624
0.368681967 0.097618505 0.059421815
0.432242841 0.101347566 0.062307067
0.500431895 0.105427563 0.066154748
0.573418260 0.109868564 0.070446312
0.650259674 0.114427872 0.074618563
0.728099108 0.117916316 0.078013748
0.803471327 0.118604749 0.079654872
0.875445843 0.116006620 0.079927623
0.942849457 0.111124501 0.079281129
0.991885543 0.105862625 0.077189371
0.000000000 0.134757459 0.090208121
0.000135000 0.140000209 0.090394191
0.013256873 0.146233141 0.089496747
0.115219891 0.142908648 0.080851376
0.193155497 0.139475957 0.069445312
0.255865514 0.139640391 0.063912004
0.316809714 0.140645206 0.061741814
0.378828108 0.142310619 0.061512876
0.443694323 0.144695520 0.062799811
0.512551308 0.147730574 0.065207750
0.585854650 0.151389897 0.068488628
0.662448525 0.155298263 0.071912751
0.739238679 0.158089578 0.074397251
0.813460469 0.158385336 0.075162686
0.884429038 0.156396881 0.074702248
0.950320303 0.152862936 0.073271006
0.992179573 0.149628952 0.070033684
0.000000000 0.184657812 0.099815056
0.000000000 0.189919055 0.098487377
0.001415250 0.196820796 0.098449379
0.063480146 0.202465147 0.099924691
0.175247937 0.197808996 0.086862877
0.254224747 0.194491014 0.072908871
0.321336657 0.194356069 0.065575808
0.386901081 0.194631249 0.062410310
0.453984380 0.195340365 0.061831623
0.524327934 0.196863368 0.062926129
0.598177612 0.199148133 0.064999253
0.674460948 0.201585621 0.067239806
0.750289381 0.203071073 0.068606496
0.823435307 0.202854872 0.068633005
0.893359959 0.201273501 0.067611374
0.957691312 0.199336126 0.065194309
0.992887199 0.198531568 0.061248064
0.000000000 0.236910373 0.099379808
0.000000000 0.241835788 0.097096816
0.000565125 0.247406259 0.096685126
0.044887893 0.255855620 0.103081062
0.132510126 0.262042701 0.105713993
0.238007501 0.256997317 0.089068808
0.318981737 0.253750443 0.073589429
0.390651107 0.253803313 0.065043248
0.461793661 0.254106700 0.060583003
0.534161389 0.254245341 0.059320316
0.608785629 0.254583567 0.059691124
0.684769094 0.255026460 0.060490184
0.759894192 0.254949808 0.060746498
0.832372963 0.254321575 0.060105063
0.901214242 0.253617942 0.058621936
0.963822961 0.253790528 0.055761058
0.993633151 0.255231112 0.052358251
0.000000000 0.291146904 0.089278184
0.000000001 0.295440316 0.088186935
0.007126756 0.299935818 0.089467056
0.045361388 0.306669891 0.094383806
0.114864819 0.318142027 0.105909184
0.202398673 0.325567156 0.107701875
0.305179298 0.320587963 0.088612311
0.388464332 0.317831576 0.072018430
0.464371145 0.317945868 0.062579937
0.540026307 0.318134815 0.055967689
0.615883708 0.317461729 0.052594371
0.692085326 0.316318065 0.051267058
0.766772151 0.315245688 0.050588809
0.838499188 0.314746976 0.049544811
0.906201601 0.315289110 0.048047185
0.967606902 0.317259401 0.046502933
0.994768620 0.320109963 0.045230936
0.000000000 0.346623361 0.073434055
0.000961877 0.350247145 0.073946491
0.021570321 0.354319096 0.076555923
0.057430889 0.359926045 0.080998868
0.111228690 0.369596392 0.090302482
0.186036751 0.384545654 0.105508611
0.273775995 0.392729342 0.106354184
0.376610607 0.387635410 0.084864058
0.461548716 0.385322720 0.067176931
0.540304005 0.385281295 0.056571253
0.618266523 0.385455072 0.047727376
0.694892645 0.385054499 0.042118244
0.769257009 0.384341031 0.039698370
0.840252340 0.384372979 0.039069936
0.907433331 0.385742843 0.039070688
0.968767285 0.388343662 0.039823499
0.996302485 0.391147643 0.040620748
0.000000000 0.402970254 0.049892489
0.004789626 0.406082571 0.051177055
0.034322500 0.409865022 0.054813370
0.072890259 0.415293813 0.059932619
0.117610313 0.423080981 0.067536555
0.179742366 0.436389893 0.082417428
0.257127553 0.454248160 0.101114810
0.348588496 0.462430060 0.100756302
0.451434374 0.457505584 0.076284438
0.537088454 0.456013262 0.057775248
0.616578758 0.456498653 0.047030501
0.693883061 0.457615942 0.038025439
0.767819285 0.458984047 0.032193251
0.838128448 0.460019886 0.030841436
0.905315399 0.461363643 0.032271065
0.967443943 0.463248760 0.034946002
0.997594774 0.464792341 0.037438873
0.000049688 0.460220814 0.021070000
0.007281438 0.463021219 0.021842249
0.041147936 0.466649622 0.024009190
0.083227322 0.472029775 0.027854940
0.128970638 0.479658991 0.035537127
0.182319820 0.490549147 0.047282625
0.255164832 0.507860243 0.069021635
0.336853892 0.527314365 0.090316810
0.431584030 0.534295678 0.086897120
0.530522466 0.530548811 0.061883058
0.614072323 0.530312181 0.046101939
0.691210449 0.531704485 0.037478313
0.764646769 0.533592641 0.030863062
0.834428787 0.535741210 0.027239125
0.901668489 0.536948562 0.027762629
0.964834213 0.537759066 0.030456753
0.998427868 0.537904620 0.033801500
0.009825248 0.522254646 0.002029500
0.021176502 0.524882615 0.002036250
0.053899627 0.528670013 0.002345750
0.095833451 0.534206510 0.003631314
0.144247189 0.541884542 0.008005314
0.198417947 0.551917613 0.014739626
0.262809396 0.565574586 0.026603881
0.344335079 0.584538698 0.051139697
0.428755522 0.602483153 0.072546624
0.521052122 0.607301891 0.066877626
0.610990942 0.605005682 0.047075063
0.688911915 0.605342984 0.036312811
0.761506498 0.606584489 0.031148937
0.830991864 0.607859373 0.027771747
0.898228705 0.609050214 0.026033876
0.962399125 0.609579921 0.026788315
0.999041259 0.609249890 0.029146872
0.029476125 0.593801498 0.000215937
0.051101122 0.596115887 0.000217812
0.080536574 0.599756598 0.000225937
0.121009201 0.605089724 0.000240000
0.169869244 0.612170041 0.000668687
0.225064248 0.621050954 0.001518312
0.285655916 0.631776273 0.003563754
0.356096596 0.645289898 0.012718825
0.439351499 0.662163019 0.034755442
0.521787286 0.676224589 0.055399749
0.606205702 0.678683758 0.050226748
0.686641634 0.677198410 0.036961872
0.759150565 0.677267075 0.029987125
0.828222096 0.677736044 0.027346438
0.895719826 0.678318083 0.025765687
0.960397482 0.678804696 0.025359688
0.999580443 0.678719282 0.025605312
0.043030128 0.670449197 0.001151064
0.073716126 0.672110736 0.001162689
0.108343877 0.674818695 0.001208939
0.150203645 0.679076493 0.001289876
0.199179009 0.684805751 0.001439501
0.252874941 0.691952765 0.001639439
0.311150938 0.700374007 0.002166064
0.374505907 0.710228026 0.003085067
0.446712762 0.722216368 0.008629443
0.527055562 0.736080050 0.024688374
0.605890810 0.746536851 0.044069745
0.683028162 0.747271895 0.039666001
0.757261276 0.746277630 0.029894123
0.826668620 0.746280909 0.025643187
0.893928409 0.746636331 0.024944562
0.958686590 0.746753335 0.024815688
0.999913216 0.746370196 0.024613563
0.043565497 0.743658900 0.003481130
0.080580436 0.744798362 0.003515817
0.120478556 0.746717453 0.003628130
0.165401950 0.749949813 0.003824254
0.216977268 0.754280031 0.004132880
0.271776617 0.759758890 0.004549005
0.329614818 0.766438603 0.005151755
0.390553206 0.774370730 0.005907755
0.456540167 0.783846259 0.006843442
0.529543996 0.795077741 0.010183189
0.606817603 0.806670010 0.020760180
0.683151484 0.814577103 0.036293548
0.755519450 0.814495444 0.032429315
0.825701296 0.813818276 0.025745064
0.893143237 0.813782275 0.023753565
0.957733989 0.813957691 0.024225876
1.000308990 0.813206971 0.024148500
0.040564112 0.812800109 0.007910130
0.080831185 0.813804328 0.007968317
0.123776004 0.815486848 0.008102192
0.172416940 0.817975700 0.008340379
0.225946501 0.821684718 0.008683129
0.282389820 0.826384366 0.009120504
0.341280311 0.832213640 0.009659755
0.402592450 0.838985622 0.010287129
0.466881335 0.846719086 0.010997005
0.535550892 0.855849147 0.011786817
0.608438671 0.866011858 0.013828314
0.682851195 0.875564873 0.020365808
0.756180704 0.881511927 0.031338055
0.824938774 0.881232142 0.028778438
0.892901361 0.880815744 0.025012564
0.957635343 0.880906284 0.024386378
1.001655698 0.879831195 0.024580004
0.031352431 0.881208658 0.012345316
0.075607933 0.882023573 0.012385879
0.122748494 0.883416533 0.012487379
0.173320308 0.885539412 0.012693003
0.228352815 0.888784647 0.012955191
0.287034690 0.892870724 0.013289003
0.347705334 0.897821903 0.013712065
0.410116673 0.903564692 0.014178127
0.474552333 0.910043359 0.014705377
0.541214764 0.917520642 0.015283503
0.610614061 0.925915599 0.015876940
0.682249606 0.934599996 0.016922126
0.754738569 0.942560375 0.021180501
0.825215518 0.946764827 0.028841935
0.892201543 0.946516931 0.027869312
0.957438946 0.946308315 0.026654439
1.002225280 0.945284545 0.026646564
0.026047189 0.939367533 0.015788438
0.073372185 0.939739704 0.015832501
0.122918516 0.941027224 0.015922626
0.175531328 0.943001866 0.016040375
0.232061386 0.945791066 0.016217250
0.291729689 0.949278176 0.016465500
0.353076398 0.953624845 0.016745625
0.415102214 0.958668351 0.017047498
0.478900731 0.964183152 0.017395126
0.544756234 0.970448434 0.017740751
0.612339675 0.977510393 0.018058876
0.681880951 0.985130310 0.018457500
0.753241658 0.992934167 0.021342376
0.824173152 0.998969853 0.028430814
0.891101956 0.999745905 0.029109186
0.956402719 0.999573171 0.027985312
1.002228022 0.999577403 0.027709689
0.000000000 0.010310875 0.049246002
0.024563625 0.010250876 0.066031441
0.083479762 0.007050501 0.070775121
0.130131260 0.010515314 0.072922684
0.178243369 0.014745626 0.075196505
0.229847118 0.018856313 0.078742743
0.285203129 0.023370627 0.083522752
0.343937218 0.027741812 0.088833436
0.407111138 0.032042623 0.094457626
0.475633502 0.036250498 0.100351878
0.549146771 0.040072501 0.106291249
0.626779795 0.043632060 0.112035066
0.706653595 0.046649374 0.117361620
0.784695148 0.046626307 0.121415436
0.858843565 0.041269615 0.123957500
0.928855598 0.031792678 0.125843316
0.991610110 0.020502876 0.126928866
0.000000000 0.051162001 0.064103752
0.006287063 0.055014566 0.076270126
0.073559441 0.051317189 0.084294185
0.130402684 0.050944000 0.087640688
0.183657378 0.052928187 0.087721750
0.238589808 0.055730566 0.088401690
0.295515835 0.059142809 0.090479121
0.355133832 0.062935121 0.093738690
0.418784976 0.067159742 0.097855002
0.487400949 0.071559817 0.102646440
0.560975552 0.075852253 0.107806683
0.638598084 0.080073506 0.112923622
0.717765391 0.083525121 0.117549628
0.794569492 0.083913997 0.120839439
0.867475450 0.080179803 0.122816563
0.935981512 0.073572613 0.124130934
0.991763234 0.065783121 0.124720179
0.000000000 0.091701627 0.089672372
0.001922564 0.097330429 0.097069122
0.050084502 0.098648123 0.100490749
0.126548588 0.094341062 0.102004752
0.187641382 0.094132505 0.101189122
0.246325746 0.095596127 0.099102937
0.305468857 0.097943999 0.098100625
0.366445482 0.100882187 0.098955683
0.430971384 0.104519874 0.101337254
0.499957204 0.108582377 0.104769506
0.573665738 0.112869494 0.108962871
0.651140332 0.117207125 0.113349430
0.729327381 0.120526507 0.117100880
0.804855585 0.120992690 0.119544379
0.876626670 0.118216492 0.120769501
0.943651080 0.113357425 0.121530131
0.991781592 0.107815377 0.121482499
0.000000000 0.136923522 0.114358880
0.000119875 0.142310753 0.117542937
0.011386435 0.148322001 0.120586053
0.099674523 0.147290826 0.119605809
0.187639311 0.142199770 0.113465697
0.252423137 0.141934767 0.108628809
0.314378768 0.142815754 0.105483122
0.377337784 0.144475445 0.104107752
0.443168700 0.146903381 0.104498066
0.512924314 0.150053263 0.106360063
0.586975753 0.153743878 0.109411187
0.664184809 0.157544702 0.112800874
0.741216183 0.160176322 0.115475439
0.815227449 0.160328329 0.116878688
0.885914683 0.158219635 0.117494814
0.951502085 0.154698640 0.117536873
0.992294967 0.151381701 0.116658628
0.000000000 0.185540885 0.131879628
0.000000000 0.190901890 0.132481560
0.001206750 0.197367758 0.132914990
0.048291836 0.204413950 0.137587622
0.166626751 0.200086638 0.131814256
0.251841873 0.196086138 0.119046688
0.320268244 0.195803508 0.112109378
0.386331111 0.195905641 0.108631253
0.454139620 0.196661636 0.107239619
0.525278509 0.198362932 0.107570812
0.599930882 0.200737759 0.109137133
0.676691949 0.203128636 0.111099310
0.752602339 0.204550385 0.112488121
0.825702965 0.204310313 0.113062367
0.895235538 0.202763006 0.113040254
0.958999932 0.200926140 0.112525381
