hollywood-luts/Deadpool.cube
TITLE "17x17x17 Adobe/IRIDAS cube 3D LUT exported with GrossGrade v0.2.2 (beta) 64 bit"
DOMAIN_MIN 0 0 0
DOMAIN_MAX 1 1 1
LUT_3D_SIZE 5
0.000000000 0.000000000 0.000000000
0.188616008 0.003735000 0.000738000
0.411285013 0.024607502 0.023189001
0.707337022 0.041278750 0.044828251
0.991423011 0.015907001 0.044964001
0.000000000 0.184028760 0.070961252
0.178336263 0.195478752 0.044134252
0.452934980 0.193992510 0.016486999
0.747372508 0.201654762 0.024418248
0.992828488 0.197366253 0.010131249
0.000397500 0.404038012 0.003954998
0.116287254 0.423690528 0.014551742
0.451274514 0.455972016 0.019308496
0.766107798 0.458280504 0.000000000
0.997567534 0.463685513 0.000000000
0.067228749 0.669839501 0.000000000
0.217705265 0.683419526 0.000000000
0.450320274 0.721981287 0.000000000
0.756952524 0.745923519 0.000000000
0.999874234 0.746021748 0.000000000
0.031044999 0.939270020 0.000000000
0.236017242 0.945634484 0.000000000
0.481044531 0.963985503 0.000000000
0.753632009 0.992923498 0.000000000
1.002228022 0.999794006 0.000000000
0.000000000 0.024905499 0.103720002
0.162982747 0.029673250 0.154618755
0.394646525 0.048432998 0.165891990
0.702478290 0.059033003 0.191200510
0.991392255 0.030982248 0.210973009
0.030391002 0.181812257 0.177106515
0.131713256 0.204518259 0.206957251
0.445920020 0.199457258 0.197620496
0.754991055 0.208302751 0.200335011
0.993171990 0.204571486 0.213289514
0.033956751 0.392781019 0.225987747
0.118564010 0.418446243 0.224546492
0.444079757 0.459298998 0.249890253
0.771888256 0.460159719 0.215766504
0.997901499 0.467763007 0.228712007
0.000000000 0.668406963 0.180692747
0.178817987 0.684705794 0.176539749
0.444927514 0.719776988 0.210435003
0.757608533 0.747005284 0.229297251
0.999911308 0.746657491 0.226533264
0.000000000 0.939091206 0.186291009
0.182182252 0.946669757 0.158826768
0.467910528 0.964599013 0.177560493
0.752250254 0.991683006 0.217928499
1.002228022 0.999596477 0.226912007
0.000000000 0.068505503 0.235826999
0.045292243 0.087540999 0.314229250
0.352361023 0.092693999 0.340085506
0.673510551 0.114752501 0.339973003
0.981084466 0.078082502 0.387158036
0.070840001 0.196371257 0.261216998
0.121724755 0.220315248 0.308159530
0.393431991 0.224789992 0.380244523
0.737411499 0.232036501 0.366640270
0.993914008 0.221211255 0.422965765
0.156368002 0.367081046 0.355124533
0.174822256 0.385646999 0.375302017
0.340618491 0.442487538 0.442911506
0.777925730 0.450050771 0.443370998
0.998359501 0.470643014 0.477313519
0.073814243 0.661100984 0.463669002
0.197637022 0.676967740 0.466675252
0.405180275 0.704892278 0.468637526
0.750942528 0.744493008 0.498502016
1.000151515 0.746461511 0.490948260
0.000000000 0.937300980 0.463033497
0.173694998 0.943218470 0.456947774
0.459057003 0.960371971 0.458528996
0.746574521 0.987712979 0.483336747
1.002228022 0.999802470 0.493486017
0.000000000 0.133832008 0.389760017
0.000000000 0.147022754 0.460683763
0.213258758 0.169207752 0.538433552
0.612565815 0.176416516 0.547588289
0.943233967 0.159594744 0.574860275
0.084177241 0.241234750 0.390421033
0.082871251 0.267906487 0.463633031
0.225412756 0.295157254 0.582615018
0.666875720 0.287862003 0.586764276
0.981071711 0.276821017 0.631700993
0.186478257 0.376504779 0.433986485
0.202458009 0.394915521 0.458481014
0.296327531 0.432684004 0.530743241
0.727774262 0.471522510 0.673032284
0.998850226 0.481706262 0.705948770
0.118042745 0.651913762 0.637140989
0.238894999 0.666903019 0.652211547
0.381599754 0.682608426 0.670658290
0.704418302 0.737906218 0.734099329
1.000293493 0.745920539 0.743188977
0.012513500 0.942552269 0.713712513
0.212218255 0.944288969 0.719160795
0.431275249 0.950511754 0.721510768
0.707411051 0.973322988 0.733986259
1.002218962 1.000013947 0.756045282
0.000000000 0.196369007 0.541058004
0.000000000 0.205737755 0.598956764
0.003521002 0.236116499 0.702229023
0.540844798 0.232490242 0.769421756
0.911337972 0.189960003 0.784058988
0.019153500 0.303452760 0.559927762
0.020946752 0.321447492 0.615619719
0.027584745 0.350057989 0.750962794
0.578725040 0.341820508 0.825787008
0.952275038 0.312913001 0.839671254
0.203777999 0.406679988 0.540673971
0.219012499 0.424390286 0.571983695
0.307704508 0.466167033 0.691815019
0.630893290 0.519931495 0.930657506
0.989580989 0.499064028 0.922662973
0.097991496 0.658560276 0.802874207
0.227396011 0.670170069 0.818054736
0.376078010 0.683712721 0.844843268
0.703237534 0.739620268 0.930093765
1.000749826 0.750275254 0.967424750
0.016077001 0.932864010 0.910975993
0.194586009 0.931777954 0.915186286
0.430571496 0.938727021 0.925024509
0.733615994 0.970192492 0.958640993
1.002207994 1.000013947 0.995721996
