hollywood-luts/Doctor Sleep.cube
TITLE "17x17x17 Adobe/IRIDAS cube 3D LUT exported with GrossGrade v0.2.2 (beta) 64 bit"
DOMAIN_MIN 0 0 0
DOMAIN_MAX 1 1 1
LUT_3D_SIZE 5
0.000000000 0.001436000 0.028656000
0.175793752 0.018668750 0.029470500
0.433534503 0.017393000 0.029767500
0.698083997 0.018657750 0.030074999
0.974996984 0.018167000 0.030354001
0.061698753 0.150766253 0.034279000
0.225276738 0.186163247 0.032183249
0.474561751 0.223765254 0.032396749
0.731534541 0.232624516 0.031813253
0.990206957 0.246250004 0.029869750
0.233545005 0.329790026 0.059208006
0.322647750 0.358128786 0.043003500
0.487368494 0.448036492 0.039869003
0.748162270 0.494045556 0.032573748
0.997943044 0.498883009 0.029335000
0.402818263 0.534947038 0.212168261
0.481420755 0.555181265 0.179381773
0.577972770 0.629334748 0.097376764
0.756201506 0.726538241 0.050088752
1.000055552 0.751685500 0.029322751
0.551177979 0.787490010 0.414038986
0.628376007 0.815240264 0.402370006
0.728991508 0.866482019 0.351502001
0.832216740 0.972419262 0.135167003
1.000020981 0.997210026 0.029454000
0.001313500 0.025255002 0.079478003
0.157159761 0.032713249 0.121733256
0.425221771 0.012933750 0.149284497
0.695463777 0.009203251 0.183425248
0.971547246 0.010200250 0.216886759
0.004677000 0.172664002 0.157893747
0.174361497 0.197371244 0.169143006
0.478506029 0.213843748 0.196726263
0.738452792 0.213617489 0.209159747
0.997334003 0.212463498 0.194043517
0.119283505 0.335395277 0.160199746
0.264196277 0.361166984 0.152568012
0.481003523 0.448854506 0.179336488
0.751509249 0.493783236 0.239520013
0.999817729 0.496021003 0.225650251
0.353982031 0.534332275 0.255267262
0.452284753 0.557723522 0.238859266
0.573626280 0.623504281 0.191134751
0.757571280 0.729101241 0.186043993
1.000795960 0.751356483 0.239898503
0.529175758 0.790701747 0.457275242
0.611321568 0.818155050 0.447152257
0.725222230 0.868004262 0.409955978
0.836625040 0.971233249 0.205381751
1.001791954 0.999930501 0.074902497
0.013250003 0.071500503 0.173064008
0.134425253 0.086648002 0.238640264
0.355805010 0.096129507 0.255928010
0.646701217 0.045802254 0.335124016
0.948040962 0.016695503 0.407465518
0.000070000 0.206479490 0.270138741
0.088609755 0.234950006 0.306633502
0.413424522 0.241626501 0.335754514
0.704912782 0.215475768 0.388079524
0.992112994 0.202113509 0.433845758
0.015335503 0.402410030 0.373007059
0.136588752 0.420752287 0.387006044
0.442298532 0.454753518 0.405660510
0.744862556 0.490905255 0.465348780
1.002208471 0.490726471 0.477492511
0.216905758 0.566969514 0.403760016
0.325720489 0.581428766 0.403904021
0.509033203 0.614637256 0.405205011
0.744916499 0.720463037 0.444214255
1.002181053 0.750676990 0.492402256
0.459031492 0.801965952 0.527493477
0.547957778 0.826442003 0.523825228
0.676362514 0.872785985 0.494707525
0.828370035 0.965213716 0.353836000
1.002414465 1.000020027 0.432980508
0.054577254 0.121785253 0.258174509
0.137540996 0.144900739 0.331857234
0.345812261 0.166121006 0.374478757
0.549749553 0.181842506 0.399302244
0.860261202 0.130484760 0.529464006
0.006487253 0.243400499 0.355247229
0.085755005 0.271756500 0.389656752
0.366787255 0.306181252 0.459853232
0.602577329 0.297104537 0.465747982
0.904932022 0.295963258 0.579423964
0.000293000 0.452176780 0.510325789
0.093002513 0.477102250 0.537765324
0.381004006 0.505543828 0.560757995
0.674814284 0.517620742 0.587746501
0.984433234 0.498500526 0.661068738
0.182559252 0.664733529 0.623486221
0.262995780 0.678573251 0.634021521
0.445191264 0.690699816 0.640552521
0.705264807 0.725649774 0.657274008
1.001931548 0.756180763 0.715803206
0.388091981 0.872366548 0.694543242
0.444963753 0.892395020 0.699033737
0.523290277 0.926601231 0.685099483
0.760874271 0.969205022 0.687304735
1.002368212 1.000020027 0.738551497
0.103179000 0.179306000 0.345243990
0.175824761 0.211599261 0.399344504
0.354104996 0.244148999 0.491449505
0.553947985 0.276217759 0.516734481
0.729996026 0.295855999 0.549208999
0.078585751 0.291772515 0.437323511
0.152049497 0.319765210 0.470081002
0.347696036 0.364718258 0.548485279
0.589255035 0.387765229 0.584186792
0.775522232 0.409667730 0.607588768
0.047901504 0.484439999 0.597326517
0.150571018 0.503787518 0.618684053
0.346881986 0.536584496 0.649632514
0.620552540 0.568771005 0.693808198
0.852059007 0.576667488 0.717222512
0.192706510 0.710807502 0.757273018
0.259997517 0.730147541 0.777788043
0.426652789 0.755850494 0.800540268
0.639676809 0.781702757 0.823983252
0.921207249 0.795186520 0.848766267
0.194453999 0.974949002 0.917600989
0.256830752 0.993934512 0.935524464
0.455249518 0.999950051 0.954034507
0.708475769 1.000020027 0.968839049
0.987394989 1.000031948 0.996331990
