hollywood-luts/Doctor Sleep.cube
TITLE "17x17x17 Adobe/IRIDAS cube 3D LUT exported with GrossGrade v0.2.2 (beta) 64 bit"
DOMAIN_MIN 0 0 0
DOMAIN_MAX 1 1 1
LUT_3D_SIZE 17
0.000000000 0.001436000 0.028656000
0.022107188 0.006084125 0.028955063
0.061578751 0.010684125 0.029041501
0.114621133 0.015265250 0.029190751
0.175793752 0.018668750 0.029470500
0.239714056 0.019894000 0.029587375
0.304474413 0.019503376 0.029634250
0.369163424 0.018283501 0.029709250
0.433534503 0.017393000 0.029767500
0.498079747 0.017228751 0.029809125
0.563405871 0.017482251 0.029833125
0.629975855 0.018022563 0.029887812
0.698083997 0.018657750 0.030074999
0.767418563 0.019168876 0.030178687
0.837332070 0.019132875 0.030290000
0.907059252 0.018782938 0.030379312
0.974996984 0.018167000 0.030354001
0.002730938 0.031915061 0.033294749
0.031104377 0.037020687 0.031198498
0.076595940 0.043281436 0.030414311
0.132205188 0.049767878 0.030104876
0.192859828 0.054610997 0.030247126
0.255559862 0.057005376 0.030269250
0.319065958 0.057433378 0.030230500
0.382768422 0.056879438 0.030269688
0.446542144 0.056364939 0.030361937
0.510578990 0.056486376 0.030459562
0.575369477 0.057412997 0.030595686
0.641319036 0.059163190 0.030749375
0.708441019 0.061362751 0.030871438
0.776683688 0.063672192 0.030966938
0.845566154 0.065899938 0.031071626
0.914310217 0.067973189 0.031101625
0.980678260 0.069386378 0.031121813
0.009875376 0.070720628 0.035879001
0.044264439 0.075565502 0.033015378
0.091424122 0.082344130 0.031394247
0.147254586 0.090877250 0.031025875
0.206707507 0.097757369 0.030969124
0.268583298 0.102037378 0.031004189
0.331364751 0.104167752 0.031010250
0.394451678 0.104850382 0.031005125
0.457697004 0.105086997 0.031010624
0.521362364 0.105503306 0.031015063
0.585699379 0.106588379 0.031009499
0.650922537 0.108649440 0.031008812
0.717128754 0.111424379 0.031011125
0.784423769 0.114739820 0.031034250
0.852349520 0.118359506 0.031073751
0.919731915 0.121964380 0.031007001
0.984863222 0.125028878 0.030917501
0.028082823 0.111066699 0.035846502
0.065301694 0.114815563 0.033291250
0.108965881 0.120854884 0.031954940
0.158890143 0.131212637 0.031488188
0.217342690 0.144143373 0.031496439
0.278755397 0.152804822 0.031550687
0.341315180 0.157749951 0.031703625
0.404091895 0.160411879 0.031714499
0.467066109 0.161823004 0.031657249
0.530479968 0.162922010 0.031615812
0.594558775 0.164311573 0.031589378
0.659394026 0.166457072 0.031536188
0.725087941 0.169308126 0.031428125
0.791689336 0.172810823 0.031297252
0.858694732 0.176809013 0.031227751
0.925195158 0.180980697 0.031126000
0.988241792 0.184381947 0.030122126
0.061698753 0.150766253 0.034279000
0.095155872 0.154328376 0.032897875
0.132248998 0.160584122 0.032125626
0.174631134 0.170738757 0.031996123
0.225276738 0.186163247 0.032183249
0.285884291 0.203927442 0.032259125
0.348810613 0.214821383 0.032263376
0.411708325 0.220552504 0.032432064
0.474561751 0.223765254 0.032396749
0.537784934 0.225855559 0.032291751
0.601629257 0.227740750 0.032155626
0.666181922 0.229953930 0.031986874
0.731534541 0.232624516 0.031813253
0.797768831 0.235797316 0.031657249
0.864328980 0.239370733 0.031538878
0.929922223 0.243166924 0.031356376
0.990206957 0.246250004 0.029869750
0.104029998 0.191882744 0.033755124
0.131350368 0.195407316 0.033038560
0.161212191 0.201558188 0.032579251
0.196499631 0.212232441 0.032567438
0.239168212 0.227099001 0.032909688
0.291247725 0.247382015 0.033365000
0.353252441 0.268627942 0.033289377
0.417156518 0.281192064 0.033099875
0.480407804 0.287557065 0.033117063
0.543543279 0.291156650 0.032972436
0.607163846 0.293659180 0.032749441
0.671556652 0.295918226 0.032481935
0.736734450 0.298263669 0.032210186
0.802605271 0.300897688 0.031941563
0.868795931 0.303741753 0.031712811
0.933949232 0.306708753 0.031478312
0.992054760 0.309080303 0.029760811
0.147921890 0.235595882 0.036014501
0.170190006 0.239082456 0.035152938
0.195058510 0.244707406 0.034339752
0.224572584 0.254812896 0.033924691
0.260513514 0.270101637 0.034035750
0.304194301 0.289123297 0.034588438
0.357042134 0.312813878 0.035122499
0.419698477 0.335713089 0.034720499
0.484245509 0.349033147 0.034013376
0.548227489 0.355839431 0.033543125
0.611881912 0.359575003 0.033164002
0.676018834 0.362127334 0.032787561
0.741013646 0.364238024 0.032402497
0.806639433 0.366306722 0.032026559
0.872511804 0.368471533 0.031716872
0.937284231 0.370634139 0.031416498
0.994074762 0.372235000 0.029580500
0.190894455 0.281701416 0.042999070
0.210403442 0.285134345 0.041374568
0.232472390 0.290216386 0.039241567
0.258207649 0.299056709 0.037647318
0.288712770 0.313564152 0.036575563
0.325331986 0.333170980 0.036469750
0.369366109 0.354776800 0.037072688
0.422285378 0.380102009 0.037313253
0.485372066 0.403301477 0.036199253
0.550613880 0.416653663 0.034807876
0.615688145 0.423652232 0.033716377
0.680081189 0.427325040 0.033018999
0.744837761 0.429682612 0.032443937
0.810120165 0.431463718 0.031946499
0.875674069 0.433111906 0.031567313
0.940122902 0.434596717 0.031168871
0.996083856 0.435572714 0.029436501
0.233545005 0.329790026 0.059208006
0.251866519 0.333226442 0.055417381
0.272429019 0.337763280 0.050887629
0.295908660 0.345251083 0.046431754
0.322647750 0.358128786 0.043003500
0.353493869 0.377003849 0.040848814
0.390263289 0.399622887 0.040145751
0.434290141 0.422370374 0.040525943
0.487368494 0.448036492 0.039869003
0.550829291 0.470560014 0.037851565
0.616826534 0.483595878 0.035564624
0.682923436 0.490540028 0.033736061
0.748162270 0.494045556 0.032573748
0.813332617 0.496062338 0.031800941
0.878428459 0.497424006 0.031297375
0.942613006 0.498431146 0.030821936
0.997943044 0.498883009 0.029335000
0.276465923 0.379333764 0.087050937
0.294153064 0.382832766 0.081306875
0.313868880 0.386981010 0.074231058
0.336007446 0.393374115 0.066098183
0.360413611 0.404233336 0.058044314
0.387250006 0.421270251 0.051211875
0.418019831 0.443692297 0.046979561
0.454848021 0.468064815 0.044959251
0.499198288 0.491058260 0.044547312
0.552924991 0.516230881 0.042779122
0.616667509 0.537497163 0.039458312
0.683223844 0.550020099 0.036097124
0.749969363 0.556557477 0.033568438
0.815833807 0.559690773 0.031918623
0.880882502 0.561175704 0.030994812
0.944670081 0.561987460 0.030411746
0.999380887 0.562033176 0.029198062
0.319326371 0.429881513 0.123951495
0.336566985 0.433544129 0.117884561
0.355733097 0.437572509 0.109732747
0.377114564 0.443145990 0.099312499
0.400216252 0.452205986 0.087150499
0.424631745 0.466792941 0.074426815
0.451216877 0.487645864 0.063202247
0.481924713 0.512652755 0.055172939
0.519260049 0.537814856 0.050725125
0.564547420 0.560685277 0.048733559
0.619316101 0.584861517 0.045556001
0.683246434 0.604624271 0.040670689
0.750021458 0.616223037 0.036492370
0.816816509 0.621904075 0.033306688
0.882522225 0.624312878 0.031265873
0.946147501 0.625168622 0.030139498
1.000112176 0.624939263 0.029042624
0.361574799 0.481542766 0.166170552
0.378636986 0.485492438 0.160644636
0.397412777 0.489602953 0.152951062
0.418325007 0.494685203 0.142483443
0.440815747 0.502301395 0.129077882
0.464136750 0.514538884 0.112943687
0.488260210 0.532873869 0.095448054
0.514608085 0.556924105 0.078889310
0.545663416 0.583620310 0.065801695
0.584073186 0.609074354 0.057618059
0.630879223 0.631730556 0.052928500
0.686895490 0.654679894 0.047775064
0.750925422 0.672521830 0.041921623
0.817376375 0.682687163 0.036836494
0.883226156 0.687025845 0.033264186
0.947077274 0.688325882 0.030796498
1.000202417 0.687809885 0.029055750
0.402818263 0.534947038 0.212168261
0.419965327 0.539212465 0.207557961
0.438576132 0.543495059 0.200977266
0.459174931 0.548488140 0.191780508
0.481420755 0.555181265 0.179381773
0.504540145 0.565406382 0.163055077
0.527787030 0.580988050 0.142802387
0.551589429 0.602719426 0.119949505
0.577972770 0.629334748 0.097376764
0.609861851 0.657248855 0.078391641
0.649864256 0.682816148 0.065234132
0.698741734 0.705198765 0.057072818
0.756201506 0.726538241 0.050088752
0.820086777 0.741860569 0.043404184
0.885259748 0.749879897 0.037983999
0.948276281 0.752323210 0.033547681
1.000055552 0.751685500 0.029322751
0.442724466 0.591138780 0.261306792
0.460022688 0.595805585 0.257757455
0.478645146 0.600329041 0.252415806
0.499101430 0.605380177 0.244914681
0.521332145 0.611728191 0.234610990
0.544616699 0.620564640 0.220441759
0.568032444 0.633693933 0.201201171
0.591035485 0.652570128 0.176276982
0.614626408 0.677436352 0.147066802
0.641464233 0.706184685 0.117232308
0.674808085 0.734951675 0.091304980
0.717150509 0.760435700 0.072809160
0.768694639 0.782397389 0.061711892
0.827654064 0.801258028 0.054041073
0.890530109 0.813300848 0.047393005
0.951790631 0.817996621 0.040304366
0.999890685 0.817789435 0.029508939
0.481080651 0.651373327 0.312591314
0.498598367 0.656534493 0.310049564
0.517259181 0.661431432 0.305980921
0.537595689 0.666776776 0.300074548
0.559818566 0.673359990 0.291926324
0.583351672 0.681680977 0.280592293
0.607382417 0.693168938 0.264493793
0.630881131 0.709499717 0.241643101
0.653664291 0.731824636 0.210931823
0.677399993 0.759479523 0.174107939
0.705322504 0.789601684 0.135986060
0.740853310 0.818546891 0.102889732
0.786232471 0.843494833 0.080020897
0.840683937 0.864074051 0.068450071
0.900091052 0.879216135 0.064262897
0.958669424 0.886250675 0.055715725
0.999407351 0.886409461 0.029682625
0.517169297 0.716772556 0.363866866
0.534796834 0.722564757 0.362141311
0.553366423 0.728070557 0.359124959
0.573590040 0.734161139 0.354583979
0.595492780 0.741524696 0.348209441
0.619069934 0.750184178 0.339446366
0.643710971 0.761036694 0.326926678
0.668369472 0.775556624 0.308413237
0.692169607 0.795214891 0.281043380
0.715378284 0.820379019 0.243507966
0.740010262 0.849592865 0.198188320
0.769643247 0.879881084 0.150902987
0.807727814 0.907523096 0.106930271
0.856068850 0.929840744 0.083211511
0.912102401 0.946657658 0.078006513
0.967682898 0.955392838 0.086708941
0.999979734 0.954532206 0.029757749
0.551177979 0.787490010 0.414038986
0.568591118 0.793640912 0.412922442
0.586829364 0.799911737 0.410581738
0.606693864 0.806854129 0.407202989
0.628376007 0.815240264 0.402370006
0.651863694 0.824773729 0.395773798
0.676975846 0.835824370 0.386577874
0.703136444 0.849292099 0.372931063
0.728991508 0.866482019 0.351502001
0.753529251 0.888330817 0.318324298
0.777049243 0.914891839 0.271633238
0.801923931 0.944720924 0.213051051
0.832216740 0.972419262 0.135167003
0.871041298 0.988762498 0.042874053
0.919796467 0.992037714 0.030107375
0.971872568 0.994702220 0.029406186
1.000020981 0.997210026 0.029454000
0.000413438 0.005359438 0.036073502
0.020702813 0.009011937 0.040212560
0.059796378 0.012199688 0.041912500
0.114863321 0.014214000 0.042817250
0.177709818 0.014856124 0.043531500
0.242729366 0.014203001 0.044806249
0.307645321 0.013197750 0.046373002
0.372174472 0.012668813 0.048238941
0.436473221 0.012467314 0.050452687
0.501070976 0.012787813 0.052696690
0.566535115 0.013676938 0.054966561
0.633133709 0.014757562 0.057473753
0.700908363 0.015695250 0.060185567
0.769685864 0.016320188 0.063142873
0.839235663 0.016760938 0.066065311
0.908561110 0.016849626 0.069063678
0.976118267 0.016664188 0.071602128
0.001836563 0.036464751 0.047360063
0.026205000 0.041220687 0.047312248
0.071434066 0.045832064 0.047823939
0.130271330 0.049291939 0.047841877
0.194120929 0.050645567 0.047828998
0.258893251 0.049836066 0.048117496
0.323215961 0.048362434 0.048929252
0.386921167 0.047292374 0.050303496
0.450356007 0.047276501 0.051981375
0.514077425 0.048489064 0.053954128
0.578564346 0.050649688 0.056275502
0.644135833 0.053511627 0.058834378
0.710896671 0.056721941 0.061649065
0.778690934 0.059933633 0.064631246
0.847354472 0.062948123 0.067554064
0.915683985 0.065538689 0.070516124
0.981832325 0.067505747 0.073058069
0.005848500 0.075236186 0.053929061
0.034089688 0.080006994 0.051760249
0.082034245 0.085607871 0.050475124
0.142742068 0.092004128 0.051232811
0.206599131 0.095840439 0.051272877
0.271421939 0.097137570 0.051468562
0.335741252 0.096856937 0.051965751
0.399238288 0.096032381 0.052743375
0.462276876 0.095794819 0.053900190
0.525517106 0.096671686 0.055524185
0.589331210 0.098713808 0.057620443
0.653993189 0.101856880 0.060042627
0.719692886 0.105770066 0.062671244
0.786391258 0.110129133 0.065477058
0.853937507 0.114660315 0.068338439
0.921241045 0.119096316 0.071112685
0.985672593 0.122640751 0.073248379
0.016307632 0.114850186 0.054993685
0.048898507 0.119041130 0.052239500
0.094658129 0.124568127 0.050309688
0.151160389 0.133494645 0.050209813
0.215329692 0.144629776 0.052988566
0.280305982 0.151102886 0.054457251
0.344748974 0.153920382 0.055239938
0.408459783 0.154743135 0.055998936
0.471676916 0.154919267 0.057017438
0.534885705 0.155542836 0.058391437
0.598535538 0.157078147 0.060146749
0.662862718 0.159786940 0.062251002
0.728017271 0.163528010 0.064619191
0.793980420 0.167995572 0.067173004
0.860547125 0.172924623 0.069854751
0.926517606 0.177901521 0.072112747
0.989286482 0.180585250 0.068520248
0.040814441 0.154068500 0.052344438
0.073839948 0.158082321 0.050104000
0.115344062 0.163961694 0.048347250
0.164378017 0.173214003 0.047782622
0.221202001 0.187684998 0.049632750
0.285872608 0.204450950 0.054707188
0.350902259 0.213982195 0.057749808
0.414898068 0.218174264 0.059379563
0.478306293 0.220071375 0.060539059
0.541673541 0.221273378 0.061804935
0.605386734 0.222703189 0.063307248
0.669611931 0.224870697 0.065095440
0.734538436 0.227914259 0.067162931
0.800206900 0.231721431 0.069417499
0.866109312 0.236119241 0.071845874
0.931215465 0.240699306 0.073881805
0.991263986 0.243246451 0.068871252
0.078873247 0.194693327 0.049753375
0.108921312 0.198529825 0.048030689
0.144047931 0.204350755 0.046600997
0.185418755 0.214249313 0.045792937
0.233444452 0.228509426 0.046317935
0.289508641 0.248488322 0.049921688
0.353993356 0.269337475 0.056821316
0.419101089 0.281114012 0.061437629
0.482979745 0.286472261 0.063852191
0.546434879 0.289219946 0.065382309
0.610148549 0.291121155 0.066841185
0.674428582 0.293051630 0.068370312
0.739324331 0.295405328 0.070074946
0.804875493 0.298313081 0.071983621
0.870548666 0.301641852 0.074084371
0.935055792 0.305130333 0.075842932
0.992871702 0.307186514 0.070371062
0.124528140 0.237606838 0.050310127
0.150155962 0.241282478 0.048486065
0.179630816 0.246827528 0.046744000
0.214072734 0.256392866 0.045455318
0.254293770 0.271125287 0.045134004
0.301269561 0.289998233 0.046320874
0.356440902 0.313747317 0.051250312
0.420566052 0.336622328 0.059499312
0.485874355 0.349399805 0.065198503
0.550168514 0.355549663 0.068257630
0.614001215 0.358733594 0.070066378
0.678187251 0.360906094 0.071515068
0.743035257 0.362887025 0.072937876
0.808404088 0.365061194 0.074511811
0.873973250 0.367427409 0.076222554
0.938298881 0.369813710 0.077639550
0.994695067 0.371190965 0.072058000
0.172040403 0.282892942 0.057095133
0.194252595 0.286585033 0.054222256
0.219613209 0.291651666 0.051243883
0.248995692 0.300272018 0.048530258
0.282775223 0.314261645 0.046698127
0.322062254 0.333613843 0.046233818
0.367863595 0.355399460 0.047964312
0.422268748 0.381113410 0.053539313
0.486232996 0.404227465 0.062391810
0.551973522 0.417195797 0.068664253
0.617122471 0.423783481 0.072202623
0.681600034 0.427084297 0.074166685
0.746304870 0.429202318 0.075511254
0.811393857 0.430953532 0.076789938
0.876757979 0.432640344 0.078159750
0.940903664 0.434193105 0.079201490
0.996599853 0.434986979 0.073925376
0.219105333 0.330351472 0.073413074
0.239286274 0.334146798 0.069209442
0.262082756 0.338760316 0.064269565
0.288098961 0.346178114 0.058590315
0.317316711 0.358604312 0.053766690
0.350257754 0.377125680 0.050450377
0.388573796 0.399770617 0.049580567
0.433535188 0.422964394 0.051040128
0.487643838 0.449032396 0.056856185
0.551688194 0.471426845 0.065558814
0.617972255 0.484187752 0.071794629
0.683957875 0.490798712 0.075437814
0.749208450 0.494007885 0.077466309
0.814230204 0.495896339 0.078715369
0.879222155 0.497238338 0.079769060
0.943069935 0.498253882 0.080517367
0.998380303 0.498584151 0.075945623
0.265355170 0.379653692 0.100125939
0.284284890 0.383446813 0.095033310
0.305521429 0.387836128 0.088345125
0.329495907 0.394195676 0.079974689
0.355747938 0.404695749 0.071052499
0.384289563 0.421248436 0.063037314
0.416307092 0.443499833 0.057417311
0.454001725 0.468170762 0.055007439
0.498966932 0.491703272 0.055603750
0.553384423 0.517138362 0.061021499
0.617519736 0.538330138 0.068838313
0.684132457 0.550543427 0.074430257
0.750683784 0.556785703 0.077908188
0.816518128 0.559713185 0.079928689
0.881427407 0.561155915 0.081014872
0.944911659 0.561938107 0.081608057
0.999592364 0.561911464 0.077987872
0.310571641 0.430251807 0.135155752
0.328707218 0.434064448 0.129855126
0.348914027 0.438365459 0.122622818
0.371587276 0.444020927 0.112979501
0.396157831 0.452783316 0.101264372
0.421993673 0.466880888 0.088478506
0.449700445 0.487336546 0.076635815
0.481172651 0.512361228 0.067483246
0.518970966 0.537992239 0.062474437
0.564721406 0.561358213 0.061553437
0.619916797 0.585758865 0.065600500
0.684077144 0.605377257 0.071904376
0.750725567 0.616648674 0.076757498
0.817362487 0.622135103 0.079838000
0.882929146 0.624380052 0.081626065
0.946348608 0.625157952 0.082387000
1.000152588 0.624859571 0.079895437
0.354540437 0.482069939 0.175939322
0.372254789 0.486065567 0.171024621
0.391792506 0.490365416 0.164183497
0.413588643 0.495598525 0.154647931
0.437209606 0.503069460 0.142272130
0.461775601 0.514868379 0.127132565
0.486969233 0.532687604 0.110346183
0.514094293 0.556475163 0.093915805
0.545598924 0.583351195 0.080407560
0.584207058 0.609284937 0.071800873
0.631292939 0.632411480 0.068396814
0.687581420 0.655498743 0.070412248
0.751713932 0.673192382 0.075236812
0.817969978 0.683003128 0.079105996
0.883646190 0.687213898 0.081468061
0.947344601 0.688362002 0.082551375
1.000305295 0.687778950 0.080645755
0.397078365 0.535763085 0.221016273
0.414663494 0.539959669 0.216781199
0.433870077 0.544411123 0.210809141
0.455155939 0.549476564 0.202415392
0.478257924 0.556158125 0.191048771
0.502400041 0.566069543 0.176104814
0.526676655 0.581105828 0.157382265
0.551298261 0.602371633 0.135857373
0.578187168 0.628868580 0.114111766
0.610264182 0.656995654 0.095303081
0.650274754 0.683031619 0.082150199
0.699294567 0.705865979 0.075728379
0.756951571 0.727219105 0.075931937
0.820686340 0.742450476 0.079376876
0.885694563 0.750125289 0.082001626
0.948666573 0.752510607 0.082612373
1.000133157 0.751749337 0.078323625
0.437817603 0.592102289 0.269836009
0.455480278 0.596593678 0.266322464
0.474640757 0.601280153 0.261412770
0.495605975 0.606479704 0.254432559
0.518496931 0.612832546 0.244914502
0.542636752 0.621462226 0.231892675
0.566966355 0.634147465 0.214332432
0.590871394 0.652509212 0.191553548
0.615124583 0.677024007 0.164465308
0.642256081 0.705724001 0.136105061
0.675516903 0.734744549 0.110831991
0.717704535 0.760677099 0.092888281
0.769305170 0.782982349 0.084196709
0.828336358 0.801963210 0.083527140
0.890955567 0.813805282 0.086070821
0.952139139 0.818394542 0.085232988
0.999950647 0.817879617 0.072150178
0.476641059 0.652403653 0.321291506
0.494564563 0.657324731 0.318575531
0.513639808 0.662333369 0.314754307
0.534458816 0.667951822 0.309144318
0.557156742 0.674547076 0.301468045
0.581403852 0.682755768 0.290879160
0.606221259 0.693923056 0.276088744
0.630614936 0.709785104 0.255389303
0.654231787 0.731632411 0.227534741
0.678528368 0.759001791 0.193611324
0.706533492 0.789253116 0.157735303
0.741784811 0.818557024 0.125973612
0.786909223 0.843839347 0.104246646
0.841230392 0.864718020 0.095810503
0.900633872 0.879855514 0.098043695
0.959195852 0.886744320 0.095782019
0.999672830 0.886676252 0.062957235
0.513122976 0.717863917 0.373345494
0.530943096 0.723194957 0.371420532
0.549914777 0.729090214 0.368569911
0.570515454 0.735283554 0.364240825
0.592979789 0.742665946 0.358080357
0.617111921 0.751371861 0.349696696
0.642417967 0.762028158 0.337948054
0.667937696 0.776181936 0.320976764
0.692584693 0.795433402 0.296233594
0.716443300 0.820248961 0.262231201
0.741450369 0.849284649 0.220684811
0.770985246 0.879701018 0.176437065
0.808685124 0.907590330 0.132946447
0.856538951 0.930239022 0.111130297
0.912354708 0.947327137 0.108905680
0.968053043 0.955805719 0.123226285
1.000018239 0.955067635 0.051510364
0.547314525 0.788753748 0.424928993
0.564926386 0.794432163 0.423669934
0.583504200 0.800762534 0.421476245
0.603694379 0.808026016 0.418133199
0.625737906 0.816201389 0.413415045
0.649778068 0.825762153 0.407032251
0.675527453 0.836931884 0.398215055
0.702332258 0.850330472 0.385459065
0.729062736 0.867058754 0.365860105
0.754459381 0.888475776 0.335874438
0.778603256 0.914763033 0.293738753
0.803714275 0.944351554 0.239055738
0.833474636 0.972397268 0.155307174
0.871484399 0.989555061 0.043772735
0.920036256 0.992504954 0.030480441
0.972282946 0.995241046 0.032348942
1.000020981 0.997785628 0.039969001
0.000493500 0.010423875 0.045653127
0.018968124 0.013627499 0.056415066
0.055787127 0.015825750 0.060439505
0.110796198 0.016446499 0.062283374
0.175457880 0.015103750 0.064249501
0.241373256 0.012775312 0.066523127
0.306911916 0.010601500 0.069941126
0.371824175 0.009429188 0.074142754
0.436384022 0.009230375 0.078584254
0.501258194 0.009604688 0.083107062
0.566943228 0.010434501 0.087668873
0.633565068 0.011477125 0.092330627
0.701250792 0.012488750 0.097100377
0.769941330 0.013285813 0.102160946
0.839178920 0.013962876 0.107349753
0.908429325 0.014315312 0.112507693
0.976060033 0.014471000 0.117002122
0.001430125 0.042053316 0.065138437
0.021237187 0.046822373 0.068941504
0.062848561 0.050164253 0.071666554
0.123745337 0.051617127 0.073090814
0.190531492 0.050259188 0.073637500
0.257495135 0.046860874 0.074296810
0.323217154 0.043351065 0.075789750
0.387557447 0.041080311 0.078240938
0.451187193 0.040745318 0.081528559
0.514908254 0.042081125 0.085382566
0.579337358 0.044680875 0.089635812
0.644786477 0.048053123 0.094221562
0.711356640 0.051707938 0.099075004
0.778988838 0.055493254 0.104248509
0.847357750 0.059076190 0.109444886
0.915797949 0.062342506 0.114558503
0.981939435 0.064907439 0.119088940
0.003032625 0.080416754 0.078892499
0.024683312 0.085708186 0.079680316
0.068765499 0.090177126 0.079691119
0.132562384 0.094340622 0.081549689
0.201388747 0.095916249 0.082429379
0.269933611 0.094744496 0.082779877
0.336403370 0.091888368 0.083295874
0.400931537 0.089143127 0.084288873
0.464283645 0.087751880 0.086156875
0.527390599 0.088355437 0.088847190
0.590939403 0.090900123 0.092280872
0.655316889 0.094858192 0.096338063
0.720741153 0.099598631 0.100877129
0.787216902 0.104792506 0.105811074
0.854463935 0.110164374 0.110868014
0.921642303 0.115302123 0.115726814
0.986283243 0.118502632 0.117761500
0.008197190 0.119507514 0.084610566
0.031953443 0.124294631 0.083175004
0.075745940 0.129401639 0.081647374
0.137696028 0.136643395 0.082410812
0.208613753 0.145858511 0.087529123
0.278059751 0.150240704 0.089896813
0.345306396 0.150954694 0.090896443
0.410436958 0.149886265 0.091645874
0.474348187 0.148622125 0.092697501
0.537732303 0.148457140 0.094510503
0.601156294 0.149918824 0.097126812
0.665158451 0.152995944 0.100454807
0.730021596 0.157298774 0.104409620
0.795575142 0.162478894 0.108855754
0.861700118 0.168271899 0.113594815
0.927362621 0.173861071 0.117290616
0.990400672 0.174191937 0.108290568
0.021156374 0.158259869 0.083264381
0.048885629 0.162830696 0.081029311
0.091102883 0.168401003 0.079004630
0.147090957 0.176418006 0.078115813
0.211774871 0.189471245 0.081771374
0.282617420 0.205319822 0.091182321
0.350728899 0.213304996 0.096069247
0.416342646 0.216111824 0.098126188
0.480629027 0.216707751 0.099458002
0.544455230 0.216902196 0.100916810
0.608269870 0.217759371 0.102903374
0.672382295 0.219794869 0.105547555
0.737080157 0.223056629 0.108875126
0.802343726 0.227295637 0.112782642
0.867851555 0.232335389 0.117109627
0.932347596 0.237505123 0.120689675
