hollywood-luts/Fantastic Beasts The Crimes of Grindelwald.cube
TITLE "17x17x17 Adobe/IRIDAS cube 3D LUT exported with GrossGrade v0.2.2 (beta) 64 bit"
DOMAIN_MIN 0 0 0
DOMAIN_MAX 1 1 1
LUT_3D_SIZE 5
0.000000000 0.000614000 0.000659000
0.256715238 0.078713000 0.050726503
0.479783535 0.160077006 0.119280502
0.699802518 0.234781757 0.188940257
0.930512011 0.309711009 0.262715995
0.215070009 0.239399239 0.071535252
0.305419981 0.251353741 0.103145257
0.492235273 0.274963766 0.152367249
0.706342041 0.315378755 0.211914256
0.936908722 0.371065497 0.278857768
0.415561497 0.456289530 0.158649504
0.455491036 0.460123271 0.202788740
0.570693493 0.481963009 0.214263007
0.741022587 0.503955007 0.257320255
0.959750473 0.541200042 0.325188994
0.615322769 0.674279809 0.246831253
0.638678551 0.675919056 0.277685016
0.715415001 0.686841309 0.354237497
0.822356820 0.715560019 0.339652747
0.993363738 0.753575265 0.390639275
0.831282020 0.912496984 0.342913985
0.846872747 0.913447261 0.364898503
0.904229999 0.918976009 0.436364502
0.984306514 0.933735490 0.527991533
1.014219046 0.971099973 0.759441972
0.008941750 0.074069753 0.138653994
0.175677761 0.082404748 0.308861017
0.518361032 0.115255512 0.186713755
0.713737011 0.224472508 0.240680248
0.935184717 0.308070749 0.307004988
0.100897506 0.258108020 0.189932764
0.287308782 0.258503765 0.221449003
0.503103733 0.281106263 0.234952763
0.712589741 0.324169487 0.276016504
0.938814700 0.377800524 0.329577506
0.395323038 0.463222265 0.204500258
0.447814763 0.465862513 0.248352766
0.565410972 0.485415518 0.283351511
0.739066005 0.509418011 0.322223961
0.959385276 0.545348763 0.374482512
0.606985748 0.677608013 0.272050738
0.634179533 0.679508269 0.307790995
0.711891055 0.689631462 0.387094498
0.820355058 0.717031300 0.382979274
0.993766487 0.755495310 0.430750012
0.826130986 0.914539993 0.361236274
0.842813015 0.915856719 0.385658234
0.900568485 0.921001315 0.457833499
0.982317269 0.936070263 0.546350479
1.015145063 0.971049547 0.776053548
0.054387003 0.150909513 0.263006032
0.059615504 0.170861259 0.430760741
0.335081518 0.153701514 0.674098492
0.806630731 0.065908499 0.374618292
0.979173005 0.256244481 0.404909015
0.063579500 0.267989278 0.325245261
0.075840995 0.269747525 0.486141026
0.445781231 0.279034495 0.568743527
0.789333999 0.266603261 0.383720279
0.972525477 0.353538275 0.428886771
0.210379526 0.490902007 0.381866485
0.330491245 0.493646026 0.400924027
0.550955415 0.494178027 0.444844544
0.747322559 0.514222026 0.459501028
0.962620974 0.545646012 0.493163526
0.533298254 0.696433783 0.395582527
0.576014042 0.696476579 0.413337529
0.689063549 0.700311780 0.474542022
0.809325516 0.723551750 0.506082773
0.992850780 0.758316994 0.547641277
0.732849479 0.932651520 0.472268522
0.758671999 0.933125734 0.485562772
0.840066493 0.935805559 0.527112484
0.944441438 0.949182510 0.604202986
1.016322017 0.972600996 0.817896485
0.103036001 0.190401256 0.459255278
0.134891257 0.209173739 0.528984010
0.202526271 0.234429255 0.771292806
0.573115766 0.252243012 0.847976029
0.978183508 0.250126779 0.658971488
0.117005751 0.280367732 0.526596010
0.143241510 0.297654986 0.606961548
0.211063519 0.309066981 0.803804040
0.622166038 0.329156518 0.839280546
0.981677294 0.342103273 0.649120986
0.200179502 0.490484774 0.568501532
0.212368771 0.500769496 0.591737509
0.419535011 0.508682489 0.732748508
0.722794533 0.512546301 0.745334029
0.990575016 0.534038305 0.649948716
0.340580523 0.720985770 0.617167771
0.408009768 0.723513246 0.625759780
0.582225800 0.727321982 0.650443017
0.786354244 0.733342528 0.683358312
0.992986798 0.754632771 0.703678250
0.577976227 0.957499027 0.663189769
0.613756716 0.958360255 0.670113266
0.726673722 0.960817277 0.690222025
0.883162260 0.966111004 0.722052276
1.017811060 0.980850518 0.870490730
0.177750006 0.181813002 0.760303974
0.248547018 0.197572753 0.783097506
0.408640504 0.234442502 0.848109007
0.651780009 0.285822988 0.876297235
0.907122016 0.345660001 0.886799991
0.196020752 0.282342494 0.783753991
0.266588241 0.300918490 0.807404757
0.419491738 0.325175762 0.861891270
0.671238542 0.362141252 0.878420770
0.917142987 0.407279015 0.888746738
0.253331512 0.495167494 0.806726515
0.308891237 0.503368735 0.830350995
0.468165994 0.512472510 0.877411485
0.717537045 0.534431756 0.886691034
0.949644506 0.562157512 0.896975517
0.373860002 0.727024734 0.854078233
0.423501998 0.731820047 0.859602451
0.557084978 0.741188288 0.873578429
0.765208244 0.742179513 0.900086462
0.992898762 0.760830998 0.909655511
0.486079991 0.965375006 0.894913018
0.526974261 0.967784524 0.897988737
0.650644481 0.973517537 0.906980038
0.826730490 0.981722474 0.919755518
1.020315051 0.994616985 0.983310997
