hollywood-luts/Fantastic Beasts The Crimes of Grindelwald.cube
TITLE "17x17x17 Adobe/IRIDAS cube 3D LUT exported with GrossGrade v0.2.2 (beta) 64 bit"
DOMAIN_MIN 0 0 0
DOMAIN_MAX 1 1 1
LUT_3D_SIZE 17
0.000000000 0.000614000 0.000659000
0.069333747 0.019890875 0.014586500
0.135233134 0.038123000 0.023815250
0.197651818 0.058174439 0.034672190
0.256715238 0.078713000 0.050726503
0.313480318 0.099992126 0.068152435
0.369590014 0.120474011 0.085111499
0.424835980 0.140603632 0.102204569
0.479783535 0.160077006 0.119280502
0.534724951 0.179020122 0.136394501
0.589536250 0.197877005 0.153828621
0.644618154 0.216342941 0.171319559
0.699802518 0.234781757 0.188940257
0.755062938 0.253194630 0.206644580
0.811324716 0.271547288 0.224679261
0.868528306 0.290301025 0.243188828
0.930512011 0.309711009 0.262715995
0.056019373 0.065324932 0.012897125
0.087389067 0.068067119 0.021356188
0.141724437 0.073446378 0.030774813
0.200022459 0.084078565 0.040801130
0.257509500 0.097975247 0.055663563
0.313889623 0.114347935 0.071895182
0.369866580 0.131603077 0.088135883
0.425149649 0.149417832 0.104655571
0.480048954 0.167282447 0.121303633
0.534933507 0.185089380 0.138118818
0.589758456 0.203068882 0.155258313
0.644784033 0.220912933 0.172516748
0.699955583 0.238839880 0.190016568
0.755255818 0.256822050 0.207604960
0.811422348 0.274825156 0.225524262
0.868856132 0.293286592 0.243952572
0.930717289 0.312494457 0.263422877
0.109517001 0.125750989 0.028991375
0.125289828 0.127032816 0.036453813
0.163655996 0.131342128 0.047339249
0.211509630 0.135175377 0.054324128
0.264010370 0.142777994 0.066411629
0.317714989 0.152762309 0.081890628
0.372102410 0.164626122 0.097587630
0.426834673 0.177679062 0.113006257
0.481344521 0.191752762 0.128622502
0.536012292 0.206457123 0.144506425
0.590806365 0.221874490 0.160761252
0.645705104 0.237734064 0.177308485
0.700861871 0.253921509 0.194201261
0.756193459 0.270576775 0.211381570
0.812281847 0.287406504 0.228878394
0.869723439 0.304824859 0.247046322
0.931741655 0.323312998 0.266207874
0.162986457 0.183345765 0.049718503
0.171835020 0.184043080 0.055981189
0.197907940 0.186669379 0.069210194
0.235910177 0.191968963 0.075169690
0.279403448 0.195813835 0.079403445
0.328487754 0.201966390 0.092072628
0.379396498 0.209919840 0.108876131
0.431724429 0.219157755 0.125009373
0.484956414 0.229398578 0.140048131
0.538821995 0.240707263 0.154881313
0.593162537 0.253005385 0.170096010
0.647800148 0.266207635 0.185731247
0.702917814 0.280127168 0.201682255
0.758242726 0.294741154 0.218144953
0.814209640 0.309876412 0.235076144
0.871649861 0.325805813 0.252584726
0.933475256 0.343070984 0.271459371
0.215070009 0.239399239 0.071535252
0.220522687 0.239771441 0.076635808
0.239096746 0.241525382 0.090673998
0.268694371 0.245521575 0.102779999
0.305419981 0.251353741 0.103145257
0.346216917 0.255124509 0.104679003
0.393310279 0.260372519 0.117423266
0.441853553 0.267168820 0.135479212
0.492235273 0.274963766 0.152367249
0.544297218 0.283655465 0.167515010
0.597636282 0.293319762 0.182020247
0.651671648 0.303903162 0.196794868
0.706342041 0.315378755 0.211914256
0.761486530 0.327704191 0.227474958
0.817468405 0.340973765 0.243727773
0.875011325 0.355130851 0.260507166
0.936908722 0.371065497 0.278857768
0.266102076 0.294506609 0.093464375
0.269766003 0.294719070 0.097519621
0.283543110 0.295926034 0.110746123
0.306620270 0.298868567 0.126833558
0.338197976 0.303480685 0.135498315
0.373538375 0.309786260 0.130800128
0.412178069 0.313520014 0.129563257
0.457780838 0.318147868 0.141887635
0.504537702 0.324234188 0.161154941
0.553537071 0.331338882 0.179271191
0.604768515 0.339245081 0.195021942
0.657607615 0.347927868 0.209577873
0.711468577 0.357489556 0.224094883
0.766113639 0.367878288 0.238904089
0.821935654 0.379244238 0.254360020
0.879450142 0.391540319 0.270409644
0.941582322 0.405975640 0.288027138
0.316483647 0.348884165 0.115257509
0.319225192 0.349074483 0.118544377
0.329892248 0.349988520 0.130085260
0.348344892 0.352015644 0.147217214
0.373872280 0.355744541 0.162767500
0.406647146 0.360768437 0.167712957
0.440568388 0.367555022 0.158317626
0.476913542 0.371368587 0.154516816
0.521720529 0.375573128 0.165864751
0.567502558 0.381327897 0.186203301
0.615494490 0.388234645 0.205755249
0.665970147 0.395791650 0.222422868
0.718433440 0.404050767 0.237352639
0.772220433 0.413087696 0.251868129
0.827507615 0.422948152 0.266665787
0.884791970 0.433845013 0.282061338
0.946818233 0.446951270 0.298885882
0.366229475 0.402758181 0.136987448
0.368475527 0.402883053 0.139682010
0.376977295 0.403551400 0.149572685
0.392260969 0.405085087 0.165763572
0.413393557 0.407858968 0.184282765
0.440477222 0.412211657 0.198357329
0.474096566 0.417550027 0.199728325
0.506251574 0.424874157 0.186018527
0.540375710 0.428971350 0.180146202
0.585206389 0.432979256 0.189886063
0.630673587 0.438744903 0.210835755
0.677972972 0.445729494 0.231761560
0.727911711 0.453284323 0.249592692
0.780115843 0.461466849 0.265245318
0.834367335 0.470344424 0.280121595
0.891159058 0.480328411 0.295152783
0.952800810 0.492468387 0.311402798
0.415561497 0.456289530 0.158649504
0.417416215 0.456382394 0.160929069
0.424361527 0.456854999 0.169471383
0.437241197 0.458016455 0.184278250
0.455491036 0.460123271 0.202788740
0.478384316 0.463614821 0.221333951
0.506610394 0.468400419 0.233522758
0.540371299 0.474108040 0.231626928
0.570693493 0.481963009 0.214263007
0.603292584 0.486768067 0.206551015
0.648458123 0.490872771 0.214249372
0.693976104 0.496792793 0.235246420
0.741022587 0.503955007 0.257320255
0.790720701 0.511761010 0.276505262
0.843191028 0.520172775 0.293259740
0.898750186 0.529577136 0.308907896
0.959750473 0.541200042 0.325188994
0.464893997 0.509864211 0.180396438
0.466407001 0.509945691 0.182372808
0.472207487 0.510309815 0.189821437
0.483237058 0.511208832 0.203216687
0.499235749 0.512839615 0.220900804
0.519439697 0.515623271 0.240318507
0.543551445 0.519641042 0.258216619
0.572521567 0.524803162 0.268580735
0.605770528 0.530872643 0.263811558
0.634375572 0.539272428 0.243441135
0.666285992 0.545031846 0.233695626
0.711523056 0.549536109 0.239494130
0.757454813 0.555641532 0.259877205
0.804793119 0.563075006 0.282662958
0.854927719 0.571368873 0.303323090
0.908408999 0.580588102 0.321526021
0.968160093 0.592073619 0.339134872
0.514481723 0.563907146 0.202368617
0.515766859 0.563974619 0.204062119
0.520716727 0.564277470 0.210611001
0.530293167 0.565014005 0.222648621
0.544405758 0.566317856 0.239298612
0.562545180 0.568521559 0.258578211
0.584063292 0.571822464 0.278122008
0.609101832 0.576269507 0.295129746
0.638431609 0.581744552 0.303945750
0.670716286 0.588175952 0.296760321
0.697564006 0.597214401 0.273866743
0.729211152 0.603919089 0.262147069
0.774197757 0.609119773 0.266579777
0.821115732 0.615505040 0.285390913
0.869561732 0.623347998 0.308330417
0.920843124 0.632633269 0.330572069
0.978004575 0.644374490 0.352158636
0.564537644 0.618639350 0.224486127
0.565665483 0.618694603 0.225962684
0.570000350 0.619022429 0.231783062
0.578350544 0.619612634 0.242649809
0.590869725 0.620653868 0.258177489
0.607280850 0.622423470 0.276887566
0.626855791 0.625100017 0.296872884
0.649403751 0.628824651 0.316109329
0.675072134 0.633631229 0.332144231
0.704434633 0.639375091 0.339766949
0.735264659 0.646230996 0.330823958
0.760185838 0.655944705 0.305823296
0.791709423 0.663786769 0.292910725
0.836480796 0.669829845 0.296156704
0.884976566 0.676737249 0.312684119
0.934821784 0.685639083 0.336655498
0.987214327 0.698131680 0.366663933
0.615322769 0.674279809 0.246831253
0.616291583 0.674241722 0.248164564
0.620159745 0.674585998 0.253387153
0.627469838 0.675094604 0.263240516
0.638678551 0.675919056 0.277685016
0.653553128 0.677357316 0.295586705
0.671576381 0.679603159 0.315389901
0.692182720 0.682710528 0.335515201
0.715415001 0.686841309 0.354237497
0.741488338 0.691962540 0.369417459
0.770592272 0.697894990 0.376259148
0.799397528 0.705273628 0.366219640
0.822356820 0.715560019 0.339652747
0.853856444 0.724738359 0.326382846
0.898546219 0.732006431 0.329150409
0.947273672 0.740347862 0.347888172
0.993363738 0.753575265 0.390639275
0.666904032 0.730969131 0.269582719
0.667730331 0.730904043 0.270739585
0.671157360 0.731094241 0.275443077
0.677632868 0.731574893 0.284378350
0.687810779 0.732297659 0.297764361
0.701360464 0.733479083 0.314888537
0.717967689 0.735320866 0.334268361
0.737123013 0.737929940 0.354495078
0.758416593 0.741461098 0.374455869
0.782079160 0.745968163 0.392686218
0.808328032 0.751264334 0.407174885
0.836881042 0.757326484 0.413422525
0.863255620 0.765406191 0.402751446
0.884398937 0.776249528 0.375785023
0.915059149 0.787013650 0.364704311
0.956618488 0.796714544 0.376754373
0.997131586 0.810478151 0.431642205
0.719721556 0.789047956 0.292917550
0.720397174 0.789119899 0.293976903
0.723385453 0.789270401 0.298204422
0.729227424 0.789624572 0.306376547
0.738502443 0.790199459 0.318691641
0.750988007 0.791253328 0.334849596
0.766270936 0.792804062 0.353706151
0.784069419 0.794994414 0.373773277
0.803988039 0.798038185 0.394060254
0.825832367 0.801960468 0.413875401
0.849710464 0.806589782 0.431715280
0.875806868 0.811898410 0.445458144
0.903669536 0.818102479 0.451183408
0.926682413 0.826864243 0.441896409
0.943689764 0.838651299 0.421004474
0.968807399 0.851953685 0.428585023
1.000878692 0.867625594 0.492091089
0.773776770 0.848796725 0.317150593
0.774392307 0.848749518 0.318085551
0.777063608 0.849056005 0.321893990
0.782440543 0.849387944 0.329407603
0.790859699 0.849849582 0.340749264
0.802257359 0.850739837 0.355850577
0.816524565 0.852044344 0.373994112
0.833290398 0.853899479 0.393962204
0.851922512 0.856514990 0.414318860
0.872222841 0.859882176 0.434466541
0.894305825 0.863927960 0.454049349
0.918144166 0.868689835 0.471942961
0.943085968 0.874155164 0.487085074
0.967774212 0.880300939 0.497817039
0.982735753 0.890045583 0.505297065
0.986650825 0.903178155 0.517838120
1.007347107 0.920722544 0.591002464
0.831282020 0.912496984 0.342913985
0.831944823 0.912510097 0.343813062
0.834315658 0.912641406 0.347324014
0.839236975 0.912873685 0.354313761
0.846872747 0.913447261 0.364898503
0.857398868 0.914189219 0.379110545
0.870659471 0.915290117 0.396498382
0.886519730 0.916810215 0.416025400
0.904229999 0.918976009 0.436364502
0.923385739 0.921930194 0.456770569
0.944072604 0.925584793 0.477019638
0.965676963 0.929684758 0.498474628
0.984306514 0.933735490 0.527991533
0.993366122 0.937702060 0.576573193
0.996258855 0.943535388 0.647334218
0.999526501 0.955668747 0.736819148
1.014219046 0.971099973 0.759441972
0.005931562 0.017542439 0.021594312
0.054051563 0.025238376 0.053901497
0.129687935 0.038961627 0.053397626
0.198594436 0.056117002 0.053672880
0.259510487 0.076066814 0.062182941
0.316347480 0.097363070 0.076017186
0.371540934 0.118814953 0.091387123
0.426313847 0.139416024 0.107364006
0.480816543 0.159319252 0.123726688
0.535398722 0.178602323 0.140321806
0.590095162 0.197572306 0.157298684
0.644992769 0.216244817 0.174493000
0.700142264 0.234678388 0.191795945
0.755303681 0.253210783 0.209282711
0.811446846 0.271508157 0.227033898
0.868799567 0.290267736 0.245398059
0.930631101 0.309736311 0.264800996
0.038545314 0.070219621 0.038207751
0.076391250 0.070926495 0.047819939
0.138073996 0.075956620 0.056925315
0.201492324 0.085148498 0.060769692
0.260459632 0.098811693 0.069404498
0.316947788 0.114840813 0.082108565
0.371827513 0.132842436 0.096692130
0.426765352 0.150706321 0.111952133
0.481272876 0.168654203 0.127703190
0.535786450 0.186572254 0.143821001
0.590544224 0.204456002 0.160361871
0.645354986 0.222362623 0.177191138
0.700511396 0.240081191 0.194195941
0.755618095 0.258079767 0.211499885
0.811723590 0.275909156 0.228974953
0.869100749 0.294226885 0.247072577
0.931080163 0.313447863 0.266372234
0.100265317 0.128309444 0.044240374
0.119587503 0.129115194 0.051947691
0.160807937 0.132224873 0.063391373
0.211177021 0.136278555 0.069874503
0.265180409 0.143655434 0.079283819
0.318978637 0.153818622 0.092174754
0.373413444 0.165740609 0.106042497
0.427974254 0.178930059 0.120312251
0.482241482 0.193107873 0.135101318
0.536677480 0.207877874 0.150231376
0.591415942 0.223227873 0.165846825
0.646225274 0.239090621 0.181949452
0.701345861 0.255121082 0.198357746
0.756511092 0.271695107 0.215215638
0.812610924 0.288444400 0.232343584
0.870034277 0.305744976 0.250163198
0.931790292 0.324222684 0.269158989
0.158751816 0.184644505 0.057752877
0.169097155 0.185420752 0.065493941
0.195792377 0.187803760 0.079047196
0.234726518 0.192579702 0.086310819
0.279017270 0.196762323 0.090781316
0.328726530 0.202986687 0.102071501
0.379763275 0.211011514 0.117367245
0.432154119 0.220314518 0.132276252
0.485489935 0.230595827 0.146344885
0.539292932 0.241936073 0.160532683
0.593570113 0.254178315 0.175145641
0.648153305 0.267356396 0.190281957
0.703164101 0.281234086 0.205866054
0.758398533 0.295792282 0.221922398
0.814408123 0.310904533 0.238566086
0.871868014 0.326710582 0.255735964
0.933535635 0.343950748 0.274421990
0.212947115 0.240141392 0.076359250
0.219282940 0.240702748 0.083096690
0.237896621 0.242382944 0.097112633
0.267657429 0.246208817 0.109874755
0.304534823 0.251887381 0.111585006
0.345724761 0.255889863 0.113744996
0.393122286 0.261282325 0.125709504
0.441839844 0.268108577 0.142616034
0.492359579 0.275940627 0.158529878
0.544550896 0.284627706 0.172916993
0.597851276 0.294283330 0.186951116
0.651839733 0.304843813 0.201270446
0.706462979 0.316323757 0.216034055
0.761595666 0.328667551 0.231253266
0.817547798 0.341886282 0.247184843
0.875117540 0.355998933 0.263713509
0.936873138 0.371847361 0.281747878
0.264840692 0.294994205 0.096793070
0.269182891 0.295402855 0.102416441
0.282915294 0.296539754 0.115567312
0.305976033 0.299407870 0.131831571
0.337482303 0.303965956 0.141092807
0.372982472 0.310159177 0.137563631
0.411821693 0.314093053 0.136995614
0.457552612 0.318843335 0.148910448
0.504409432 0.324997753 0.167227253
0.553531110 0.332126141 0.184562117
0.604829192 0.340023458 0.199756131
0.657656550 0.348724186 0.213917002
0.711493969 0.358269125 0.228082880
0.766136646 0.368642539 0.242620647
0.821959078 0.379963994 0.257744104
0.879567564 0.392292291 0.273589104
0.941519320 0.406650186 0.290902823
0.315616786 0.349253803 0.117838450
0.318880200 0.349558502 0.122562192
0.329548270 0.350412846 0.134004697
0.347993851 0.352421194 0.151159063
0.373449832 0.356063813 0.166857883
0.406107038 0.361203641 0.172301814
0.440151542 0.367876559 0.163876384
0.476652533 0.371820778 0.160677001
0.521503925 0.376069695 0.171870679
0.567345321 0.381919742 0.191433817
0.615419388 0.388877273 0.210354060
0.665946364 0.396460056 0.226561934
0.718425751 0.404710799 0.241133869
0.772197247 0.413704932 0.255406410
0.827528596 0.423554391 0.269936740
0.884854138 0.434435964 0.285115689
0.946844459 0.447537839 0.301745564
0.365552604 0.403059274 0.139072835
0.368189812 0.403288603 0.143064886
0.376759231 0.403906643 0.152886197
0.392041385 0.405443221 0.169062525
0.413146585 0.408169448 0.187601507
0.440201491 0.412498534 0.201765075
0.473654211 0.417868406 0.203563705
0.505909324 0.425173610 0.190629140
0.540209174 0.429330140 0.185306817
0.585027575 0.433416843 0.195007399
0.630521894 0.439245313 0.215358824
0.677882433 0.446247101 0.235777006
0.727888107 0.453825951 0.253222644
0.780080795 0.462004602 0.268603653
0.834401131 0.470873922 0.283253014
0.891185105 0.480783284 0.298077881
0.952839434 0.492915362 0.314144075
0.414981872 0.456561148 0.160374507
0.417164326 0.456765175 0.163830310
0.424141765 0.457212687 0.172325015
0.437079668 0.458332956 0.187100574
0.455286205 0.460437298 0.205606818
0.478217840 0.463884830 0.224170327
0.506361425 0.468646020 0.236447245
0.540024102 0.474345833 0.234887943
0.570431709 0.482177615 0.218143880
0.603179038 0.487037778 0.210918829
0.648354173 0.491251469 0.218632951
0.693881154 0.497193843 0.239200190
0.740963340 0.504369736 0.260871589
0.790647626 0.512215376 0.279756248
0.843159497 0.520601749 0.296240568
0.898771822 0.529988348 0.311694711
0.959750354 0.541542172 0.327767134
0.464365125 0.510097802 0.181871623
0.466192752 0.510274708 0.184908748
0.472011209 0.510640562 0.192306191
0.483073264 0.511489928 0.205661610
0.499072701 0.513106704 0.223318860
0.519261479 0.515854001 0.242759764
0.543373168 0.519885182 0.260688812
0.572269619 0.524982214 0.271123052
0.605518401 0.531073213 0.266644180
0.634171963 0.539423466 0.246744081
0.666193604 0.545249581 0.237427682
0.711488783 0.549798608 0.243302122
0.757384181 0.555958867 0.263361186
0.804678261 0.563437164 0.285849541
0.854823709 0.571714282 0.306234926
0.908402920 0.580956757 0.324226081
0.968125880 0.592402637 0.341622442
0.514016390 0.564090729 0.203655064
0.515596628 0.564250231 0.206299931
0.520591915 0.564566374 0.212809816
0.530142784 0.565255404 0.224813432
0.544286311 0.566563189 0.241426930
0.562390387 0.568711162 0.260701209
0.583912313 0.571998656 0.280258507
0.608928919 0.576462030 0.297281295
0.638223827 0.581860840 0.306162655
0.670541823 0.588347197 0.299258620
0.697345734 0.597353876 0.276708335
0.729149461 0.604097724 0.265374869
0.774179697 0.609308302 0.269894898
0.821021616 0.615753710 0.288461983
0.869452715 0.623683035 0.311184108
0.920778394 0.632921815 0.333228588
0.977976501 0.644666255 0.354557693
0.564166069 0.618818700 0.225633010
0.565546751 0.618981183 0.227965504
0.569926023 0.619236588 0.233765870
0.578239202 0.619809985 0.244598567
0.590774775 0.620883346 0.260084361
0.607179880 0.622594118 0.278795630
0.626767397 0.625253797 0.298769444
0.649308205 0.628970087 0.317979574
0.674948752 0.633777857 0.334081292
0.704273462 0.639462233 0.341739833
0.735118806 0.646386325 0.333022296
0.759968102 0.656068146 0.308279544
0.791690886 0.663898706 0.295693129
0.836495042 0.669982374 0.299013346
0.884957790 0.676995575 0.315370739
0.934739292 0.685881913 0.339195788
0.987265527 0.698311090 0.368927062
0.615010619 0.674427032 0.247866511
0.616197348 0.674550056 0.249979511
0.620108902 0.674726605 0.255173832
0.627400935 0.675231934 0.264990866
0.638601303 0.676135361 0.279382735
0.653475285 0.677543342 0.297283858
0.671503484 0.679806948 0.317095309
0.692174554 0.682887673 0.337194055
0.715349138 0.687017024 0.355962008
0.741386354 0.692072988 0.371188015
0.770436764 0.697963774 0.378026813
0.799318552 0.705380976 0.368119389
0.822243929 0.715671897 0.341769278
0.853849173 0.724798262 0.328785807
0.898572445 0.732190430 0.331593692
0.947305202 0.740523815 0.350190908
0.993442655 0.753723383 0.392757505
0.666603684 0.730973601 0.270499021
0.667660832 0.731094182 0.272376060
0.671093762 0.731290340 0.277051896
0.677593291 0.731693745 0.285974830
0.687746525 0.732514977 0.299316823
0.701287091 0.733682632 0.316398203
0.717845678 0.735565782 0.335760921
0.737070024 0.738182902 0.355992079
0.758416533 0.741638541 0.375973165
0.782010436 0.746123433 0.394228399
0.808204651 0.751341343 0.408693463
0.836779773 0.757372677 0.414979786
0.863272429 0.765427649 0.404428303
0.884251952 0.776339471 0.377708197
0.915066898 0.787111938 0.366815776
0.956649780 0.796866417 0.378762692
0.997091830 0.810654640 0.433453977
0.719359696 0.789105892 0.293756962
0.720343888 0.789172769 0.295428902
0.723298907 0.789356351 0.299663544
0.729268312 0.789687276 0.307817429
0.738444626 0.790405333 0.320080638
0.750898063 0.791347861 0.336197406
0.766166925 0.792850018 0.355054080
0.783942401 0.795101762 0.375157416
0.803875864 0.798151493 0.395453542
0.825749815 0.801989377 0.415242821
0.849557221 0.806659639 0.433093488
0.875593901 0.812010348 0.446871668
0.903540432 0.818216324 0.452606052
0.926551759 0.826995730 0.443352550
0.943612218 0.838710964 0.422613055
0.968988955 0.852067292 0.430267215
1.000880361 0.867572963 0.493705541
0.773515344 0.848952532 0.317915827
0.774306536 0.848957181 0.319406569
0.776981890 0.849117041 0.323218405
0.782461882 0.849478245 0.330684751
0.790799320 0.850037694 0.342013419
0.802135050 0.850853443 0.357062370
0.816434979 0.852159142 0.375169039
0.833164692 0.853991091 0.395137012
0.851802170 0.856603444 0.415530592
0.872228861 0.859972060 0.435696214
0.894361496 0.864022851 0.455249667
0.918056250 0.868810475 0.473091096
0.942916930 0.874277294 0.488289416
0.967537463 0.880502641 0.499094486
0.982750416 0.890186071 0.506387949
0.986747324 0.903221846 0.519010186
1.007361412 0.920839727 0.592249751
0.831061661 0.912497938 0.343630254
0.831892312 0.912633896 0.344938993
0.834285021 0.912622511 0.348531306
0.839182019 0.913107872 0.355421215
0.846809149 0.913611710 0.365969509
0.857293606 0.914348781 0.380178601
0.870699465 0.915377915 0.397589624
0.886492372 0.916916490 0.417152077
0.904073358 0.919138789 0.437523335
0.923228264 0.922004223 0.457900494
0.943963885 0.925620377 0.478120059
0.965610385 0.929829419 0.499537766
0.984290779 0.933856964 0.528924763
0.993404031 0.937824726 0.577421665
0.996264875 0.943641424 0.647813141
0.999559045 0.955661654 0.737341046
1.014248133 0.970953763 0.760064542
0.007154750 0.035050999 0.056503378
0.023508752 0.039413191 0.107932806
0.093468755 0.047086373 0.134438753
0.187921062 0.054115254 0.115179375
0.264878750 0.067210376 0.100526251
0.326137066 0.086702436 0.100670502
0.380194008 0.110056512 0.110332757
0.432770431 0.133381575 0.123774320
0.485572278 0.155249253 0.138466388
0.538733006 0.176123440 0.153859690
0.592619359 0.196017504 0.169674993
0.647053480 0.215169430 0.185791507
0.701639354 0.234115139 0.202312768
0.756580591 0.252748162 0.218974203
0.812255025 0.271388918 0.236226141
0.869571745 0.290065855 0.253827333
0.931152642 0.309847385 0.272896379
0.020915750 0.076038189 0.076836437
0.048951186 0.078907184 0.101817995
0.111557685 0.080513120 0.123379312
0.194147766 0.083362311 0.113852695
0.265882373 0.091751873 0.104409441
0.325559944 0.106778935 0.105839938
0.379604340 0.126081005 0.115236506
0.432682097 0.145815134 0.128121883
0.485688269 0.165290460 0.142242759
0.538938284 0.184483618 0.157127872
0.592946768 0.203053445 0.172523186
0.647268653 0.221428379 0.188358188
0.701862574 0.239646196 0.204644129
0.756862998 0.257641405 0.221059561
0.812544525 0.275830150 0.238128573
0.869866490 0.294063896 0.255509138
0.931453824 0.313511670 0.274399370
0.061716001 0.135256886 0.092101499
0.090384074 0.134893626 0.098099053
0.145431623 0.135406256 0.108159244
0.207477093 0.138204873 0.112623692
0.268328011 0.144346237 0.113102376
0.324529141 0.154376000 0.118646055
0.379108995 0.166425511 0.128466129
0.432684809 0.180265501 0.140399054
0.486030132 0.195119247 0.153467491
0.539679050 0.210370064 0.167126119
0.593874872 0.225808382 0.181339622
0.648191452 0.241744503 0.196271062
0.702923119 0.257771641 0.211651623
0.757803798 0.274180353 0.227477282
0.813469172 0.290842772 0.243785143
0.870836973 0.307904512 0.260723770
0.932412982 0.326104522 0.278917611
0.138445452 0.189482376 0.089933932
0.153031707 0.189677089 0.094146878
0.187793195 0.190810204 0.106164813
0.230414391 0.194367006 0.116872691
0.278563052 0.198470891 0.122070000
0.329969764 0.204696015 0.129895866
0.381687522 0.212935135 0.141128182
0.434245259 0.222354710 0.153111622
0.487495154 0.232880577 0.165130183
0.541132927 0.244452626 0.177641869
0.595115185 0.256885439 0.190874755
0.649430335 0.270135015 0.204815999
0.704325914 0.283840239 0.219255686
0.759341180 0.298277378 0.234401703
0.815161943 0.313210815 0.250010103
0.872333050 0.328892171 0.266425580
0.933975816 0.345791250 0.284106821
0.203125879 0.243176013 0.095182255
0.210834950 0.243542999 0.100467183
0.233029500 0.244990498 0.115644246
0.263986677 0.248171061 0.130757868
0.302090973 0.253347754 0.136366516
0.344724476 0.257694423 0.140072688
0.392598778 0.263406992 0.150276497
0.441937715 0.270342827 0.164209306
0.492950886 0.278155744 0.177524239
0.545314431 0.286881745 0.190069810
0.598639846 0.296581149 0.202669874
0.652600050 0.307177961 0.215773061
0.707129538 0.318634361 0.229492635
0.762147188 0.331003547 0.243754089
0.818101287 0.344066620 0.258681893
0.875244737 0.358091563 0.274542779
