hollywood-luts/Game of Thrones.cube
TITLE "17x17x17 Adobe/IRIDAS cube 3D LUT exported with GrossGrade v0.2.2 (beta) 64 bit"
DOMAIN_MIN 0 0 0
DOMAIN_MAX 1 1 1
LUT_3D_SIZE 5
-0.055916999 -0.053621002 -0.054366000
0.133369744 -0.021832999 -0.045678500
0.347381532 0.036015004 -0.007983496
0.574321270 0.084194750 0.047030505
0.848412991 0.124677002 0.110284999
0.025258001 0.176335007 0.059819005
0.212295756 0.176367506 0.030719753
0.424247503 0.217459261 0.029103503
0.651334763 0.262562752 0.080859251
0.910485268 0.309251010 0.139120996
0.172006011 0.441587031 0.207508504
0.320876777 0.456045747 0.182372004
0.552981019 0.442221522 0.146772504
0.708372295 0.476693273 0.134558022
0.950663984 0.515296996 0.182290494
0.318937004 0.723773479 0.349446744
0.446278274 0.738748014 0.331292272
0.596294522 0.732963026 0.281667024
0.822170973 0.723518491 0.312061250
0.978166223 0.748825490 0.241286516
0.315930009 0.971349001 0.324698001
0.455292523 0.977749228 0.315088511
0.593885005 0.984291494 0.291060507
0.793463767 0.989497244 0.300917506
1.008908987 0.991850972 0.318789005
-0.054012250 -0.027301749 0.085737750
0.096104011 -0.033410497 0.099462502
0.335319757 0.034310006 0.118130758
0.581196010 0.087448001 0.178665012
0.852908731 0.136070997 0.255442023
-0.031944748 0.162740752 0.211086258
0.150316998 0.197099999 0.216798261
0.428241491 0.213847995 0.165291488
0.658293486 0.228573263 0.183908507
0.897795022 0.303034008 0.273742974
0.127414763 0.444980264 0.394671261
0.266921490 0.480707020 0.368606269
0.545904517 0.471715271 0.283082753
0.718251467 0.477473766 0.229726255
0.946703255 0.515099227 0.304239750
0.305824012 0.733265996 0.532737255
0.404393733 0.751948297 0.475553483
0.575476289 0.742927313 0.396575004
0.819132745 0.736529469 0.408062249
0.977588236 0.749316275 0.351585776
0.320989758 0.969954491 0.488824248
0.433286488 0.976841271 0.449146241
0.584977508 0.985245824 0.399219513
0.787739038 0.991209507 0.382992268
1.008865356 0.994003534 0.427221000
-0.048012499 0.035961002 0.248972014
0.028650001 0.004437006 0.244520992
0.262388021 0.085841998 0.233541995
0.531745553 0.139346004 0.319891512
0.812780499 0.171713009 0.426405519
-0.016694747 0.199784756 0.339012027
0.098031759 0.214430988 0.359634757
0.326893508 0.248388752 0.322620511
0.606710494 0.278882265 0.380776048
0.862883270 0.339140505 0.465990782
0.142343014 0.447308481 0.506361544
0.248725757 0.498294264 0.551076531
0.448251486 0.539568543 0.553554535
0.708302736 0.501789272 0.465888500
0.931504011 0.511859536 0.481946528
0.326357782 0.742439747 0.709968269
0.397464037 0.775415540 0.726573467
0.505022466 0.772788525 0.655037284
0.796461821 0.767586470 0.589702249
0.974072278 0.745146275 0.507191300
0.335114002 0.968107462 0.668020487
0.441589743 0.975419521 0.654908776
0.578634977 0.982876539 0.598909974
0.780336499 0.992168248 0.556586504
1.008690000 0.996014476 0.571271002
-0.038231999 0.094163507 0.374791265
0.015015000 0.084068507 0.374061495
0.223890007 0.133290008 0.367933244
0.469182491 0.244008511 0.415473014
0.730331481 0.268064767 0.563388765
-0.003753248 0.255291045 0.465777487
0.072728999 0.253160775 0.485035241
0.273859501 0.276422501 0.458508760
0.533746243 0.373482525 0.496167511
0.784442723 0.420988768 0.626807213
0.185076267 0.486955762 0.613760293
0.293274999 0.541286469 0.665141761
0.451950312 0.570090055 0.686945975
0.660679758 0.606786251 0.676635504
0.872469783 0.582659483 0.700427532
0.382589519 0.741903484 0.780596256
0.450910747 0.776732504 0.811811209
0.544654250 0.800808787 0.829883039
0.753865480 0.815099061 0.813561499
0.958940506 0.757329524 0.730587006
0.349132508 0.961313009 0.831624269
0.454872966 0.969326258 0.831134558
0.584935248 0.979655981 0.808160305
0.766239285 0.991886020 0.764956236
1.008865476 0.998074055 0.760072291
-0.028015001 0.137890995 0.471441001
0.026231499 0.136529505 0.482074767
0.194197521 0.172306001 0.488736004
0.467375517 0.300796986 0.545175493
0.635228992 0.396647006 0.623843014
0.018560002 0.318293989 0.590808988
0.084057748 0.305813491 0.593723178
0.243301779 0.317672729 0.583714962
0.528955281 0.426512748 0.627307773
0.698800743 0.518572509 0.699922264
0.236848518 0.555865049 0.739587545
0.364951730 0.607680559 0.781882286
0.459855527 0.595389545 0.781992078
0.624225974 0.620543718 0.781277776
0.789883971 0.677860022 0.804138541
0.427474499 0.773390532 0.857135773
0.488976002 0.799494028 0.879755974
0.586966753 0.813956976 0.894628763
0.729995489 0.813621759 0.908889294
0.917194009 0.806729794 0.921576977
0.327634007 0.957404017 0.957165003
0.431874245 0.965625286 0.963450253
0.577741027 0.977596045 0.970035493
0.759106755 0.990592003 0.977986515
1.009981990 0.998202980 0.985457003
