hollywood-luts/Game of Thrones.cube
TITLE "17x17x17 Adobe/IRIDAS cube 3D LUT exported with GrossGrade v0.2.2 (beta) 64 bit"
DOMAIN_MIN 0 0 0
DOMAIN_MAX 1 1 1
LUT_3D_SIZE 17
-0.055916999 -0.053621002 -0.054366000
0.006592687 -0.049680687 -0.053795062
0.039819628 -0.042611375 -0.052387625
0.081116885 -0.032815248 -0.049952749
0.133369744 -0.021832999 -0.045678500
0.185737684 -0.005644812 -0.039328873
0.238156781 0.010088628 -0.031071996
0.292944670 0.022874445 -0.020445244
0.347381532 0.036015004 -0.007983496
0.401741803 0.048933312 0.005266625
0.457738489 0.060767751 0.018822124
0.514813840 0.073030874 0.032683998
0.574321270 0.084194750 0.047030505
0.635826170 0.096411139 0.061969951
0.700695634 0.109362379 0.077737637
0.772853374 0.116792634 0.094580948
0.848412991 0.124677002 0.110284999
-0.051504187 0.028714001 -0.036991313
0.022398001 0.024423994 -0.044130374
0.052657813 0.023942932 -0.050093062
0.091265015 0.031585321 -0.048360124
0.139933378 0.043027941 -0.043932125
0.192961454 0.056194380 -0.037307683
0.246809900 0.069678321 -0.028529184
0.301565349 0.082593195 -0.017319430
0.356705219 0.095376879 -0.004469058
0.412223548 0.108029187 0.009030437
0.469245762 0.120006502 0.022855062
0.527288854 0.132330239 0.036949001
0.586898506 0.144177496 0.051400505
0.649555683 0.154494137 0.066428512
0.714874804 0.165907770 0.082159325
0.784635782 0.176115438 0.098687515
0.860050201 0.184061065 0.114290938
-0.030832125 0.077922374 -0.005269250
0.034898438 0.076770991 -0.010435190
0.084021501 0.073201127 -0.020797752
0.121192321 0.077195562 -0.033481751
0.164874882 0.085896626 -0.035892002
0.214175373 0.096897006 -0.029822750
0.267259032 0.108013257 -0.020070370
0.322336525 0.119523376 -0.008223243
0.378528118 0.130899876 0.004758628
0.435232669 0.142356008 0.018154062
0.493046373 0.154390126 0.031984750
0.552123308 0.167154372 0.046252247
0.612108648 0.180299878 0.060791004
0.673989058 0.192863390 0.075742453
0.738789201 0.204403400 0.091273390
0.808013797 0.213545442 0.107391641
0.880166173 0.224232748 0.122363873
-0.002706682 0.123844013 0.027112819
0.057852015 0.124954566 0.023690069
0.099037446 0.123879015 0.013211694
0.144058689 0.122499883 0.005205879
0.189829871 0.130200699 -0.009833116
0.240780622 0.139268637 -0.015514055
0.292069256 0.149987891 -0.007892679
0.345457673 0.160895705 0.003545198
0.400256783 0.171800956 0.015919194
0.456293941 0.182763383 0.028782316
0.513842404 0.193743765 0.042096127
0.572576463 0.205225766 0.055865005
0.631743014 0.217719153 0.069981001
0.692731023 0.230027214 0.084523514
0.757606864 0.241110340 0.099822454
0.824954987 0.252404749 0.115600452
0.895744562 0.263552934 0.130130947
0.025258001 0.176335007 0.059819005
0.083531305 0.179353565 0.058052000
0.122284636 0.180252641 0.046730630
0.162105024 0.178546250 0.039592810
0.212295756 0.176367506 0.030719753
0.263605386 0.186204180 0.016148629
0.318593770 0.196571872 0.010577003
0.371367514 0.206916064 0.017991129
0.424247503 0.217459261 0.029103503
0.477716982 0.228354752 0.041080192
0.533387363 0.239767507 0.053761628
0.591658771 0.251018703 0.067073941
0.651334763 0.262562752 0.080859251
0.712357521 0.274254143 0.095048636
0.775529563 0.285972387 0.109823644
0.840479136 0.298152685 0.124980144
0.910485268 0.309251010 0.139120996
0.055848628 0.235158816 0.093443871
0.112574816 0.240079567 0.094178997
0.150253311 0.242095560 0.082566381
0.186870515 0.242287621 0.072989687
0.236181378 0.238369495 0.066187382
0.291117430 0.235466495 0.055042062
0.343954951 0.246276200 0.040716436
0.397365779 0.257417887 0.037163254
0.449093282 0.267688304 0.044511504
0.500990689 0.278040558 0.055291504
0.554237902 0.289090812 0.067064807
0.610393882 0.300401121 0.079612933
0.668817163 0.311730444 0.092768006
0.729037106 0.323307544 0.106472701
0.790781498 0.335200816 0.120673954
0.854380608 0.347090781 0.135205269
0.923732758 0.358195513 0.148940250
0.091013640 0.299992889 0.129424512
0.146791443 0.306596011 0.132540137
0.183007389 0.309898645 0.122569516
0.217527211 0.310869217 0.110752456
0.259365767 0.309742421 0.102479383
0.320863694 0.303721517 0.094937079
0.377497137 0.300082773 0.081464261
0.426867604 0.310320646 0.065996446
0.474624634 0.321309745 0.063392513
0.523173034 0.331974506 0.071089074
0.573950887 0.342576504 0.081824012
0.627464473 0.353616774 0.093435749
0.683783114 0.364486903 0.105719134
0.742345452 0.375609964 0.118639953
0.802998304 0.386700034 0.132114515
0.865945876 0.397789687 0.146040186
0.934800863 0.408816755 0.159359619
0.130266950 0.369339764 0.167719141
0.185019568 0.377103031 0.172596022
0.219871640 0.382735491 0.166073844
0.252158850 0.383035719 0.152626470
0.288339615 0.382594317 0.141287208
0.341849804 0.380281270 0.133341759
0.410976619 0.373757511 0.127004638
0.466808289 0.369964570 0.112249523
0.508341193 0.377692819 0.094345838
0.548809230 0.387945026 0.090817519
0.593238056 0.398766935 0.098063946
0.642796397 0.409489930 0.108340696
0.696445346 0.420052916 0.119668446
0.753324091 0.430183172 0.131673083
0.812873006 0.440114081 0.144306391
0.875239909 0.450247228 0.157555327
0.943694174 0.461081654 0.170426250
0.172006011 0.441587031 0.207508504
0.225118130 0.449593663 0.213328123
0.258697271 0.458304614 0.211624652
0.289215326 0.457471132 0.196887136
0.320876777 0.456045747 0.182372004
0.364623785 0.454704463 0.171491563
0.428975016 0.452004910 0.164970264
0.500533462 0.446438074 0.161953241
0.552981019 0.442221522 0.146772504
0.585602522 0.447126150 0.125968635
0.619044900 0.456387758 0.119783387
0.659753442 0.466652900 0.125075251
0.708372295 0.476693273 0.134558022
0.762595057 0.486069709 0.145512521
0.820966959 0.495136529 0.157337755
0.882666469 0.504444182 0.169875890
0.950663984 0.515296996 0.182290494
0.214047372 0.515419722 0.248027623
0.265601128 0.523092985 0.253945678
0.297424048 0.534456968 0.257025689
0.326646179 0.532556534 0.241370887
0.355366439 0.530138969 0.224610180
0.390394509 0.527824759 0.210222244
0.445058346 0.526405454 0.200488448
0.514438152 0.524031162 0.198159695
0.584879637 0.519592762 0.199662104
0.631758273 0.514611423 0.184557498
0.657133400 0.517830849 0.160593122
0.685243487 0.525570393 0.149819374
0.723807752 0.534387887 0.152046248
0.772116065 0.542759359 0.160354763
0.827821076 0.551257908 0.171178266
0.888502359 0.560074389 0.183009207
0.956391275 0.571256638 0.195087940
0.253670990 0.588486612 0.287108243
0.303983271 0.595529079 0.292413563
0.334741145 0.608295143 0.298211396
0.362398505 0.606617510 0.283509433
0.389132619 0.603048682 0.265015364
0.418515950 0.600088835 0.248308048
0.462357283 0.598242164 0.235209122
0.523611486 0.597458184 0.229751378
0.593129396 0.595765650 0.234227240
0.660834253 0.592119098 0.241135255
0.702273607 0.586808145 0.226418376
0.723117352 0.588585019 0.197727755
0.748640776 0.594092786 0.180627003
0.786737263 0.600923002 0.178889692
0.836015463 0.608392358 0.186252877
0.893910468 0.616983354 0.197089776
0.961935103 0.628717363 0.208967254
0.288812548 0.658228457 0.321501076
0.337815076 0.664379716 0.325910419
0.368495077 0.676654398 0.331533164
0.394769877 0.677119017 0.320007235
0.419821829 0.672964275 0.301045865
0.446096569 0.669660687 0.282877088
0.480824083 0.667372584 0.267607123
0.531834006 0.666903079 0.258772969
0.594641089 0.666943550 0.260541558
0.662881672 0.666049421 0.273148596
0.727851450 0.662816882 0.286079615
0.766077697 0.657197177 0.271411806
0.785450578 0.656945288 0.235514939
0.810528278 0.660745740 0.211300686
0.849949777 0.667043388 0.205787748
0.901919186 0.675341010 0.212703884
0.968848586 0.688009560 0.224188507
0.318937004 0.723773479 0.349446744
0.366765022 0.729034007 0.353044510
0.397159904 0.739371121 0.357111275
0.422217697 0.742415071 0.349326938
0.446278274 0.738748014 0.331292272
0.471141875 0.735639095 0.312577248
0.500030279 0.733295441 0.295914620
0.541241527 0.732379973 0.284201980
0.596294522 0.732963026 0.281667024
0.658905387 0.733582318 0.291468799
0.725387812 0.733110905 0.311755866
0.786687732 0.729950070 0.329432428
0.822170973 0.723518491 0.312061250
0.842357993 0.722305417 0.268383086
0.869957924 0.726722002 0.238805622
0.914433360 0.734937906 0.232360020
0.978166223 0.748825490 0.241286516
0.343714982 0.785278440 0.370829284
0.390531093 0.789563775 0.373533189
0.420784354 0.798164785 0.376373887
0.444835454 0.802884400 0.371282458
0.468176037 0.800241768 0.354674280
0.492386848 0.797778606 0.336021036
0.518691003 0.796082973 0.318478763
0.552981019 0.795013309 0.304300725
0.599676549 0.795336306 0.297309250
0.655229390 0.796318412 0.300795436
0.715665162 0.796998978 0.316271484
0.777800679 0.796309412 0.339787185
0.832039893 0.793250024 0.356008410
0.863795996 0.786905408 0.332711548
0.889180183 0.787465870 0.286154687
0.928590119 0.794835806 0.261403978
0.987923741 0.809565246 0.261644334
0.360092610 0.844672203 0.383334577
0.406800985 0.848351955 0.385549784
0.437307626 0.855281711 0.386963844
0.461087257 0.860296369 0.382356018
0.483537495 0.858884692 0.366782367
0.506842077 0.857060909 0.348045230
0.532061994 0.856223047 0.329897016
0.562415004 0.855696738 0.314055622
0.602073729 0.855918109 0.303305626
0.650058091 0.856764138 0.300095052
0.702823639 0.857458889 0.305661500
0.759043694 0.857694209 0.319753706
0.814828038 0.856538832 0.337241590
0.862891793 0.853422940 0.344344705
0.898649454 0.849071681 0.323517472
0.937719584 0.855441511 0.293120772
0.995780766 0.869829059 0.286080390
0.348844647 0.903915644 0.365781099
0.397203147 0.906648040 0.367226034
0.429565370 0.912118196 0.367469460
0.455216914 0.916374385 0.362616718
0.479007840 0.916535258 0.350029349
0.503592074 0.915533304 0.334010214
0.530223548 0.915304005 0.318418384
0.560876191 0.915658057 0.305000305
0.598295987 0.916393101 0.295271814
0.642295659 0.917434931 0.290740073
0.691034913 0.918443680 0.292043954
0.743618488 0.919156551 0.298601478
0.797884107 0.919189095 0.308692187
0.850760758 0.918192565 0.318616241
0.899008036 0.916464865 0.320935935
0.942909956 0.915887296 0.311753988
1.002243400 0.930231094 0.305806488
0.315930009 0.971349001 0.324698001
0.366209984 0.973262429 0.325778931
0.399020612 0.975135624 0.324860513
0.426889807 0.976404667 0.321173251
0.455292523 0.977749228 0.315088511
0.485705882 0.979269207 0.307624012
0.518082738 0.980841398 0.300410867
0.553537846 0.982486308 0.294599682
0.593885005 0.984291494 0.291060507
0.638901591 0.986102819 0.290124863
0.687520862 0.987625480 0.291679263
0.739418685 0.988754213 0.295481443
0.793463767 0.989497244 0.300917506
0.848062336 0.989782810 0.307056457
0.902010083 0.989906013 0.312807739
0.954681277 0.990500033 0.316644937
1.008908987 0.991850972 0.318789005
-0.055737935 -0.051198497 0.003260251
0.001701752 -0.049320687 0.006938063
0.038897689 -0.044959497 0.003516372
0.083994955 -0.039082933 0.001606375
0.133293808 -0.024703436 0.004858002
0.186064005 -0.008346250 0.010861062
0.240150198 0.006954567 0.018875191
0.296334475 0.020412944 0.029358130
0.353951722 0.032536253 0.041810252
0.411803693 0.044078626 0.055038497
0.470293105 0.055589564 0.068481125
0.529442251 0.067871183 0.082180567
0.589477301 0.079658069 0.096219316
0.650516272 0.091004014 0.110676080
0.714836001 0.103399508 0.126079902
0.783822358 0.115990646 0.143029198
0.857298672 0.127058238 0.159273133
-0.053921059 0.022740250 0.021373689
0.013790812 0.023883993 0.024089631
0.055588372 0.026199440 0.012449935
0.096914455 0.030705441 0.004504316
0.143721059 0.042011313 0.006920688
0.195366561 0.054286685 0.013011817
0.248879269 0.066338003 0.021238942
0.303803712 0.078280315 0.031852443
0.360011369 0.089811258 0.044177689
0.416788399 0.101201378 0.057178438
0.474731028 0.112409934 0.070486441
0.533999383 0.123725571 0.084109008
0.594635248 0.134847060 0.098070383
0.656679213 0.146424323 0.112473831
0.720936537 0.158399060 0.127674773
0.789790154 0.170478687 0.144428641
0.868039548 0.187762290 0.165000319
-0.040677749 0.074972630 0.057235375
0.028462999 0.077814750 0.054569189
0.080977567 0.074715622 0.041192252
0.121943019 0.079621561 0.027531561
0.168181568 0.086491749 0.017908059
0.217686862 0.096544564 0.020901438
0.270725012 0.107188314 0.029760879
0.325726658 0.117929444 0.040970385
0.381978363 0.128587767 0.053272255
0.439277768 0.139404878 0.066086814
0.497706205 0.150876448 0.079331875
0.557146490 0.162996128 0.092972815
0.617546141 0.175481185 0.106959999
0.679612637 0.188177198 0.121524513
0.743799269 0.200886577 0.137049317
0.810908437 0.213558882 0.153748944
0.883490860 0.226467490 0.172531620
-0.010778683 0.121142760 0.086935319
0.052334633 0.124838263 0.083933443
0.095720440 0.125371769 0.071977131
0.142463505 0.124135129 0.063128754
0.189999685 0.132388696 0.048893634
0.242265940 0.140720204 0.040708818
0.294929057 0.150308311 0.043817945
0.348841995 0.160552651 0.052771010
0.403926581 0.170753270 0.064082377
0.460499913 0.180775955 0.076277316
0.518101215 0.191237196 0.088933133
0.576446354 0.202639133 0.102044314
0.635678768 0.214737639 0.115719564
0.696333945 0.227040842 0.130046949
0.759623170 0.239766702 0.145072386
0.825717330 0.252770126 0.161371827
0.896273434 0.265068710 0.179251686
0.018789252 0.173694998 0.117453128
0.077644564 0.178589880 0.115756996
0.119195879 0.181369320 0.103510872
0.159015208 0.180724010 0.095899940
0.210879549 0.178343013 0.086228378
0.263213336 0.188479573 0.072230816
0.319121838 0.198445067 0.066292629
0.373273283 0.207913756 0.069491565
0.427124321 0.217720196 0.077744946
0.481550157 0.227818444 0.088420063
0.537693083 0.238535061 0.100350872
0.595450282 0.249746755 0.113025621
0.654334486 0.261564404 0.126327574
0.714264452 0.273696154 0.140265018
0.776418924 0.286197007 0.154804081
0.840897739 0.298708022 0.170053080
0.910289466 0.310720265 0.186944366
0.049853623 0.232936427 0.149859637
0.106290683 0.238924548 0.149556443
0.146891683 0.243169203 0.138342112
0.184020564 0.244451880 0.128765434
0.232957378 0.240921676 0.121179685
0.289737165 0.237777621 0.109124623
0.343515724 0.248861060 0.094837122
0.397711217 0.259618878 0.090735562
0.450558305 0.269170552 0.094688937
0.503329575 0.278938442 0.103027940
0.557163656 0.289466441 0.113620125
0.613110244 0.300624013 0.125432372
0.670974493 0.312110811 0.137994066
0.730471551 0.323921680 0.151217759
0.791670084 0.335965544 0.164987892
0.854937077 0.347846180 0.179262534
0.923467755 0.359475970 0.195216507
0.084897391 0.298115402 0.184997633
0.140219584 0.304996639 0.185571700
0.179298773 0.310991406 0.177145451
0.214891151 0.313020200 0.165820196
0.256229848 0.312371135 0.157400012
0.318135291 0.306759268 0.148804396
0.376567155 0.302912742 0.134504572
0.426873654 0.313177198 0.118840754
0.475269973 0.323716015 0.115265325
0.524612606 0.333680391 0.119826697
0.575837970 0.343860477 0.128399700
0.629380763 0.354646444 0.138962314
0.685310662 0.365513027 0.150500059
0.743584752 0.376586139 0.162781328
0.803918660 0.387610495 0.175612688
0.866495311 0.398623109 0.189030319
0.934606493 0.409883022 0.204190880
0.123902649 0.368207067 0.222782642
0.178290948 0.375525028 0.223837331
0.215908408 0.384160101 0.219848663
0.249675006 0.385369927 0.206924826
0.285979897 0.385526478 0.195873141
0.339090198 0.383484572 0.187427387
0.409246445 0.376984686 0.179523647
0.466710776 0.373247743 0.164169014
0.508873105 0.380737334 0.146126956
0.549667060 0.390390307 0.141464502
0.594627261 0.400554538 0.145589948
0.644313216 0.410910547 0.153829709
0.697745979 0.421235412 0.163992569
0.754368484 0.431213111 0.175161272
0.813658178 0.441051275 0.187042594
0.875680268 0.451031297 0.199681506
0.943601131 0.461922586 0.213934690
0.165414825 0.441452354 0.262341380
0.218444511 0.448440760 0.263572097
0.254330367 0.460012168 0.264732718
0.286468029 0.459865957 0.250482887
0.319027841 0.459093094 0.236458004
0.362373501 0.457951754 0.225500822
0.426872164 0.455490321 0.218167499
0.499839544 0.450105578 0.213534877
0.553419232 0.445831001 0.197612628
0.586367071 0.450299889 0.176837638
0.619832098 0.458797783 0.169662252
0.660888791 0.468399405 0.171861574
0.709443808 0.477969766 0.178872645
0.763472319 0.487033695 0.188373655
0.821571887 0.495918453 0.199363947
0.883004248 0.505065680 0.211241961
0.950879574 0.515821874 0.224568307
0.207445681 0.515863001 0.302328497
0.259062678 0.522354007 0.303628772
0.292835563 0.535893679 0.308806986
0.323267877 0.534619987 0.294146061
0.353398800 0.532830358 0.277957439
0.388575554 0.530835688 0.263801664
0.442899913 0.529540420 0.253762573
0.513143063 0.527572095 0.250228882
0.585181832 0.523441553 0.250004798
0.632720232 0.518441021 0.234338433
0.657976925 0.520911276 0.210654929
0.685802579 0.527786732 0.199233383
0.724481404 0.535819471 0.198165983
0.772751153 0.543693483 0.203390017
0.828332305 0.551795244 0.212601647
0.888890803 0.560412467 0.223540753
0.956930697 0.571489692 0.236158252
0.247776553 0.589147389 0.340265244
0.298038185 0.595205486 0.341572136
0.330388069 0.609167755 0.348312318
0.358755201 0.607968867 0.334889472
0.386979550 0.605178237 0.317437559
0.417095900 0.602663219 0.301214397
0.460573196 0.600853682 0.288146794
0.522357166 0.600210130 0.281723201
0.592984617 0.598913789 0.284508675
0.661894679 0.595700920 0.289749563
0.703551114 0.590475798 0.274905682
0.723776102 0.591296792 0.246909678
0.748822391 0.595885038 0.229404643
0.786945999 0.601931572 0.224290192
0.836319149 0.608894229 0.228094772
0.894438207 0.617102504 0.236926392
0.962633729 0.628779233 0.248903424
0.284227878 0.658946931 0.373094827
0.333111286 0.664411604 0.374421716
0.364918500 0.677220464 0.380419612
0.391533643 0.677816093 0.369841427
0.417876422 0.674429178 0.352219671
0.445147991 0.671703696 0.334923863
0.479821593 0.669496894 0.319969326
0.530955076 0.668987215 0.310626119
0.594581842 0.669204652 0.310902208
0.663367510 0.668746054 0.321725309
0.728666663 0.666060567 0.333062679
0.766676486 0.660324037 0.318407118
0.785529673 0.659211040 0.283736378
0.810271084 0.662018657 0.259312928
0.849813402 0.667727768 0.250388384
0.902234733 0.675615966 0.253317833
0.969439507 0.688140512 0.263832569
0.315570831 0.724139035 0.399346888
0.363323987 0.729020774 0.400872856
0.394687265 0.739789426 0.405284643
0.419861585 0.742801845 0.398106873
0.444739014 0.739577770 0.381324559
0.470444679 0.736919582 0.363629758
0.499644905 0.734780848 0.347489148
0.540714085 0.733910143 0.335779011
0.596082807 0.734568715 0.332368255
0.658993483 0.735396504 0.340566128
0.725382447 0.735354424 0.359044433
0.786443889 0.732647955 0.375006616
0.821680129 0.726075411 0.357989162
0.841779649 0.724054277 0.316002846
0.869451821 0.727719545 0.286210120
0.914352894 0.735575616 0.276245058
0.978328884 0.749258161 0.282699674
0.341640472 0.785295725 0.419380516
0.388411194 0.789400876 0.420994878
0.419413269 0.798361659 0.424187332
0.443482280 0.803098679 0.419547021
0.467110842 0.800609529 0.404044330
0.491719276 0.798259377 0.386349440
0.518438220 0.796740115 0.369381577
0.552620351 0.795849025 0.355488062
0.599226058 0.796276808 0.348170817
0.654985726 0.797353446 0.350606054
0.715396881 0.798159838 0.364539623
0.777197719 0.797816157 0.386487275
0.831086457 0.795076251 0.401471168
0.862799644 0.788763165 0.379120052
0.888456345 0.788950145 0.334000319
0.928324938 0.795822144 0.307879001
0.987935960 0.810002863 0.306002170
0.358999997 0.844341993 0.431094706
0.405891985 0.848042667 0.433096111
0.436959118 0.855318904 0.434982806
0.460755676 0.860402524 0.430788755
0.483220458 0.859057963 0.416147441
0.506522477 0.857125819 0.398224294
0.531881392 0.856301844 0.380549937
0.562241197 0.855951905 0.364906937
0.601837754 0.856308937 0.353938848
0.649778664 0.857222199 0.350147069
0.702405989 0.857993484 0.355018616
0.758375108 0.858327687 0.368365794
0.813878179 0.857462168 0.385341793
0.861921489 0.854628503 0.392196864
0.897877574 0.850478172 0.371798873
0.937255085 0.856337965 0.340022385
0.995820999 0.870129347 0.330436319
0.348628342 0.903612614 0.414633214
0.397580415 0.906447828 0.416554868
0.429940611 0.911895037 0.416887790
0.455653310 0.916333795 0.412426651
0.479448020 0.916553795 0.400280237
0.504026175 0.915607512 0.384635597
0.530664504 0.915409386 0.369073391
0.561274946 0.915796161 0.355275363
0.598599255 0.916553617 0.344840229
0.642437398 0.917571008 0.339459389
0.690965295 0.918551147 0.340081930
0.743343949 0.919300318 0.346314967
0.797440112 0.919450283 0.356309474
0.850292206 0.918602169 0.366187751
0.898604870 0.917048097 0.368226856
0.942455649 0.916256249 0.357798487
1.002246499 0.930352390 0.349107891
0.316163450 0.971095860 0.374494255
0.367156893 0.972963333 0.376254886
0.399780244 0.974856734 0.375281304
0.427512586 0.976175129 0.371478796
0.455876738 0.977561593 0.365113705
0.486291438 0.979217947 0.357093900
0.518663704 0.980894804 0.349100262
0.554034352 0.982562065 0.342245877
0.594246030 0.984355748 0.337502569
0.639137924 0.986147404 0.335406691
0.687660217 0.987669230 0.336058795
0.739465892 0.988816500 0.339334249
0.793417454 0.989571810 0.344556570
0.847975314 0.989917636 0.350605577
0.901941299 0.990076184 0.356056482
0.954564691 0.990706265 0.358935684
1.008918405 0.992003798 0.359782130
-0.055355001 -0.045759000 0.024333375
-0.002348061 -0.047921937 0.027836187
0.025119372 -0.045790374 0.035942376
0.072723135 -0.041079000 0.035839748
0.127751008 -0.036806375 0.033689499
0.181745768 -0.023856625 0.030586313
0.237421021 -0.007603494 0.030013628
0.294864893 0.009993634 0.034823634
0.353334010 0.026269376 0.046490256
0.411682755 0.040500563 0.062336124
0.470259488 0.053374127 0.078700252
0.529833734 0.066016495 0.095598496
0.590542436 0.078881130 0.114069253
0.652675092 0.091624513 0.132264629
0.718061924 0.105058268 0.151210397
0.787648499 0.118775889 0.170298263
0.861427724 0.130100131 0.187004879
-0.054413125 0.017801378 0.041136939
0.000870252 0.020119376 0.052279130
0.035529315 0.017876815 0.052881315
0.086896196 0.025233001 0.045795687
0.139598876 0.030956628 0.036695313
0.191764936 0.043266870 0.032211874
0.246564090 0.056758936 0.032063879
0.303511471 0.070707574 0.038745943
0.361236781 0.084390759 0.051650189
0.418987513 0.097122818 0.066772066
0.477259308 0.109184496 0.082337439
0.536635101 0.121323124 0.099136993
0.597212076 0.133788377 0.117191069
0.659427762 0.146435648 0.135634705
0.724482775 0.159483090 0.154156014
0.793576062 0.173050821 0.173050195
0.868942618 0.190300167 0.192352310
-0.050413128 0.065363251 0.079895131
0.005673500 0.070055127 0.087193437
0.062558994 0.076066501 0.087232746
0.109514445 0.083181500 0.076127306
0.164105117 0.087744631 0.060240254
0.220051691 0.091391370 0.046180435
0.275740653 0.096895754 0.039412253
0.331317663 0.104816072 0.044996254
0.386910290 0.113953382 0.056403004
0.442589581 0.123471379 0.068947434
0.499087125 0.133449495 0.082164750
0.556887984 0.143814236 0.095925689
0.615967035 0.154580742 0.110349625
0.677185774 0.166078880 0.125958383
0.740641057 0.177889153 0.142384142
0.807396054 0.191215843 0.161090851
0.880800009 0.224553868 0.196514130
-0.034533806 0.112803206 0.117827252
0.026992194 0.117659457 0.120963827
0.074755445 0.127744943 0.117007934
0.127151206 0.129851267 0.105580688
0.185189992 0.137321904 0.087291881
0.242726743 0.142450333 0.073037446
0.299269438 0.147988692 0.065693758
0.354922295 0.154587507 0.065943763
0.410216153 0.162197456 0.072501138
0.465704262 0.170628577 0.082583755
0.521935582 0.180252939 0.094648570
0.579419672 0.191326141 0.108062379
0.638118505 0.203400895 0.122564197
0.698397517 0.215933517 0.137914330
0.761113167 0.228843659 0.154249579
0.826259553 0.242210835 0.171639517
0.893853068 0.264185369 0.203545690
-0.004317246 0.166443259 0.153606758
0.053288322 0.171831638 0.156542748
0.095671996 0.182011247 0.145786375
0.143960133 0.186369941 0.133116752
0.203654259 0.184206113 0.118473619
0.262019366 0.193461448 0.100158446
0.320694894 0.200774267 0.090440251
0.377143145 0.207731739 0.088169694
0.432346046 0.215288132 0.091552377
0.487454295 0.223719552 0.098911941
0.543274760 0.233211249 0.109171502
0.600051880 0.243771300 0.121336944
0.657917678 0.255249262 0.134950876
0.717003107 0.267007500 0.149503529
0.778616190 0.279227644 0.164460272
