hollywood-luts/Guns of New York.cube
TITLE "17x17x17 Adobe/IRIDAS cube 3D LUT exported with GrossGrade v0.2.2 (beta) 64 bit"
DOMAIN_MIN 0 0 0
DOMAIN_MAX 1 1 1
LUT_3D_SIZE 5
0.000000000 0.000000000 0.000000000
0.132840261 0.006190750 0.000000000
0.282796025 0.000000000 0.013959501
0.440632999 0.000000000 0.022788750
0.577612996 0.000000000 0.029959001
0.000000000 0.099634007 0.023185249
0.177201495 0.161424503 0.000000000
0.377820283 0.194280744 0.021653002
0.563521981 0.197180256 0.044507500
0.699703276 0.195825011 0.046398249
0.000000000 0.204096511 0.035485502
0.204930991 0.291850507 0.046974003
0.427588016 0.369878501 0.035800502
0.631497502 0.405725777 0.013735994
0.774915516 0.424480498 0.000000000
0.041367751 0.303934753 0.063088998
0.229884252 0.406464994 0.096245751
0.464535773 0.520296574 0.046850242
0.678031504 0.577675283 0.000000000
0.809816003 0.602266252 0.000000000
0.068848997 0.390740991 0.092495002
0.264194250 0.508086979 0.130843252
0.493231535 0.632508993 0.040142983
0.703031480 0.703120768 0.000000000
0.810388982 0.728327990 0.000000000
0.033709999 0.034616001 0.097930253
0.119114257 0.056539752 0.173170999
0.300847262 0.051635996 0.196843266
0.468093276 0.037873250 0.187609255
0.603577495 0.029507250 0.192972511
0.054374252 0.138985738 0.172758758
0.196584001 0.206822500 0.229618520
0.423173010 0.240328521 0.250200748
0.607307017 0.240481749 0.249592006
0.738063514 0.241627499 0.255898237
0.059462000 0.247077256 0.193707496
0.224527001 0.347618252 0.245764494
0.466873795 0.431999743 0.255838752
0.672761440 0.464855790 0.251266003
0.813264489 0.482990772 0.255697757
0.067432255 0.347646743 0.214190766
0.235975757 0.465965241 0.268696517
0.493046016 0.587423563 0.262816757
0.707198501 0.643006504 0.240000233
0.838224292 0.666324019 0.222182244
0.085423253 0.439477503 0.256838769
0.257925242 0.572328806 0.321413755
0.513947785 0.704895735 0.322871238
0.726570249 0.779589772 0.257454246
0.841036260 0.803743482 0.203955263
0.058309503 0.059640504 0.199504018
0.103024505 0.072024241 0.271423995
0.297552019 0.089048497 0.355076015
0.477331281 0.081332013 0.386780500
0.620437980 0.083570503 0.389908016
0.079590008 0.173345506 0.300101012
0.160747007 0.224617988 0.379901528
0.429184258 0.283971250 0.477518290
0.630831540 0.274641991 0.497227490
0.764789820 0.281566739 0.496569008
0.095292002 0.292884469 0.358183503
0.201910749 0.375811279 0.422584534
0.488851517 0.487879544 0.505139530
0.706319332 0.521664500 0.519814789
0.851777494 0.538301945 0.529810011
0.109103754 0.400405765 0.376700997
0.224413007 0.501470983 0.437636018
0.513568044 0.643836498 0.522577047
0.737401247 0.705860734 0.537583709
0.882774770 0.728585243 0.540235996
0.117388010 0.490390480 0.410735518
0.233260751 0.601397991 0.477259278
0.524927497 0.756127000 0.564238012
0.748122215 0.839047313 0.570977211
0.875300527 0.861844540 0.566349506
0.073305503 0.076029748 0.304124773
0.102472506 0.081303746 0.365906507
0.296374530 0.108470500 0.454829991
0.476937026 0.114551499 0.517991781
0.625645995 0.118000753 0.552734256
0.096061751 0.200098515 0.424438983
0.148731500 0.240837991 0.492268980
0.413401783 0.308071494 0.590693712
0.628094018 0.329969496 0.665496290
0.777027726 0.333183527 0.694047272
0.111751258 0.325611740 0.476008236
0.163143009 0.392720520 0.541224003
0.474828511 0.507588029 0.656313539
0.708230734 0.569205999 0.726803541
0.860194743 0.591498494 0.746484041
0.127090007 0.435460746 0.517165720
0.205826506 0.526438057 0.579083979
0.515280008 0.662207782 0.688236952
0.748370528 0.745285511 0.750671566
0.904447556 0.771857977 0.759482503
0.150032490 0.527510524 0.548846483
0.247277245 0.631469011 0.609423518
0.528210521 0.767252505 0.709719300
0.758667231 0.863924265 0.767842293
0.889385760 0.889082968 0.772794008
0.081932999 0.086034000 0.402379990
0.106107503 0.087711997 0.455847740
0.293303013 0.115818501 0.535774946
0.480414033 0.143207759 0.617969990
0.627542019 0.158031002 0.667051971
0.109290496 0.225076765 0.536712229
0.146011248 0.264617503 0.593795240
0.402343273 0.333368987 0.679290712
0.621208787 0.382579505 0.770358205
0.778643250 0.416913033 0.824611545
0.127638996 0.354838997 0.586187005
0.166224748 0.418680251 0.648818731
0.461968482 0.527406514 0.756099522
0.703536034 0.606572270 0.849343300
0.857767463 0.648703456 0.892183542
0.143245250 0.461595505 0.617046773
0.193771005 0.545964241 0.683375716
0.499442518 0.672549546 0.796150565
0.752012014 0.769896507 0.887634754
0.901253521 0.809266984 0.919830501
0.156347007 0.546577990 0.641380012
0.230166748 0.645301759 0.708971739
0.530090511 0.775380969 0.817527533
0.767092764 0.873916507 0.898662210
0.896790981 0.902365983 0.915594995
