hollywood-luts/Guns of New York.cube
TITLE "17x17x17 Adobe/IRIDAS cube 3D LUT exported with GrossGrade v0.2.2 (beta) 64 bit"
DOMAIN_MIN 0 0 0
DOMAIN_MAX 1 1 1
LUT_3D_SIZE 17
0.000000000 0.000000000 0.000000000
0.031344377 0.002514375 0.003105000
0.062741250 0.005440875 0.003173750
0.096880004 0.006988750 0.000591375
0.132840261 0.006190750 0.000000000
0.169081122 0.001823750 0.001626625
0.206626132 0.000000000 0.006407252
0.244481474 0.000000000 0.010873314
0.282796025 0.000000000 0.013959501
0.322053373 0.000000000 0.016284876
0.361834139 0.000000000 0.018236000
0.401557565 0.000000000 0.020503812
0.440632999 0.000000000 0.022788750
0.478937238 0.000000000 0.024828753
0.514876425 0.000000000 0.026811628
0.547504306 0.000000000 0.029079625
0.577612996 0.000000000 0.029959001
0.000000000 0.022625625 0.004288125
0.035159066 0.030489376 0.004553437
0.068864189 0.037463624 0.000510562
0.106287010 0.043502875 0.000197125
0.146125376 0.046740629 0.000000000
0.186634064 0.047489624 0.000000000
0.227012068 0.046432503 0.000147875
0.267794847 0.044637375 0.001261880
0.308665007 0.042661499 0.008112940
0.349783927 0.040813938 0.015765313
0.390942186 0.039637312 0.019494312
0.431687564 0.039434686 0.022571625
0.471744865 0.039347813 0.025528437
0.510249019 0.039373875 0.027847314
0.545953035 0.039616372 0.029872190
0.578231096 0.040576689 0.030880313
0.607503295 0.041440312 0.031729937
0.000000000 0.047010876 0.012854125
0.038661689 0.057805002 0.005833312
0.074105129 0.068048745 0.000607125
0.114481330 0.077508502 0.000000000
0.157962382 0.085141376 0.000000000
0.202149764 0.089347497 0.000000000
0.246635273 0.091081381 0.000000004
0.290506214 0.090489000 0.007805816
0.334361523 0.088394374 0.016338628
0.378051341 0.085867248 0.023513626
0.421190619 0.083394252 0.028017625
0.463385493 0.081706628 0.031049248
0.504336476 0.080629751 0.033632003
0.543258131 0.079652190 0.035563499
0.578849673 0.079262495 0.036824625
0.610651016 0.079698436 0.037560627
0.639348388 0.080210999 0.037922248
0.000000000 0.072627634 0.018777126
0.041582562 0.086279817 0.008494502
0.079465874 0.098913632 0.000749125
0.121761136 0.112243444 0.000000000
0.168156698 0.123808816 0.000000000
0.216080070 0.132959455 0.000000000
0.263921976 0.138299450 0.000000005
0.311286509 0.140915632 0.008977506
0.358087957 0.141305134 0.021153942
0.404478103 0.140337259 0.028738186
0.449936926 0.138730377 0.033934563
0.493923455 0.137042508 0.037791062
0.536010206 0.135574013 0.040569562
0.575664759 0.134002000 0.042526502
0.611361325 0.132829949 0.043413125
0.642749548 0.132431835 0.043653812
0.670993447 0.132806629 0.043387938
0.000000000 0.099634007 0.023185249
0.044336438 0.114456445 0.013587875
0.083824374 0.129201010 0.001056626
0.128640518 0.145675808 0.000000000
0.177201495 0.161424503 0.000000000
0.227614880 0.174425691 0.000000000
0.278245986 0.183881998 0.000000005
0.328321457 0.190197751 0.008871756
0.377820283 0.194280744 0.021653002
0.426724494 0.196634695 0.030757686
0.474331230 0.197672516 0.036538374
0.520114601 0.197728500 0.041037563
0.563521981 0.197180256 0.044507500
0.603940189 0.196224809 0.046697065
0.640124917 0.195372254 0.047344752
0.671641588 0.195156634 0.047266372
0.699703276 0.195825011 0.046398249
0.000000000 0.126492873 0.026565624
0.047447376 0.142057374 0.018659875
0.088035561 0.158436194 0.013069876
0.134611756 0.177564874 0.000000000
0.185086191 0.196787938 0.000000000
0.237401813 0.213289753 0.000000000
0.289901823 0.226158813 0.000000006
0.341900349 0.235696673 0.010734756
0.393513143 0.243118688 0.023017503
0.444391698 0.248759627 0.031217124
0.493762076 0.252725691 0.036777936
0.540890217 0.255299121 0.040875435
0.585548460 0.256770492 0.044235628
0.626893878 0.257468194 0.046105627
0.663626373 0.258000612 0.046167314
0.695484281 0.258914560 0.045300376
0.723664939 0.260293305 0.043939125
0.000000000 0.152802259 0.029173750
0.050164375 0.168516025 0.025607502
0.092425495 0.186187387 0.026574377
0.139831707 0.207703710 0.019989129
0.192076758 0.229977757 0.008673131
0.245842129 0.249670073 0.001183133
0.299719632 0.265431643 0.010132505
0.353270203 0.277781308 0.015294570
0.406192243 0.287665516 0.025626628
0.458532691 0.295792878 0.031798564
0.509221256 0.302196383 0.035701375
0.557482362 0.306923211 0.038245749
0.603065252 0.310493886 0.039761994
0.645291448 0.313137293 0.039741177
0.682600141 0.315317124 0.038087860
0.714930713 0.317565590 0.033741865
0.743449628 0.319853663 0.026677245
0.000000000 0.178527087 0.031983253
0.053438630 0.194435135 0.032829814
0.096403688 0.213089198 0.037874818
0.145137951 0.236388206 0.037256755
0.198497251 0.261473835 0.030178260
0.253542751 0.284161091 0.020982444
0.308585614 0.302750885 0.017568758
0.363192171 0.317514449 0.025367254
0.417307466 0.329465300 0.030944690
0.470619082 0.339444727 0.033389188
0.522293746 0.347591847 0.034442123
0.571505308 0.354142517 0.033128057
0.617967486 0.359342456 0.028569929
0.660895169 0.363654107 0.021076676
0.698721170 0.367313087 0.015275739
0.731461346 0.370732903 0.012531742
0.760184407 0.373963714 0.007510997
0.000000000 0.204096511 0.035485502
0.057261877 0.220116705 0.040467937
0.100540131 0.239708006 0.047822624
0.150270507 0.264581382 0.050661318
0.204930991 0.291850507 0.046974003
0.261012018 0.317378372 0.039387316
0.317054510 0.338773906 0.033621754
0.372541487 0.355902940 0.033357378
0.427588016 0.369878501 0.035800502
0.481734365 0.381430775 0.036535248
0.534337163 0.391139388 0.033488251
0.584320784 0.399059266 0.022326311
0.631497502 0.405725777 0.013735994
0.675010920 0.411339134 0.006575494
0.713252902 0.416203886 0.000000000
0.746200740 0.420561522 0.000000000
0.774915516 0.424480498 0.000000000
0.006830688 0.229575381 0.039844815
0.061481126 0.245788068 0.048732378
0.104869872 0.266240567 0.057768688
0.155391574 0.292424917 0.062630311
0.211197138 0.321611434 0.061174627
0.268309981 0.349551737 0.054085936
0.325143874 0.373641610 0.045855373
0.381637007 0.393368304 0.040507939
0.437536240 0.409347206 0.039178502
0.492595911 0.422703683 0.037732247
0.545911551 0.433766186 0.030872749
0.596721053 0.443065375 0.019153815
0.644434452 0.450857133 0.000000000
0.688310444 0.457607508 0.000000000
0.726800203 0.463317901 0.000000000
0.759565413 0.468309164 0.000000000
0.787965357 0.472611189 0.000000000
0.020697249 0.254751384 0.046385001
0.067154683 0.271551937 0.057050940
0.109584376 0.292807281 0.067277119
0.160567313 0.319951236 0.073529877
0.217342883 0.350586116 0.073711373
0.275347620 0.380643308 0.067659691
0.332922876 0.407262266 0.058026373
0.390163630 0.429546446 0.048764057
0.447077394 0.447876632 0.041905250
0.503085434 0.463019371 0.035157502
0.557239711 0.475640029 0.022473125
0.608647823 0.486055642 0.012814375
0.656790376 0.494855255 0.000000000
0.700748801 0.502439499 0.000000000
0.739134252 0.508693993 0.000000000
0.771161973 0.513923168 0.000000000
0.798691988 0.518422842 0.000000000
0.032275997 0.279588878 0.055023748
0.072969131 0.297300756 0.065405935
0.114737622 0.319289386 0.076125629
0.166037336 0.347186625 0.083715692
0.223485380 0.378812701 0.085253693
0.282182932 0.410573304 0.079833128
0.340407968 0.439427048 0.069855936
0.398351610 0.464250505 0.057536244
0.456120580 0.484987378 0.044491686
0.512980640 0.502102077 0.026072815
0.567851007 0.516150951 0.016854376
0.619770646 0.527690649 0.000000000
0.668121040 0.537303209 0.000000000
0.711923242 0.545402765 0.000000000
0.749485612 0.552019954 0.000000000
0.780181646 0.557244837 0.000000000
0.806069791 0.561653197 0.000000000
0.041367751 0.303934753 0.063088998
0.078746505 0.322719365 0.073475309
0.120141745 0.345488012 0.084593877
0.171887338 0.374050498 0.093439564
0.229884252 0.406464994 0.096245751
0.289085060 0.439494133 0.091391936
0.347677499 0.470224530 0.080951989
0.406099558 0.497247219 0.066777296
0.464535773 0.520296574 0.046850242
0.522162199 0.539386034 0.021531373
0.577576041 0.554893613 0.000000000
0.629772663 0.567398310 0.000000000
0.678031504 0.577675283 0.000000000
0.721416593 0.586229563 0.000000000
0.757707238 0.593012691 0.000000000
0.786485016 0.598149538 0.000000000
0.809816003 0.602266252 0.000000000
0.049396507 0.327697575 0.071028695
0.084774196 0.347407222 0.081272952
0.125914186 0.371142596 0.092674389
0.178195372 0.400379837 0.102391385
0.236788750 0.433462709 0.106229134
0.296380430 0.467376262 0.102311634
0.355101377 0.499453902 0.091726504
0.413518518 0.528213620 0.075596616
0.472165942 0.553183198 0.046880294
0.530143142 0.573929191 0.018750928
0.585950255 0.590709329 0.000000000
0.638282061 0.604184151 0.000000000
0.686480820 0.615157306 0.000000000
0.728833914 0.623980522 0.000000000
0.763684094 0.630897582 0.000000000
0.790278792 0.635909438 0.000000000
0.811137676 0.639837503 0.000000000
0.055682007 0.349974394 0.078330755
0.090601936 0.370820522 0.088793881
0.132203370 0.395698160 0.100430012
0.185321331 0.425701767 0.110720381
0.244668514 0.459244043 0.115338005
0.304430693 0.493690431 0.111885257
0.362877488 0.526560247 0.100989245
0.420871556 0.556397617 0.083130859
0.479204625 0.582649529 0.044987485
0.537109733 0.604716003 0.010290371
0.592932045 0.622513771 0.000000000
0.645367801 0.636882305 0.000000000
0.693194151 0.648477376 0.000000000
0.734774888 0.657661200 0.000000000
0.767618656 0.664651334 0.000000000
0.792191446 0.669542611 0.000000000
0.811093390 0.673321009 0.000000000
0.062306195 0.370899767 0.085711256
0.096824005 0.393080652 0.095943756
0.139259264 0.419130653 0.107989818
0.193627149 0.450035334 0.118748382
0.253955245 0.484096736 0.123528503
0.313863218 0.518732727 0.120000444
0.371662825 0.551647067 0.108321376
0.428694099 0.581824899 0.088367857
0.486182451 0.608783484 0.044114478
0.543568134 0.631628454 0.007025618
0.599118590 0.650264859 0.000000000
0.651289344 0.665381670 0.000000000
0.698627710 0.677349627 0.000000000
0.739039540 0.686805665 0.000000000
0.770441711 0.693851054 0.000000000
0.793054640 0.698807001 0.000000000
0.810710549 0.702365816 0.000000000
0.068848997 0.390740991 0.092495002
0.102946810 0.414386630 0.103195623
0.146765009 0.441808760 0.114920877
0.202698022 0.473700434 0.126054689
0.264194250 0.508086979 0.130843252
0.324041933 0.542507410 0.126577318
0.380990386 0.575234592 0.113785118
0.436913013 0.605364978 0.092095479
0.493231535 0.632508993 0.040142983
0.549659789 0.655754507 0.000100125
0.604615092 0.674926758 0.000000000
0.656291068 0.690717041 0.000000000
0.703031480 0.703120768 0.000000000
0.742498994 0.712824464 0.000000000
0.772365272 0.719955981 0.000000000
0.793689311 0.724810481 0.000000000
0.810388982 0.728327990 0.000000000
0.008723438 0.009315000 0.024548437
0.029867811 0.014667187 0.036621563
0.058995813 0.018753937 0.044511940
0.093726508 0.020770626 0.048576310
0.132543251 0.019486001 0.049731564
0.171756566 0.015742186 0.049026564
0.211076453 0.008358436 0.048268188
0.250386029 0.002672812 0.048145685
0.289836198 0.000386312 0.048538499
0.329707384 0.000000000 0.049396940
0.369683623 0.000000000 0.050401811
0.409346640 0.000000000 0.051491000
0.448230684 0.000000000 0.052524939
0.486064106 0.000000000 0.053832002
0.521665573 0.000000000 0.055216502
0.553816557 0.000000000 0.056724936
0.583755493 0.000000000 0.058356814
0.012301875 0.028834689 0.035901561
0.036505315 0.036915939 0.044376560
0.068407059 0.044260316 0.050292939
0.107715257 0.050619312 0.054139126
0.149851009 0.053660691 0.055202249
0.192670196 0.053837810 0.055317312
0.234992698 0.052389689 0.055328190
0.276479840 0.050350312 0.055573683
0.317814738 0.047796942 0.055758249
0.359252185 0.045119438 0.056192316
0.400326192 0.043120313 0.056755435
0.440891027 0.041993748 0.057532251
0.480463952 0.041102499 0.058679186
0.518346012 0.041141249 0.059848502
0.553647280 0.041614123 0.060967378
0.585338593 0.041767500 0.062215872
0.614314318 0.042515624 0.063768998
0.013238125 0.054031059 0.045234937
0.041657314 0.064110816 0.051249437
0.076828621 0.075099193 0.055585247
0.119218573 0.085373498 0.058070939
0.165096119 0.092678562 0.059027873
0.211566254 0.096669570 0.059602432
0.257076532 0.097948693 0.060063314
0.301525384 0.097011946 0.060779873
0.345482022 0.094550684 0.061613441
0.388934851 0.091480441 0.063031942
0.431646734 0.088545248 0.064052127
0.473396569 0.086383186 0.065036252
0.513804436 0.084823944 0.066105366
0.552147806 0.084024876 0.067296430
0.587174058 0.083646499 0.068075441
0.618390620 0.083902188 0.068982817
0.646464705 0.084382936 0.069979683
0.010640811 0.080143690 0.051872499
0.045663688 0.092707820 0.057367563
0.083295994 0.107010886 0.060125872
0.128357083 0.121448517 0.061481621
0.177245259 0.133363888 0.061799996
0.226714566 0.141673759 0.062237561
0.275403827 0.146649390 0.063067935
0.323221415 0.148957208 0.064219438
0.370158702 0.149096951 0.066475376
0.416231424 0.147860512 0.068488061
0.461103350 0.146006629 0.070266694
0.504556298 0.144093320 0.071746379
0.546093166 0.142374948 0.073055498
0.584949732 0.141006455 0.074157059
0.620064676 0.140081003 0.074821562
0.651050985 0.139881954 0.075503185
0.678702772 0.139980137 0.075874060
0.003323437 0.107095197 0.056790873
0.048950434 0.121573575 0.062434815
0.088397495 0.138139516 0.064649686
0.135342091 0.155986011 0.065183878
0.186370820 0.172308683 0.064770371
0.238262683 0.184624568 0.064394690
0.289817780 0.193608806 0.064802058
0.340432465 0.199728578 0.065781750
0.389926016 0.203505933 0.068565935
0.438478380 0.205577448 0.071327187
0.485608071 0.206400633 0.073661506
0.530838072 0.206405759 0.075691059
0.573697031 0.205934197 0.077395186
0.613426745 0.205245063 0.078617625
0.648979127 0.204728320 0.079261437
0.680012524 0.204756126 0.079706058
0.707556665 0.205392018 0.079788625
0.000425750 0.133913890 0.060893562
0.051568873 0.149466187 0.066563874
0.092854932 0.167739004 0.070006125
0.141013563 0.188392818 0.069803685
0.193576321 0.208287328 0.068268754
0.247439176 0.224540740 0.066909619
0.300798982 0.236918569 0.066448003
0.353526950 0.246268809 0.067155875
0.405348510 0.253429323 0.069362000
0.455854654 0.258780450 0.071939059
0.504755795 0.262557894 0.074507371
0.551473022 0.265046924 0.076636188
0.595611572 0.266671181 0.078335501
0.636311293 0.267700672 0.079529501
0.672503650 0.268591642 0.080067188
0.703818798 0.269731432 0.080438003
0.731757939 0.271323174 0.080397755
0.000000000 0.159811020 0.064776562
0.054030001 0.176078200 0.070681877
0.096662253 0.195821568 0.075375624
0.146024644 0.218999639 0.076259315
0.199961066 0.242015451 0.072986938
0.255192995 0.261812836 0.070266746
0.310146511 0.277296662 0.068822496
0.364335597 0.289378196 0.068934560
0.417633146 0.299019903 0.070867375
0.469685435 0.306823015 0.072610624
0.519954324 0.313057691 0.074123308
0.567828953 0.317754149 0.075436056
0.612965882 0.321423948 0.076377749
0.654582381 0.324343324 0.076907873
0.691477001 0.326825649 0.076716870
0.723325789 0.329201519 0.076298498
0.751599014 0.331727386 0.075554743
0.000000000 0.185078889 0.068498313
0.056514375 0.202229142 0.075028941
0.100147627 0.223058194 0.081017688
0.150780395 0.248202935 0.083460003
0.205904618 0.274081886 0.080786377
0.262429535 0.296995908 0.075788252
0.318540841 0.315596938 0.072194189
0.373900086 0.330231458 0.072430685
0.428357661 0.341866761 0.073389754
0.481441021 0.351556957 0.073912129
0.532726467 0.359540075 0.074037060
0.581654906 0.366044641 0.073493317
0.627653837 0.371317983 0.072605938
0.670060754 0.375791132 0.071228988
0.707589984 0.379588664 0.069137171
0.739934564 0.383006960 0.066457734
0.768440723 0.386221170 0.063041732
0.000426000 0.210553452 0.072210938
0.059939999 0.228236198 0.079608187
0.103969254 0.250073761 0.086816505
0.155292958 0.276762366 0.090899438
0.211763561 0.304978758 0.088986501
0.269371957 0.330823570 0.083598755
0.326509565 0.352240205 0.078319810
0.382815897 0.369390726 0.075976938
0.438182354 0.383238763 0.075834185
0.492261708 0.394458085 0.075671181
0.544398844 0.403913260 0.074295565
0.594177902 0.411844254 0.071469754
0.641033947 0.418446273 0.067409121
0.684108853 0.424112201 0.061691113
0.722100496 0.428941190 0.054115176
0.754694581 0.433112681 0.044784606
0.783252299 0.436825186 0.032233614
0.009740375 0.236145183 0.076374680
0.064027116 0.254401058 0.084570371
0.108032748 0.277015686 0.092974067
0.159886077 0.304862887 0.098410375
0.217418134 0.335011870 0.097825125
0.276053756 0.363386124 0.092061438
0.334072143 0.387612611 0.085072994
0.391306341 0.407267481 0.079978563
0.447560102 0.423215806 0.077852875
0.502473593 0.436389446 0.076592565
0.555530608 0.447194934 0.073989563
0.606095970 0.456306249 0.068782754
0.653620839 0.464093029 0.058936179
0.697221518 0.470672190 0.044935796
0.735307574 0.476314038 0.029055929
0.767618656 0.481028110 0.018127676
0.795668542 0.485108137 0.006020812
0.024601564 0.261490285 0.081459120
0.069351062 0.280724049 0.090035558
0.112271383 0.303955376 0.099337503
0.164418817 0.332629710 0.105962180
0.222887248 0.364206702 0.106769681
0.282449484 0.394726694 0.101345688
0.341270655 0.421485603 0.092829995
0.399310857 0.443865627 0.084911436
0.456480205 0.462072432 0.079525247
0.512341499 0.477043360 0.076196812
0.566199005 0.489527404 0.071713060
0.617457926 0.499771267 0.062799871
0.665469885 0.508430004 0.044076934
0.709122300 0.515840530 0.027747354
0.746887445 0.521918952 0.005015432
0.778223515 0.526995897 0.000048000
0.804961205 0.531245410 0.000002437
0.033999749 0.286779821 0.087418124
0.075024128 0.306885421 0.096149057
0.116862811 0.330793113 0.105844505
0.169032693 0.360111505 0.113600999
0.228179812 0.392711431 0.115726247
0.288604081 0.424916685 0.111057378
0.348141104 0.453958333 0.101694994
0.406890303 0.478846878 0.091170624
0.464893878 0.499562711 0.081649311
0.521566808 0.516478598 0.073669560
0.576261640 0.530364573 0.064508066
0.628085673 0.541879058 0.044221252
0.676178753 0.551306963 0.032447875
0.719557285 0.559162617 0.003767496
0.756180406 0.565585911 0.000001875
0.786079347 0.570698202 0.000001875
0.810880721 0.574840367 0.000001875
0.042997252 0.311831564 0.093588874
0.080640137 0.332649559 0.102654561
0.121691622 0.357341558 0.112729125
0.173908949 0.387212515 0.121423252
0.233667612 0.420566738 0.124804065
0.294797570 0.454052508 0.121028937
0.354811609 0.485001147 0.111312494
0.413954347 0.512097776 0.098728552
0.472556829 0.535075605 0.085011750
0.530005813 0.554068267 0.069686741
0.585274398 0.569456458 0.045844123
0.637459397 0.581889927 0.032369748
0.685561299 0.592116714 0.004131000
0.728025317 0.600340486 0.000001875
0.763341904 0.606860816 0.000001875
0.791186273 0.611885667 0.000001875
0.813577592 0.615804613 0.000001875
0.051336758 0.336132079 0.100542322
0.086388752 0.357815713 0.109726824
0.127027556 0.383315861 0.120166883
0.179353461 0.413784117 0.129576638
0.239707187 0.447730362 0.133996189
0.301375687 0.482119471 0.131027073
0.361609161 0.514366746 0.121301942
0.420696795 0.543132722 0.107023120
0.479397804 0.567940712 0.089184247
0.537271917 0.588780463 0.063504994
0.592997849 0.605613768 0.032455675
0.645368636 0.619009197 0.002485623
0.693143070 0.629716098 0.000001875
0.734772980 0.638333440 0.000001875
0.768397272 0.645057380 0.000001875
0.794111729 0.649984241 0.000001875
0.814117968 0.653632343 0.000001875
0.058642507 0.359070301 0.108202256
0.092509627 0.381847024 0.117606886
0.132950068 0.408341646 0.128323644
0.185757145 0.439442396 0.138373137
0.246698320 0.473780513 0.143449381
0.308603585 0.508582652 0.140937582
0.368640542 0.541492224 0.131072327
0.427281171 0.571252704 0.115500003
0.485567749 0.597365856 0.094188623
0.543383658 0.619657636 0.055697434
0.599205673 0.637731731 0.019831680
0.651534617 0.651916802 0.000001875
0.699072421 0.663248897 0.000001875
0.739802420 0.672243178 0.000001875
0.771918952 0.679029763 0.000001875
0.795515120 0.683943748 0.000001875
0.813848317 0.687521279 0.000001875
0.064748384 0.380577773 0.116839446
0.098653316 0.404800862 0.126296327
0.139732882 0.432423174 0.137272149
0.193389952 0.464238226 0.147637948
0.254894227 0.498703688 0.152885392
0.316821933 0.533407927 0.150286257
0.376233697 0.566425502 0.140152872
0.433956444 0.596547544 0.123614743
0.491394758 0.623377621 0.099549443
0.548703730 0.646681666 0.050015375
0.604340553 0.665729344 0.007976433
0.656417310 0.680618882 0.000001875
0.703513980 0.692463756 0.000001875
0.743496120 0.701755047 0.000001875
0.774139881 0.708557844 0.000001875
0.796371758 0.713474572 0.000001875
0.813629568 0.716974676 0.000001875
0.071041815 0.401209116 0.125780940
0.105055250 0.426809430 0.135662183
0.146956310 0.455700696 0.146656811
0.201926067 0.488295317 0.157024235
0.264103711 0.522721350 0.162145436
0.325910062 0.557173312 0.159080505
0.384370387 0.589853644 0.148280427
0.440864027 0.619907439 0.130961612
0.497164160 0.647041023 0.105040617
0.553613424 0.670955420 0.048825998
0.608773828 0.690714419 0.003957375
0.660550773 0.706278622 0.000001875
0.707167447 0.718640327 0.000001875
0.746242046 0.728109419 0.000001875
0.775666177 0.734986961 0.000001875
0.796722054 0.739683628 0.000001875
0.813250244 0.743288636 0.000001875
0.018274626 0.018630002 0.050289497
0.030890375 0.024395188 0.064915873
0.054718375 0.029720249 0.078785375
0.089224443 0.033713751 0.088620625
0.130070627 0.034452502 0.094216630
0.171620935 0.032596439 0.095517069
0.213045880 0.028703123 0.094340131
0.254327416 0.024086373 0.092440620
0.295441657 0.020139623 0.090962127
0.336393625 0.016352437 0.089939505
0.376954734 0.012143875 0.089299001
0.416915387 0.007176250 0.089269437
0.455885381 0.002286875 0.089582495
0.493440539 0.000000000 0.090269372
0.528849304 0.000000000 0.091338247
0.560848713 0.000000000 0.092995122
0.590342522 0.000000000 0.094674252
0.022431437 0.036529191 0.063889623
0.039061751 0.044228937 0.076400124
0.066184126 0.052676000 0.088814497
0.105466761 0.059661437 0.098357618
0.150290772 0.063676566 0.103758320
0.196032703 0.064052060 0.105432183
0.240403891 0.062179752 0.104718998
0.283445060 0.058683813 0.103137568
0.325760961 0.055195753 0.101478375
0.367832810 0.051986434 0.100237057
0.409253061 0.049071938 0.099428751
0.449676573 0.046862878 0.099056944
0.488989264 0.045317374 0.099285878
0.526692927 0.044663250 0.100009695
0.561626673 0.044614121 0.101026252
0.593013167 0.044638313 0.102329813
0.621715009 0.045169499 0.104042314
0.025896998 0.061309375 0.076206118
0.045630939 0.071120501 0.086823128
0.076613002 0.082565248 0.097078748
0.119900331 0.093892194 0.105453871
0.169035748 0.102131993 0.110892624
0.218138322 0.106353119 0.112840876
0.265500039 0.106897995 0.112777621
0.311197698 0.105339624 0.111893564
0.355682254 0.102507249 0.110831499
0.399359941 0.099078566 0.109995186
0.442057401 0.095601127 0.109422624
0.483609378 0.092778690 0.109081000
0.523674130 0.090684123 0.109216496
0.561567962 0.089529313 0.109691195
0.596123815 0.089237876 0.110526875
0.626977563 0.089290187 0.111665308
0.654740393 0.089653000 0.113069125
0.027855624 0.088709258 0.086103812
0.051173188 0.100780502 0.095115066
0.085383005 0.115307629 0.103638999
0.131846517 0.131018013 0.110551938
0.183295205 0.143812448 0.114976808
0.235401124 0.152382761 0.116859317
0.285883069 0.156944260 0.117155813
0.334614128 0.158727765 0.116984501
0.381932199 0.158525258 0.116934076
0.427910179 0.157006875 0.116914757
0.472547472 0.154842436 0.117018566
0.515690744 0.152623817 0.117302500
0.556768239 0.150678128 0.117573008
0.595192373 0.149248511 0.117928937
0.629768610 0.148386315 0.118522376
0.660275638 0.148282692 0.119465113
0.687601566 0.148471132 0.120604441
0.027231375 0.116413005 0.092727251
0.054875746 0.130247757 0.101068810
0.092217252 0.147463381 0.109040126
0.140200645 0.166622996 0.114854440
0.193701014 0.183967382 0.117896751
0.247779682 0.196844935 0.118927494
0.300665498 0.205430120 0.118957758
0.352155477 0.210990816 0.118957117
0.402207017 0.214440629 0.119290374
0.450769335 0.216259331 0.120135315
0.497530758 0.216856003 0.121109888
0.542344868 0.216701940 0.121909499
0.584722936 0.216162130 0.122538239
0.623896599 0.215577498 0.123046942
0.658955097 0.215314999 0.123683877
0.689661384 0.215607122 0.124500997
