hollywood-luts/Insidious.cube
TITLE "17x17x17 Adobe/IRIDAS cube 3D LUT exported with GrossGrade v0.2.2 (beta) 64 bit"
DOMAIN_MIN 0 0 0
DOMAIN_MAX 1 1 1
LUT_3D_SIZE 17
0.000845000 0.005803000 0.033220999
0.018417500 0.012104874 0.033715062
0.044167750 0.020628376 0.038532499
0.078805886 0.028235625 0.043568563
0.124335006 0.035622001 0.049230501
0.171684504 0.041605752 0.054993939
0.218969524 0.049148880 0.061526127
0.273100227 0.060188510 0.071697816
0.334728003 0.079820506 0.086293004
0.395211309 0.106016748 0.102983370
0.453267872 0.132152751 0.120589629
0.508304119 0.156027749 0.137574628
0.548864543 0.176282510 0.150456503
0.582300127 0.194928661 0.162455201
0.619589150 0.218379408 0.176930398
0.663765967 0.247928411 0.193611383
0.707114995 0.277529001 0.209847003
0.001624062 0.040512063 0.039231312
0.016261250 0.038668938 0.036941938
0.042123497 0.042526938 0.041459251
0.077112511 0.052940443 0.048370246
0.120191626 0.066802308 0.055022933
0.163680747 0.079031378 0.061372250
0.208830148 0.085706383 0.067414574
0.264984816 0.093487948 0.076537013
0.329049289 0.110424198 0.091042317
0.392729402 0.135928303 0.109128319
0.454361945 0.162964806 0.128465563
0.513175964 0.188898072 0.147405252
0.560490966 0.213801324 0.163187250
0.596929848 0.236128584 0.176423013
0.630831003 0.257218719 0.188763961
0.665635467 0.278553337 0.201388568
0.708959043 0.305458069 0.216504186
0.001655000 0.079591751 0.045303751
0.013419563 0.077767000 0.042594373
0.041629750 0.074862495 0.044403505
0.076491073 0.086926058 0.052003190
0.118888624 0.099345997 0.059910875
0.159283683 0.113766313 0.069053747
0.199153140 0.127674639 0.076814629
0.245989472 0.139420196 0.085216761
0.307729632 0.153755501 0.097957879
0.376526147 0.175127566 0.115803503
0.445758343 0.200505495 0.137714878
0.511074901 0.227569133 0.159697622
0.563804150 0.256077021 0.177016884
0.605044723 0.280272961 0.191561192
0.641363800 0.300409406 0.203226253
0.676518857 0.319267780 0.215296879
0.715058208 0.340881497 0.228530377
0.000654250 0.125346318 0.051692627
0.009737125 0.126013190 0.049214873
0.031478558 0.125257462 0.049052939
0.070798263 0.125120893 0.052788749
0.112928942 0.141041696 0.062230691
0.160637006 0.150836021 0.073584124
0.200243697 0.163736209 0.084903754
0.239863589 0.179804578 0.095120825
0.289617598 0.199008524 0.110107444
0.352755666 0.219761267 0.128019065
0.422948182 0.241733819 0.148860067
0.493652672 0.265705496 0.171436936
0.554439127 0.293484628 0.190142319
0.602406681 0.320047975 0.206667066
0.643901825 0.342728525 0.219935894
0.692524314 0.364521086 0.233710751
0.739948988 0.392078698 0.253419250
0.000106000 0.171836004 0.059920501
0.008458376 0.174379990 0.056012999
0.020822998 0.180364251 0.056233373
0.062860824 0.177097559 0.058859065
0.116653249 0.181012750 0.065861247
0.162798315 0.194596618 0.076690942
0.209412754 0.203924149 0.089823753
0.250821292 0.218731448 0.104331762
0.296192527 0.238540262 0.121419750
0.348818511 0.259806633 0.141192138
0.410016507 0.281126618 0.161807865
0.477255791 0.304566085 0.184445798
0.542804718 0.330315232 0.203982264
0.600039542 0.355607152 0.221120507
0.648021698 0.380932659 0.236944139
0.702085793 0.407952487 0.254086167
0.752564788 0.438747227 0.277560979
0.001311750 0.214214697 0.075027689
0.010418249 0.220700294 0.067612879
0.021448065 0.229203939 0.068265565
0.050128512 0.232279450 0.070490874
0.108581379 0.228424937 0.074153125
0.170402810 0.234392494 0.084184691
0.220490649 0.246066242 0.097186260
0.267757088 0.259146869 0.114268385
0.314148337 0.277203321 0.133650631
0.366128087 0.298705816 0.155603066
0.423771441 0.321190685 0.178215802
0.485927045 0.344909430 0.200762063
0.548039496 0.369843870 0.220311373
0.606694818 0.394865960 0.238134459
0.657261252 0.421420574 0.256241202
0.710936368 0.450323045 0.274850667
0.762026310 0.484152675 0.301987499
0.005029253 0.257786274 0.099448636
0.015311753 0.266243130 0.089591458
0.028162006 0.278393507 0.085024886
0.059767574 0.281813771 0.087530196
0.101922005 0.282182276 0.088653885
0.169131562 0.282012194 0.095777199
0.230123132 0.289918154 0.109140635
0.285109788 0.300794840 0.125763074
0.335535526 0.317201138 0.145955756
0.387266606 0.337922275 0.168166757
0.444610864 0.361480892 0.191954121
0.505397379 0.386501014 0.215637684
0.562992394 0.411618531 0.236552879
0.617193997 0.437807620 0.256315410
0.667316616 0.464454144 0.275617033
0.722027004 0.494144380 0.296532154
0.773824751 0.531346738 0.329337507
0.012305945 0.306554466 0.130272523
0.024467383 0.314514041 0.123483703
0.039855447 0.327934086 0.111240268
0.070033580 0.332807958 0.105892263
0.110361449 0.328962147 0.105539761
0.170477867 0.332741439 0.112130634
0.239402696 0.338644892 0.125131756
0.297509521 0.347757787 0.139638260
0.355867743 0.360339195 0.158851564
0.409740746 0.379472226 0.180431753
0.465188622 0.402735591 0.203491375
0.523626626 0.427974969 0.226801872
0.578727841 0.452753335 0.247823194
0.629065037 0.479193926 0.268695086
0.679064095 0.506452620 0.288814336
0.735510349 0.539191425 0.315361410
0.785279512 0.573914647 0.353433520
0.027245503 0.361700535 0.165780514
0.040170066 0.367956936 0.161779821
0.055485383 0.378327131 0.150786266
0.078603141 0.388993382 0.133816138
0.122788012 0.383212268 0.126570255
0.181001067 0.377225041 0.129363760
0.253509402 0.385263026 0.142710134
0.314355850 0.396589905 0.157001272
0.366521537 0.406836003 0.170404017
0.427135050 0.422139138 0.191238672
0.484096110 0.444186270 0.213175759
0.539332807 0.468651235 0.234106690
0.592608988 0.493695498 0.254247993
0.642513275 0.519879818 0.275277466
0.694456220 0.547662139 0.297424763
0.748248935 0.580824196 0.328797847
0.790164471 0.607451499 0.371591002
0.046500999 0.421404004 0.204578057
0.059583064 0.426802933 0.201447561
0.074395433 0.434939325 0.190847188
0.093085766 0.448145181 0.165099129
0.133312017 0.449712992 0.153770134
0.199407130 0.435569078 0.152529567
0.273716390 0.432486624 0.160992995
0.336439908 0.441721201 0.174096942
0.383209467 0.454778224 0.184903115
0.431021988 0.467554867 0.197507873
0.493349791 0.484183878 0.217636928
0.549921334 0.508085489 0.237265006
0.602534294 0.533356845 0.255872577
0.654159307 0.560826898 0.278281301
0.708249211 0.589279711 0.305541337
0.755643010 0.617080331 0.340111792
0.789523423 0.634844065 0.390049934
0.066809498 0.479725122 0.242824495
0.079874314 0.484734535 0.240087375
0.095994249 0.493167639 0.227664873
0.116368942 0.508057237 0.192935199
0.148115501 0.515377998 0.177679628
0.204828754 0.506026268 0.176257193
0.287025124 0.494477510 0.181270376
0.356822044 0.493580312 0.190791056
0.404180020 0.501646996 0.200039238
0.443815678 0.515319347 0.208922118
0.493381113 0.532090485 0.221382618
0.554888964 0.549209237 0.237793565
0.608837724 0.573522687 0.256219894
0.663320899 0.601833761 0.281075031
0.715395331 0.628567517 0.313753158
0.756694913 0.649494886 0.354996622
0.790399253 0.661974013 0.409946859
0.092353873 0.530997276 0.277203888
0.104979500 0.535215735 0.274758875
0.120969184 0.543134511 0.264043510
0.142143115 0.560867906 0.233247995
0.169275805 0.575107157 0.211054936
0.208840623 0.573937237 0.199788436
0.276382208 0.562799752 0.200246572
0.357620150 0.556218207 0.206558749
0.420079529 0.556943536 0.215541944
0.464987725 0.565920770 0.223693818
0.508094907 0.581676424 0.232906371
0.560935199 0.601801753 0.246863559
0.617831528 0.619793653 0.263761640
0.670100510 0.642098665 0.290754765
0.717541158 0.665408552 0.328060299
0.755584538 0.678028345 0.378772318
0.794251740 0.691832423 0.428744048
0.120494507 0.576250494 0.308349013
0.133084014 0.580642462 0.307251126
0.146736771 0.587591112 0.300164640
0.164141685 0.603736877 0.288046509
0.189511508 0.624671459 0.272251755
0.224425822 0.639560282 0.244831771
0.276095271 0.632236362 0.228265896
0.351110220 0.621661961 0.226863086
0.426462024 0.619655490 0.233928025
0.487041235 0.623759270 0.242765009
0.534246743 0.634643376 0.251601517
0.580134809 0.653148890 0.263934702
0.629525483 0.672556281 0.286629796
0.677879393 0.687212944 0.314674139
0.715126038 0.697512150 0.356033653
0.755779207 0.706464648 0.407284111
0.797626495 0.724312007 0.448983490
0.143024713 0.621158481 0.338073790
0.154725447 0.625441551 0.337485969
0.167967945 0.632092178 0.336913347
0.184069976 0.641242325 0.339372396
0.208546594 0.660225034 0.338331610
0.246028453 0.688921809 0.311147183
0.296019435 0.699034989 0.281640440
0.368427992 0.691604733 0.266987860
0.444328308 0.685883582 0.266017646
0.508234739 0.687466145 0.271341354
0.561600208 0.692710161 0.278518111
0.603808939 0.704065442 0.293082595
0.642210841 0.722636759 0.318387628
0.679256976 0.734957039 0.354153633
0.718334138 0.732928276 0.395779103
0.758597434 0.741797686 0.430433542
0.802283645 0.760496914 0.463415205
0.163072392 0.667229354 0.366542906
0.175194770 0.670028150 0.369480610
0.189704522 0.674194694 0.375552773
0.206550777 0.679835796 0.384710342
0.230842769 0.696765780 0.386851162
0.268349886 0.723444939 0.367685020
0.319792569 0.746032894 0.344467193
0.393128246 0.755747676 0.330442399
0.471739411 0.756277442 0.326142848
0.532159865 0.754922688 0.326415062
0.579125643 0.756860077 0.329734832
0.619426429 0.761584222 0.339837104
0.652373731 0.769525051 0.365833580
0.685543478 0.773807824 0.400143415
0.722491801 0.776674390 0.431452304
0.765127599 0.783280492 0.455226243
0.810411990 0.798386395 0.475965649
0.190717280 0.709490716 0.409099907
0.203678265 0.711630821 0.413446546
0.217900589 0.715018392 0.419378161
0.233492211 0.720782280 0.427278221
0.252610415 0.729912519 0.436546594
0.290672362 0.748178244 0.432065815
0.355467319 0.774323523 0.417819768
0.432264566 0.793765545 0.406137079
0.503360450 0.800674021 0.403763115
0.557502449 0.799990952 0.406323165
0.596268475 0.799383581 0.409071952
0.630842209 0.802603960 0.414615244
0.666178584 0.806139588 0.423911482
0.698020518 0.811460376 0.443055928
0.731924117 0.818240166 0.462661296
0.771395743 0.828815341 0.480142415
0.818522871 0.839011669 0.498795837
0.225145996 0.754966021 0.456842989
0.236322880 0.757233858 0.459370494
0.249244511 0.760541141 0.462634742
0.264349639 0.765552580 0.468909949
0.281786025 0.772280276 0.477981746
0.316261083 0.783191323 0.484534204
0.385347664 0.804625392 0.478528261
0.465061009 0.824311733 0.464964330
0.532009006 0.834115982 0.455785513
0.581532240 0.837183177 0.454556942
0.618534982 0.838740766 0.456897497
0.650319993 0.841611385 0.460904062
0.681004763 0.845966220 0.468176991
0.713119626 0.852254212 0.476880193
0.745588839 0.861959279 0.489178479
0.783691049 0.873174071 0.504665494
0.823635995 0.886075020 0.532272995
0.001382187 0.008097062 0.046092875
0.018176561 0.011562062 0.046317875
0.049545188 0.018220063 0.049009066
0.086238891 0.025061939 0.054615565
0.131036267 0.033718310 0.062031128
0.175276443 0.042516124 0.069844186
0.221054196 0.051951379 0.077739879
0.277209103 0.065056384 0.089348882
0.340734750 0.084298760 0.104007438
0.403104126 0.108241871 0.119502567
0.463564813 0.134312376 0.136357814
0.518595397 0.159480244 0.152839303
0.556745708 0.178146496 0.164251193
0.587704420 0.193178505 0.174276337
0.620014846 0.212566286 0.186669633
0.662543535 0.242128223 0.203024015
0.708492219 0.279303670 0.221295744
0.002107813 0.042972062 0.051678501
0.012791563 0.042859562 0.052769750
0.045302060 0.045436561 0.052842062
0.086962081 0.051888630 0.060989060
0.131485686 0.061018124 0.068592496
0.172647372 0.070166245 0.075590000
0.218784526 0.075651377 0.082312696
0.276422530 0.084874570 0.092918314
0.337077081 0.102002941 0.106891625
0.396285057 0.127206504 0.122359626
0.456333488 0.155282378 0.139359504
0.515412927 0.182959944 0.157666489
0.564533651 0.209734172 0.174164757
0.602048516 0.230786502 0.186816692
0.634290099 0.249246657 0.197976515
0.668687046 0.271332711 0.210558325
0.710252821 0.305731803 0.227656692
0.002155375 0.080848627 0.057519063
0.011281625 0.086243369 0.059774064
0.031266809 0.089415744 0.058323815
0.080312327 0.089505807 0.066606186
0.127997816 0.098562308 0.075744562
0.168085068 0.111101560 0.083993688
0.209211528 0.121367626 0.090913504
0.260729164 0.127076700 0.098906323
0.323675692 0.137536749 0.111683436
0.389503807 0.159621000 0.128764436
0.456037045 0.189774692 0.148840696
0.519571126 0.220260516 0.169246942
0.571096361 0.248333246 0.186040878
0.612518907 0.272771657 0.199697703
0.648503184 0.293534219 0.211935461
0.680407107 0.315019727 0.224362001
0.714756906 0.340080768 0.239185005
0.000752000 0.124848396 0.064838752
0.009011375 0.129602194 0.065810263
0.022677310 0.134697467 0.065333433
0.068587951 0.134241760 0.068023123
0.124914750 0.139248326 0.079618439
0.172359362 0.148550391 0.091531560
0.212740213 0.161590457 0.101938568
0.255932540 0.176597774 0.111643702
0.306853205 0.191701829 0.123890817
0.369707376 0.210079625 0.139845505
0.440872133 0.235244930 0.161065504
0.512275159 0.264433414 0.183958367
0.571251214 0.292627573 0.201638386
0.616788387 0.316631824 0.216169819
0.658041000 0.338219643 0.227635637
0.701157689 0.363459200 0.244847149
0.740199089 0.391401052 0.267789632
0.000329875 0.171255305 0.080472380
0.008790249 0.176122993 0.078957379
0.019396875 0.183446884 0.077399626
0.045024887 0.187680438 0.075342439
0.113179453 0.184285000 0.081008248
0.168495923 0.195999488 0.093688756
0.220625892 0.204387382 0.108567066
0.266803592 0.219284579 0.123408385
0.316385329 0.240927443 0.140690759
0.370509654 0.262414753 0.158702821
0.432201326 0.283692360 0.177701309
0.499549001 0.307894766 0.198852122
0.564022183 0.333201945 0.216537684
0.619499743 0.356817126 0.232086465
0.669466853 0.381224513 0.245882764
0.721142232 0.413290471 0.271174341
0.763276279 0.445196122 0.302579492
0.001940187 0.215819746 0.102072999
0.011579876 0.220984623 0.099607378
0.022738686 0.231075749 0.094834313
0.038354017 0.244504064 0.091027126
0.095875069 0.239868000 0.091186315
0.168635979 0.239178300 0.099880368
0.221876949 0.252562046 0.113391325
0.280726671 0.265611708 0.133484140
0.334149778 0.284566641 0.154487133
0.389267862 0.307676166 0.176362544
0.448261112 0.330460429 0.197354451
0.510595798 0.353623569 0.218094751
0.572360337 0.377288908 0.235758081
0.630170643 0.401095569 0.252059460
0.681864381 0.427056849 0.268579334
0.732120454 0.459573418 0.296562850
0.772939861 0.492772192 0.333927184
0.006193316 0.259717196 0.126997069
0.016653629 0.266669691 0.124720827
0.030052131 0.282534480 0.114931755
0.049074203 0.300363630 0.110302940
0.087677628 0.303220272 0.110728249
0.157917857 0.293528646 0.111977510
0.232580334 0.297564715 0.125545323
0.292646915 0.311625153 0.143241078
0.353576958 0.329881489 0.166517884
0.410197735 0.351680696 0.189814687
0.470247418 0.375851363 0.213024378
0.532033324 0.400952548 0.235498309
0.588790596 0.424962401 0.255272567
0.642568707 0.449145555 0.273652643
0.693090618 0.474956781 0.292153269
0.741298437 0.506331325 0.323278010
0.777778864 0.536031127 0.363587171
0.014914820 0.308299899 0.155079901
0.027102510 0.316830754 0.153895259
0.043804951 0.335284352 0.144326448
0.065165512 0.354333222 0.130893141
0.104578190 0.357857406 0.130404323
0.159552142 0.356464654 0.133120835
0.234839410 0.353621513 0.141819209
0.305681348 0.360126972 0.157272458
0.368963063 0.374715149 0.177114278
0.431434005 0.396960348 0.201047704
0.492005259 0.421531707 0.224774688
0.551619351 0.446793586 0.247428134
0.604614854 0.470645458 0.267300814
0.653892636 0.495243907 0.288169771
0.702239513 0.520575941 0.309228659
0.747009337 0.549336493 0.343896091
0.779074013 0.572361410 0.387169063
0.029963382 0.361878335 0.187532395
0.043383941 0.370451808 0.187012136
0.060033754 0.385297149 0.181668311
0.079711065 0.404670775 0.161694512
0.115806818 0.411606789 0.150309026
0.171643049 0.407482743 0.151693836
0.242184639 0.410920888 0.160862312
0.316337049 0.415176094 0.174048081
0.378691614 0.423703432 0.188016951
0.446914136 0.440935522 0.209799677
0.510322630 0.465565145 0.232425421
0.567609906 0.490637898 0.253623873
0.617320716 0.513572276 0.273011774
0.663962662 0.536379993 0.293836266
0.709893882 0.560870707 0.318985343
0.749089301 0.584775746 0.357338995
0.778310835 0.602012634 0.406688064
0.048249375 0.420159489 0.223849759
0.061250374 0.426665366 0.223349184
0.075777061 0.435712188 0.220769942
0.092473626 0.449622184 0.205171242
0.121529818 0.466131389 0.181738868
0.176850826 0.464948297 0.172162876
0.252152145 0.459253132 0.176831186
0.330037057 0.465988874 0.189719871
0.393770814 0.477022558 0.201921508
0.449177057 0.489863902 0.214767307
0.518909633 0.507438421 0.235542238
0.575646639 0.530256808 0.254410535
0.623502433 0.552791178 0.273497760
0.669528127 0.574714005 0.295942008
0.713694811 0.597472906 0.325536728
0.749551237 0.615728796 0.369616032
0.779187918 0.629808128 0.425829053
0.068944752 0.479443133 0.260920703
0.080662005 0.483131230 0.260363996
0.094302692 0.489106208 0.259060383
0.110790066 0.498340756 0.246722549
0.135336623 0.518049181 0.218932256
0.181902438 0.527695358 0.200762630
0.260448098 0.518364012 0.195939690
0.347273409 0.516326487 0.204724386
0.414296240 0.526158690 0.216731310
0.464306116 0.541059673 0.226492196
0.515791357 0.557065308 0.238453954
0.576157868 0.570126295 0.253938168
0.624087691 0.589273572 0.272596210
0.669354677 0.610440373 0.299340010
0.712841630 0.631392837 0.334219694
0.749845624 0.646097124 0.386148006
0.784116507 0.659265220 0.443439603
0.095230743 0.532034755 0.295307636
0.106596380 0.534893215 0.295193255
0.120049000 0.539967299 0.293918788
0.136731878 0.549163818 0.282934159
0.160443500 0.569608927 0.258150697
0.196821108 0.588076770 0.230040386
0.259667844 0.582567275 0.219001561
0.354355544 0.576172352 0.221976116
0.433701068 0.579565048 0.232084125
0.486400515 0.589832127 0.241582006
0.528592587 0.603751063 0.250238746
0.575667381 0.619855464 0.263061076
0.626331449 0.629557371 0.281868368
0.669002235 0.645127356 0.311393291
0.711365342 0.662896752 0.353708446
0.751336038 0.675393164 0.409089953
0.790883601 0.690845907 0.458161861
0.122566506 0.577009797 0.325929642
0.134650886 0.580863595 0.326449245
0.147893250 0.585550547 0.324919999
0.163121819 0.594348133 0.320803523
0.185081258 0.612481296 0.313300014
0.216788948 0.638874233 0.283938348
0.262938172 0.645973623 0.251908451
0.342996955 0.638363123 0.244797945
0.434204549 0.637592077 0.250763744
0.503815770 0.642177463 0.259041846
0.549397528 0.650716424 0.267884463
0.588694513 0.664528728 0.281555206
0.630702794 0.677924335 0.305649281
0.673624814 0.685120225 0.339707315
0.712286115 0.692094326 0.386987805
0.753999770 0.705246985 0.433794230
0.796192884 0.724120319 0.472224563
0.145455271 0.621986508 0.354536474
0.156783268 0.625534952 0.354895920
0.170189023 0.630784750 0.356519789
0.186159402 0.638346434 0.361775696
0.205820724 0.648047090 0.373838693
0.235278413 0.671564937 0.367062926
0.281749427 0.694501698 0.330053270
0.350700974 0.701337636 0.298569262
0.432795614 0.698602259 0.288431764
0.508446693 0.698843777 0.290227681
0.567212164 0.702937961 0.296303809
0.605214834 0.711585045 0.312805742
0.639178693 0.725522935 0.341220945
0.675668538 0.731006801 0.381011724
0.718292475 0.729309261 0.422119200
0.758090615 0.739693046 0.451866657
0.801906943 0.759259045 0.482815444
0.166716352 0.667842329 0.383506596
0.178719208 0.670457363 0.387321055
0.193694100 0.675020814 0.394485623
0.210896209 0.681382120 0.405551374
0.230588093 0.690603197 0.417881131
0.260418713 0.707734585 0.422427475
0.317020357 0.729599774 0.409306556
0.391086757 0.749611676 0.388922989
0.467986792 0.759630740 0.369733691
0.531198144 0.760291457 0.357753396
0.580624640 0.760075569 0.354895383
0.619851947 0.763323188 0.363575935
0.652711272 0.768608391 0.392646551
0.686066747 0.771845818 0.425697237
0.722293556 0.775210619 0.454051614
0.764995396 0.782421291 0.476057529
0.810557902 0.796742320 0.495605022
0.195729971 0.711380601 0.426536858
0.208461404 0.713579416 0.432021916
0.223472536 0.718426645 0.439740747
0.240557402 0.726173460 0.449788272
0.259200960 0.735069633 0.460755527
0.293356955 0.749633908 0.462985069
0.356601179 0.771548212 0.454109997
0.430984765 0.791409850 0.445755124
0.503286600 0.800646007 0.440191269
0.561577559 0.801200867 0.436607301
0.601297855 0.800712824 0.435775787
0.634260774 0.802680850 0.438810676
0.667715192 0.806209326 0.446363598
0.699002087 0.812305987 0.463242114
0.732981980 0.818816304 0.480976403
0.772870600 0.829197645 0.498343498
0.819284618 0.839690566 0.519385695
0.229881316 0.757510364 0.472578943
0.242654756 0.761697233 0.477587998
0.257189870 0.766727448 0.484271735
0.273033440 0.772307158 0.492663980
0.290019661 0.778534889 0.501505673
0.323217690 0.788276017 0.509533167
0.388765782 0.809605718 0.506148815
0.464626223 0.830443203 0.495299369
0.531615317 0.842410564 0.485706300
0.584823132 0.845326364 0.482087672
0.624463201 0.843974411 0.482246011
0.655968726 0.844854176 0.483865649
0.685463846 0.848753333 0.488682956
0.715656698 0.854367375 0.495340884
0.747541368 0.863810003 0.507052600
0.785746872 0.874543428 0.524108171
0.827843487 0.886494040 0.550755799
0.001787250 0.013630375 0.062364999
0.016242750 0.015109126 0.066105746
0.047486875 0.020962877 0.067011505
0.089096949 0.027663376 0.072253250
0.134325370 0.035314251 0.078497499
0.177044749 0.043393560 0.085841440
0.223708779 0.054077506 0.095340259
0.284007609 0.071105510 0.109083325
0.351009667 0.093734130 0.125325248
0.413973689 0.116222754 0.139188379
0.472712874 0.137296751 0.152476877
0.525787830 0.159063876 0.167118177
0.563254118 0.177654266 0.178317621
0.592291355 0.192609385 0.187255517
0.622121155 0.209870026 0.197974384
0.663145483 0.241043970 0.214204907
0.708872736 0.284391105 0.235773757
0.002575000 0.052783247 0.067867503
0.012148375 0.041973002 0.078398250
0.044315621 0.048761249 0.083537251
0.092139199 0.059361942 0.081276998
0.139703795 0.067945689 0.087509632
0.180065513 0.073296309 0.093882561
0.226968080 0.078388877 0.100556187
0.288259864 0.091949761 0.113052189
0.351717085 0.111290067 0.127595946
0.409195572 0.131757379 0.140436321
0.467675567 0.155530378 0.154984310
0.526959956 0.183924615 0.172395304
0.574545383 0.211558193 0.187726811
0.610762835 0.233012646 0.199887067
0.638776124 0.248683900 0.209623516
0.669501603 0.269836038 0.221613973
0.710402369 0.310050100 0.244931191
0.002045000 0.089117751 0.078897379
0.011502000 0.093391627 0.090702996
0.025153749 0.098249130 0.105501123
0.079177007 0.101092257 0.091152310
0.134675503 0.107937627 0.095661506
0.180018753 0.114824682 0.102786690
0.223921388 0.118135989 0.108300634
0.279461533 0.119146436 0.116264135
0.343496382 0.130064890 0.129389003
0.405066252 0.152741060 0.144498691
0.465494514 0.181688249 0.160837501
0.524299026 0.210684836 0.178486511
0.575129032 0.239547759 0.195397124
0.619726777 0.268029034 0.210525215
0.655047119 0.289215803 0.222822264
0.684178650 0.313683778 0.236344412
0.715403080 0.343740731 0.258978993
0.000958063 0.132115886 0.097569004
0.009476687 0.138640508 0.104292691
0.019764749 0.150581524 0.115293436
0.046940703 0.158883139 0.117877871
0.125767440 0.149858013 0.102904439
0.184175014 0.154289946 0.111246064
0.229904890 0.163071126 0.119862750
0.277831852 0.173826590 0.129376128
0.334069550 0.183054879 0.140319258
0.395653754 0.198008388 0.154893070
0.459894478 0.222565576 0.173209369
0.524797559 0.253202885 0.193029612
0.580629826 0.283535570 0.210225254
0.625990570 0.310125768 0.224541262
0.665415108 0.335217655 0.238275349
0.703517079 0.365506768 0.260610729
0.738202929 0.393517733 0.290050566
0.001042875 0.178532496 0.120605253
0.009781749 0.183860451 0.118145995
0.020920997 0.192069501 0.119628370
0.036949575 0.199297994 0.117744945
0.109193146 0.196790129 0.113310248
0.182351634 0.197564125 0.115555823
0.240598142 0.206536517 0.130227387
0.292205215 0.221862584 0.145128965
0.343882382 0.239855260 0.159909636
0.399749577 0.257424891 0.175475881
0.461356759 0.277669638 0.192322731
0.526101351 0.303509414 0.210856438
0.586245179 0.331733763 0.228135765
0.636752546 0.357642949 0.244384721
0.681558728 0.385546774 0.261293918
0.726175725 0.419715524 0.294280857
