hollywood-luts/Insidious.cube
TITLE "17x17x17 Adobe/IRIDAS cube 3D LUT exported with GrossGrade v0.2.2 (beta) 64 bit"
DOMAIN_MIN 0 0 0
DOMAIN_MAX 1 1 1
LUT_3D_SIZE 5
0.000845000 0.005803000 0.033220999
0.124335006 0.035622001 0.049230501
0.334728003 0.079820506 0.086293004
0.548864543 0.176282510 0.150456503
0.707114995 0.277529001 0.209847003
0.000106000 0.171836004 0.059920501
0.116653249 0.181012750 0.065861247
0.296192527 0.238540262 0.121419750
0.542804718 0.330315232 0.203982264
0.752564788 0.438747227 0.277560979
0.027245503 0.361700535 0.165780514
0.122788012 0.383212268 0.126570255
0.366521537 0.406836003 0.170404017
0.592608988 0.493695498 0.254247993
0.790164471 0.607451499 0.371591002
0.120494507 0.576250494 0.308349013
0.189511508 0.624671459 0.272251755
0.426462024 0.619655490 0.233928025
0.629525483 0.672556281 0.286629796
0.797626495 0.724312007 0.448983490
0.225145996 0.754966021 0.456842989
0.281786025 0.772280276 0.477981746
0.532009006 0.834115982 0.455785513
0.681004763 0.845966220 0.468176991
0.823635995 0.886075020 0.532272995
0.000905500 0.040334750 0.160026759
0.113443255 0.053460255 0.167533755
0.308579773 0.087100759 0.168374255
0.573559225 0.176276743 0.206040010
0.698442996 0.304675251 0.306954741
0.006772751 0.205001250 0.196025997
0.070468754 0.230805740 0.242593989
0.379890025 0.272998482 0.246492267
0.586624742 0.349273264 0.319432259
0.746841252 0.460323244 0.418402016
0.045606755 0.373185754 0.295379490
0.107734010 0.434441775 0.304794490
0.401711255 0.475525260 0.254886746
0.644616306 0.561848581 0.400062293
0.798413515 0.629934788 0.529478550
0.143816024 0.592797756 0.393855512
0.195050016 0.612858772 0.409173220
0.404984772 0.682862520 0.398061275
0.655769706 0.712795258 0.452569276
0.811972260 0.748867810 0.554626763
0.249852747 0.771605968 0.532358050
0.319707274 0.795764744 0.564211249
0.538066745 0.857647061 0.592071712
0.705052495 0.861423254 0.555155516
0.841854990 0.899520993 0.620082259
0.043733504 0.082483001 0.413939536
0.147454754 0.099534497 0.391703784
0.298717022 0.122800507 0.364203036
0.529074073 0.246835768 0.400421023
0.705715477 0.350465000 0.507808506
0.040613756 0.295037746 0.374516249
0.142369747 0.246864244 0.466155022
0.351859510 0.274565518 0.470486253
0.570466995 0.374845982 0.464642256
0.763945460 0.481008530 0.547294497
0.092236012 0.457602024 0.448612511
0.145134270 0.482065499 0.476298749
0.373377055 0.519055486 0.542568922
0.658030510 0.595834196 0.583340228
0.819402993 0.646708965 0.637799978
0.176129505 0.629492044 0.536868453
0.244967014 0.661896527 0.548983812
0.449540257 0.717616260 0.615732431
0.688418508 0.756903946 0.615824699
0.866751194 0.822789550 0.711050510
0.282272011 0.809142470 0.642166018
0.377893269 0.840208471 0.667913437
0.561872005 0.897853971 0.711350441
0.734786749 0.917488694 0.710730255
0.887235999 0.945309043 0.744898021
0.119973756 0.147310764 0.636482477
0.232795268 0.144706264 0.599358499
0.437896013 0.218064278 0.606366992
0.625289738 0.325271517 0.616613746
0.761073232 0.402148485 0.664713025
0.138192505 0.401777774 0.597214282
0.247965023 0.351827770 0.649044514
0.469466001 0.375057757 0.665476561
0.636655986 0.441361755 0.644182265
0.776776493 0.512525022 0.693541765
0.166305020 0.553731680 0.631425738
0.267590284 0.581786990 0.654565752
0.489311248 0.590914547 0.715522766
0.688631535 0.612074256 0.709673047
0.829371512 0.671071529 0.736513495
0.245212764 0.701484680 0.696328521
0.347955495 0.725984514 0.708859444
0.511914730 0.784058273 0.761001229
0.719955087 0.821509957 0.797754288
0.893385053 0.869440734 0.827211261
0.350233495 0.864570498 0.785666287
0.457372725 0.893457294 0.806131244
0.598322213 0.931538761 0.841098309
0.769200981 0.961309731 0.862878203
0.934781730 0.973163486 0.879895747
0.276969999 0.328182012 0.802106023
0.438865751 0.317367256 0.808586478
0.572564483 0.366538495 0.798014998
0.695748746 0.402802229 0.791261494
0.832503021 0.466863990 0.831535995
0.304647028 0.523110032 0.792549014
0.430048227 0.483007252 0.834753752
0.588794470 0.475847006 0.834333003
0.731271505 0.502675056 0.837839544
0.866206050 0.597304463 0.858546257
0.329187989 0.662899971 0.792454481
0.425771505 0.682591259 0.811380267
0.613317490 0.692454517 0.874804020
0.770168304 0.673756242 0.874361277
0.894837022 0.741811991 0.878078461
0.390850246 0.801775515 0.847534001
0.480036497 0.825607777 0.866247773
0.612590730 0.869944215 0.897406459
0.776569009 0.887842953 0.914167285
0.927952051 0.892767489 0.927501023
0.509292006 0.937457979 0.904632986
0.597169518 0.950168014 0.914449215
0.707185507 0.966784477 0.927906036
0.837306499 0.981232762 0.946173549
0.969991028 0.987535000 0.975836992
