hollywood-luts/Interstellar.cube
TITLE "17x17x17 Adobe/IRIDAS cube 3D LUT exported with GrossGrade v0.2.2 (beta) 64 bit"
DOMAIN_MIN 0 0 0
DOMAIN_MAX 1 1 1
LUT_3D_SIZE 5
0.000000000 0.000000000 0.000000000
0.218367249 0.049842000 0.009022251
0.475354999 0.121355504 0.023844501
0.652440250 0.161151499 0.035040002
0.809225023 0.179242998 0.039236002
0.020248251 0.171572998 0.064424999
0.248735249 0.236080989 0.040146250
0.508271813 0.274067760 0.021633251
0.682858586 0.296167016 0.033197004
0.840994477 0.312573254 0.039233249
0.105759509 0.371531010 0.151220500
0.214032263 0.399623513 0.132953748
0.546844006 0.495541513 0.092460506
0.713728011 0.483374029 0.045235250
0.878919005 0.494552523 0.044331502
0.218460009 0.598029494 0.262798011
0.296009988 0.608772278 0.248064265
0.492556274 0.668869257 0.212530747
0.763612747 0.695064008 0.136507750
0.904780984 0.680104256 0.075390503
0.262221009 0.805872023 0.368101001
0.338913262 0.810730517 0.356514990
0.480263501 0.828611970 0.307693005
0.786787271 0.866808772 0.297224730
0.931666970 0.861675024 0.191150993
0.005554750 0.040001251 0.114166006
0.191820756 0.070245251 0.156102762
0.475993991 0.112401001 0.169094250
0.652367532 0.144095242 0.169765249
0.802993298 0.158338249 0.170161501
0.032214250 0.207111508 0.187542006
0.236289755 0.248408243 0.234715998
0.504253268 0.282506764 0.213887751
0.685384274 0.304891974 0.213449761
0.844816506 0.315942258 0.209065512
0.102380008 0.379528046 0.240417510
0.265078783 0.435426801 0.287616760
0.538356543 0.500837266 0.268839002
0.710878968 0.493716240 0.246589512
0.886136234 0.505729258 0.231593266
0.208979994 0.599084973 0.341314256
0.332325965 0.631876469 0.364058524
0.500356317 0.678456306 0.335418016
0.755707026 0.703547001 0.304942250
0.906119287 0.694050789 0.263475239
0.250782013 0.806411982 0.441510230
0.374326289 0.824516058 0.450257242
0.512062311 0.840705752 0.414387733
0.784421563 0.871590257 0.404798239
0.927888036 0.870168507 0.353811234
0.021545000 0.088786006 0.231820509
0.148138493 0.112805501 0.290089011
0.459915996 0.150038511 0.339323491
0.656937242 0.176497012 0.363173485
0.788203478 0.182135001 0.381817013
0.048857249 0.241273999 0.335197508
0.218924254 0.273521483 0.360870779
0.507030010 0.306006223 0.390627265
0.693014503 0.322682023 0.401031762
0.828214765 0.323812008 0.408203006
0.135940522 0.454212487 0.419956982
0.291401267 0.484424055 0.444038272
0.554841042 0.530387521 0.460035026
0.718985558 0.522194743 0.451066017
0.875901997 0.516424060 0.442408502
0.195827499 0.620373249 0.459835052
0.320685506 0.649146497 0.478545010
0.554818034 0.712710023 0.510125041
0.756076515 0.725436687 0.487307549
0.901103973 0.709865570 0.463330269
0.225036502 0.811079502 0.537111998
0.346165746 0.828001499 0.545332551
0.531813502 0.856004000 0.543915987
0.773369551 0.880272746 0.532479465
0.922952533 0.882315993 0.515814006
0.053461503 0.142926246 0.372230768
0.149977267 0.164386749 0.426495016
0.417351753 0.198225752 0.484816015
0.641599476 0.235818252 0.527976036
0.790957987 0.243933499 0.549040258
0.080470264 0.280952215 0.464022756
0.224566758 0.313963979 0.492801517
0.457350761 0.340893775 0.541386008
0.676857233 0.368636250 0.559492290
0.822749734 0.371795475 0.572265267
0.146662265 0.496122003 0.572566748
0.281663984 0.517867744 0.586468220
0.510421574 0.556854486 0.607639253
0.739565492 0.571739793 0.609636724
0.873628259 0.565214276 0.612510741
0.190396994 0.680318296 0.616412520
0.311583489 0.698861718 0.626479805
0.550440550 0.742039740 0.650115967
0.782501698 0.759092450 0.645206094
0.898684025 0.737549543 0.638213277
0.187504500 0.826445758 0.653457522
0.299539000 0.838145256 0.659805000
0.473763287 0.861688495 0.667093456
0.743779719 0.888730526 0.663833499
0.916467786 0.895463228 0.667612791
0.101742998 0.215076998 0.536018014
0.186735511 0.232514739 0.571092010
0.379935503 0.261277020 0.641233504
0.624935508 0.299935997 0.662620485
0.780833006 0.318740994 0.693044007
0.131350994 0.340958238 0.601025522
0.248752251 0.368350983 0.624968290
0.412827760 0.391031772 0.684084475
0.650115490 0.415876776 0.692347765
0.800451994 0.428546250 0.713125467
0.148108497 0.530593514 0.695290446
0.268208265 0.549535990 0.706525266
0.458957493 0.583517551 0.741463542
0.692080259 0.589491010 0.754407763
0.840698481 0.596556008 0.755636990
0.159604996 0.714911759 0.753174782
0.267094731 0.726729035 0.762584031
0.482933760 0.757973731 0.795184553
0.734049797 0.772631526 0.809434772
0.885459542 0.772902727 0.796699762
0.165677994 0.848421991 0.782465994
0.265752763 0.855702996 0.788796008
0.463134527 0.877977014 0.808792472
0.747097492 0.903268754 0.825003505
0.904434979 0.906934023 0.822075009
