hollywood-luts/Interstellar.cube
TITLE "17x17x17 Adobe/IRIDAS cube 3D LUT exported with GrossGrade v0.2.2 (beta) 64 bit"
DOMAIN_MIN 0 0 0
DOMAIN_MAX 1 1 1
LUT_3D_SIZE 17
0.000000000 0.000000000 0.000000000
0.039534375 0.006757500 0.000879375
0.091040500 0.017014125 0.002760625
0.147445574 0.031172065 0.005321188
0.218367249 0.049842000 0.009022251
0.295392931 0.070591249 0.013231875
0.365687013 0.090340629 0.017033126
0.424703032 0.107275441 0.020351315
0.475354999 0.121355504 0.023844501
0.522013485 0.133468121 0.027350375
0.566932082 0.144113630 0.030286999
0.610478342 0.153301433 0.032805439
0.652440250 0.161151499 0.035040002
0.692520142 0.167567000 0.036630940
0.731531680 0.172601625 0.037859373
0.770273805 0.176538318 0.038728811
0.809225023 0.179242998 0.039236002
0.003307500 0.052501872 0.013819687
0.044405624 0.063141562 0.009053438
0.100061871 0.072248437 0.006832688
0.160018265 0.082635507 0.007825439
0.232990190 0.097344942 0.010504625
0.308508515 0.114384562 0.014092562
0.376127303 0.130912185 0.017539687
0.433134884 0.145032868 0.020784438
0.482719511 0.156626940 0.024119375
0.528766394 0.166498244 0.027573187
0.573212981 0.175146371 0.030640814
0.616398692 0.182738930 0.033147626
0.658135951 0.189554125 0.035318688
0.698266029 0.195482180 0.036911998
0.737443745 0.200364441 0.038142435
0.776405334 0.204343125 0.038977437
0.815597177 0.207237691 0.039434750
0.007970375 0.094562374 0.029966000
0.039928250 0.101330191 0.022584375
0.100379616 0.115740255 0.016760249
0.167752385 0.126608253 0.012648375
0.244776636 0.139736250 0.011672625
0.320501029 0.154422998 0.013411438
0.386454403 0.168291867 0.016220126
0.441846102 0.180118501 0.019314127
0.490351140 0.189859882 0.022758001
0.535796583 0.198383883 0.026413063
0.579906821 0.206182495 0.029771624
0.622888565 0.213295996 0.032494500
0.664525151 0.219821498 0.034824252
0.704645693 0.225511566 0.036722936
0.743992507 0.230444744 0.037935875
0.783185720 0.234592870 0.038769748
0.822589755 0.237793490 0.039308000
0.012754438 0.131670758 0.047020316
0.035939313 0.135823637 0.039927192
0.088051565 0.151064575 0.033168755
0.166142657 0.171498880 0.027247939
0.250322998 0.185398266 0.019180194
0.328822494 0.198745698 0.015692316
0.395509154 0.210871816 0.016064502
0.451027900 0.220863894 0.018129252
0.499531686 0.229067639 0.021154499
0.544948041 0.236307457 0.024859939
0.588967443 0.243136942 0.028514501
0.631697774 0.249522477 0.031536501
0.673038840 0.255463004 0.034063123
0.712985754 0.260753870 0.036207188
0.752340257 0.265488058 0.037570622
0.791612864 0.269619435 0.038490187
0.831144392 0.272910804 0.039222188
0.020248251 0.171572998 0.064424999
0.039387122 0.174537390 0.060115505
0.076821752 0.185845122 0.052902628
0.151712850 0.210817069 0.048132811
0.248735249 0.236080989 0.040146250
0.333546609 0.249374807 0.027083062
0.401684254 0.259416252 0.020948501
0.458346039 0.267479569 0.020335376
0.508271813 0.274067760 0.021633251
0.554646969 0.279896319 0.024130814
0.599023640 0.285522640 0.027468249
0.641710043 0.290978760 0.030607000
0.682858586 0.296167016 0.033197004
0.722701967 0.300983310 0.035544381
0.762095571 0.305435479 0.037296999
0.801417351 0.309359133 0.038390748
0.840994477 0.312573254 0.039233249
0.032020375 0.215588063 0.082369313
0.050085373 0.218131423 0.079770058
0.077419616 0.225596055 0.074941754
0.136388898 0.246983245 0.069774806
0.231258333 0.279259056 0.066519186
0.335264802 0.305412114 0.053559251
0.407475442 0.313784957 0.036310188
0.464275390 0.318965673 0.027973812
0.515122294 0.323504150 0.026283437
0.562967539 0.327757925 0.026735874
0.608307719 0.331911623 0.028295688
0.651328981 0.336137563 0.030406002
0.692509592 0.340423554 0.032540750
0.732441008 0.344695926 0.034900002
0.772045076 0.348823875 0.037003499
0.811558843 0.352568984 0.038415749
0.851274431 0.355683386 0.039537624
0.049672883 0.263930917 0.102720886
0.068404756 0.266415268 0.100745261
0.091422632 0.271552503 0.096835509
0.133426905 0.286393225 0.091761574
0.212956876 0.316979170 0.089761131
0.319537640 0.352959931 0.085747078
0.414062649 0.373832762 0.066886127
0.472075343 0.375238836 0.045998815
0.521293581 0.375940919 0.035838507
0.569234610 0.378087699 0.033044755
0.615619540 0.380871147 0.032711003
0.659516513 0.383873850 0.033049442
0.701161683 0.387114525 0.033795252
0.741413653 0.390667260 0.035326753
0.781299055 0.394370615 0.037179999
0.821103573 0.397930771 0.038726125
0.861185968 0.401049644 0.040071998
0.074588828 0.316176653 0.125843018
0.093883142 0.318697423 0.124088198
0.115807012 0.322767615 0.120509133
0.147226721 0.332460642 0.114681393
0.205625638 0.355512470 0.110339455
0.296752751 0.391613543 0.110817887
0.403948724 0.425589919 0.103761010
0.483592331 0.437454730 0.080021255
0.530869901 0.432442278 0.055768825
0.575373709 0.430007607 0.043717824
0.621084929 0.430755138 0.039997816
0.665749490 0.432758391 0.038917940
0.708290339 0.435167223 0.038310129
0.749243975 0.437946886 0.038426690
0.789622068 0.441134036 0.039133813
0.829886377 0.444455028 0.040070251
0.870471716 0.447608888 0.041349251
0.105759509 0.371531010 0.151220500
0.125103578 0.373970270 0.149615198
0.146404505 0.377526015 0.146348760
0.172823831 0.384340703 0.140477762
0.214032263 0.399623513 0.132953748
0.282054603 0.428208083 0.130197823
0.379757166 0.465477496 0.130757883
0.480948657 0.492594689 0.119836122
0.546844006 0.495541513 0.092460506
0.586369872 0.485924840 0.065136828
0.627134264 0.481627643 0.051430129
0.670597911 0.481674790 0.047002189
0.713728011 0.483374029 0.045235250
0.755603969 0.485635698 0.044268627
0.796799064 0.488404393 0.043764256
0.837806463 0.491504073 0.043770000
0.878919005 0.494552523 0.044331502
0.139457628 0.428680867 0.178307310
0.158307746 0.430859357 0.176787749
0.178773120 0.433995128 0.173782885
0.202628493 0.439275503 0.168418452
0.233836755 0.449283689 0.159812242
0.282395631 0.469090462 0.151650324
0.357346028 0.500029385 0.150605306
0.460367501 0.534852028 0.149513245
0.552200079 0.553333163 0.134323746
0.606058061 0.549351752 0.103914060
0.639431298 0.536860287 0.074084125
0.676814437 0.531462967 0.059312001
0.718392611 0.531219125 0.054166690
0.760705590 0.532937765 0.052058626
0.802819133 0.535524189 0.050766502
0.844752312 0.538565397 0.050114814
0.886386216 0.541439295 0.049422938
0.171093374 0.485948622 0.206335008
0.189139500 0.487789124 0.204860315
0.208571002 0.490448266 0.201996252
0.230649248 0.494765788 0.197135568
0.257137775 0.501863003 0.189030498
0.293217391 0.514926016 0.178040192
0.347466290 0.537305892 0.170962378
0.433953494 0.569057643 0.171454191
0.538616538 0.598633885 0.167621762
0.618689537 0.609186590 0.147850186
0.661930740 0.600283861 0.114899874
0.690312624 0.586133242 0.083229557
0.725119710 0.580099344 0.067566372
0.765591204 0.579849720 0.061918873
0.808061182 0.582022786 0.059512127
0.850856543 0.585136175 0.058092374
0.892965257 0.587937355 0.056286748
0.197593689 0.542362034 0.234581560
0.215014622 0.543901086 0.233147502
0.233503804 0.546100557 0.230403826
0.254250437 0.549710870 0.225903049
0.278420120 0.555281878 0.218659133
0.307673037 0.564123154 0.207545191
0.347828329 0.579268515 0.195661753
0.415487617 0.604118824 0.191363260
0.514181614 0.634436131 0.192258060
0.613034904 0.656905651 0.185000554
0.679992616 0.660913229 0.160838306
0.714412987 0.648863614 0.125843942
0.739472628 0.634164810 0.092804871
0.772909462 0.628087938 0.076529682
0.813405991 0.628298163 0.070376188
0.856505871 0.631189167 0.067505315
0.898946524 0.634004891 0.064830810
0.218460009 0.598029494 0.262798011
0.235470057 0.599331975 0.261383057
0.253422499 0.601197243 0.258815765
0.273361981 0.604242444 0.254609644
0.296009988 0.608772278 0.248064265
0.321778119 0.615216494 0.237931952
0.354369909 0.625441551 0.224257618
0.407148033 0.643237174 0.213966250
0.492556274 0.668869257 0.212530747
0.594308734 0.694310784 0.212271750
0.680801272 0.709274650 0.201349765
0.735372782 0.708281457 0.173153877
0.763612747 0.695064008 0.136507750
0.787661731 0.681348562 0.102970928
0.821324706 0.676118135 0.086302750
0.862499774 0.677339196 0.079609059
0.904780984 0.680104256 0.075390503
0.234561771 0.652952850 0.290740222
0.251387239 0.654057741 0.289427161
0.269011438 0.655622005 0.286966532
0.288328826 0.658124328 0.282971084
0.309773386 0.661692142 0.276916176
0.333791584 0.666597545 0.267783105
0.362928361 0.673755586 0.254429221
0.406189263 0.685919106 0.240104958
0.478209883 0.705388308 0.232813656
0.574611604 0.728330255 0.232931465
0.668380141 0.746840119 0.230541006
0.740823328 0.755600512 0.215944454
0.785279691 0.751835167 0.184285030
0.810405791 0.739500999 0.147142947
0.836028337 0.728400469 0.113863140
0.870577276 0.724611223 0.096403137
0.910928726 0.726316690 0.088277578
0.246487141 0.706473351 0.317961663
0.263138741 0.707334995 0.316686988
0.280478388 0.708529592 0.314359665
0.299251109 0.710397482 0.310559958
0.320046484 0.713193059 0.304866672
0.343853176 0.717101276 0.296561718
0.372389883 0.722520947 0.284451634
0.410656124 0.730822325 0.268622518
0.471564293 0.744572282 0.255594283
0.559245467 0.763002634 0.251515687
0.653527975 0.780522346 0.251776636
0.733481765 0.792481244 0.246700451
0.793002009 0.797009051 0.228484780
0.830063105 0.792504430 0.194515452
0.855235755 0.782623053 0.157807022
0.883124530 0.774720073 0.124730639
0.917867005 0.772443414 0.106368288
0.254473507 0.757535458 0.344035417
0.271127671 0.758211493 0.342761397
0.288575172 0.759204030 0.340523064
0.307579368 0.760738194 0.336919785
0.329157442 0.763214231 0.331721514
0.353702188 0.766450047 0.324026972
0.382779270 0.770786464 0.313008219
0.419239402 0.776718378 0.297556341
0.472017944 0.785843670 0.280822456
0.549925506 0.799127102 0.270889342
0.641511202 0.813858747 0.269716591
0.723874032 0.825852513 0.269360721
0.790342689 0.833351076 0.261990517
0.838239968 0.835238457 0.241325974
0.870760977 0.831153154 0.205873787
0.896656036 0.823887229 0.168848842
0.925423265 0.818060696 0.135503873
0.262221009 0.805872023 0.368101001
0.279104412 0.806495428 0.366893500
0.296970487 0.807332397 0.364846021
0.316636562 0.808663130 0.361497819
0.338913262 0.810730517 0.356514990
0.364679396 0.813620865 0.349487543
0.395205647 0.817422152 0.339555353
0.432036281 0.822229803 0.325428724
0.480263501 0.828611970 0.307693005
0.549698114 0.837851048 0.294035614
0.636405647 0.849224627 0.291251272
0.719601274 0.859528422 0.295194387
0.786787271 0.866808772 0.297224730
0.838169038 0.870861948 0.292881668
0.875628829 0.871239543 0.276170731
0.904939830 0.867632806 0.239375010
0.931666970 0.861675024 0.191150993
0.000415313 0.004985625 0.030870002
0.035973750 0.012604687 0.040612500
0.086156875 0.019596687 0.044585876
0.142603129 0.029701067 0.047362499
0.215869933 0.044222999 0.049253561
0.295068949 0.061791435 0.050067686
0.366227031 0.080035314 0.050762184
0.425440103 0.096865065 0.051973186
0.476201445 0.111536250 0.053655751
0.522915959 0.124501996 0.055754185
0.567670345 0.136100635 0.058156811
0.610824347 0.146182075 0.060775436
0.652420223 0.154800743 0.063415378
0.692362607 0.161932245 0.065598190
0.731339574 0.167346373 0.067353129
0.770054936 0.171351001 0.068701625
0.809051573 0.174119562 0.069773190
0.004650937 0.061680004 0.051768750
0.040509373 0.069726564 0.059918441
0.093270250 0.078598931 0.062725440
0.154452279 0.087697685 0.060719248
0.227488562 0.100263745 0.062047061
0.303889126 0.115144432 0.063330129
0.372657984 0.130196571 0.064582497
0.430817217 0.143834576 0.066097930
0.481525958 0.155771509 0.067816004
0.528612792 0.166332304 0.069641434
0.573846757 0.175653934 0.071400687
0.617463052 0.183695212 0.072993562
0.659383237 0.190599740 0.074389622
0.699553847 0.196469188 0.075577311
0.738878191 0.201349184 0.076417997
0.777904868 0.205023423 0.077122256
0.817155302 0.207546130 0.077432565
0.009117813 0.100335002 0.061888937
0.044130124 0.108729810 0.067765370
0.094174251 0.120695993 0.075356752
0.162945703 0.129962876 0.068961747
0.238074392 0.140961692 0.067767434
0.312924892 0.153629243 0.068034127
0.379611492 0.166424006 0.068810560
0.436444283 0.178052306 0.069990695
0.486566871 0.188222423 0.071553625
0.533534706 0.197373554 0.073140681
0.578941226 0.205709442 0.074631244
0.622895122 0.213154316 0.076005183
0.665180922 0.219733372 0.077147938
0.705741584 0.225374937 0.077995747
0.745411932 0.230213746 0.078383438
0.784836888 0.234046817 0.078859501
0.824359596 0.236630186 0.078736439
0.013501938 0.135225773 0.072544999
0.045610063 0.144099638 0.077872314
0.088849872 0.157479256 0.082485124
0.164548203 0.174412638 0.080250949
0.246927306 0.186851010 0.075825185
0.323223740 0.198434711 0.073423311
0.389270902 0.209462941 0.072810628
0.445438027 0.219314575 0.073142938
0.495316446 0.227910444 0.074110195
0.542262256 0.235698700 0.075526565
0.587649822 0.242954701 0.076951124
0.631497204 0.249506935 0.078126192
0.673679709 0.255370945 0.078945309
0.714265764 0.260587633 0.079462811
0.754078746 0.265197039 0.079644628
0.793703020 0.268998206 0.079883620
0.833430648 0.271669149 0.079710752
0.020813376 0.173706010 0.085889816
0.050948001 0.182465240 0.091430627
0.087485999 0.193686754 0.092290759
0.154795393 0.214552313 0.092793316
0.248153061 0.237528503 0.090345249
0.331149548 0.250018865 0.083476566
0.397957504 0.259204000 0.079250008
0.454478472 0.267069906 0.077742621
0.505074084 0.273927808 0.077533811
0.552581549 0.280161232 0.078096256
0.598188162 0.286042035 0.079047628
0.641969144 0.291523129 0.079922378
0.683956385 0.296573311 0.080506444
0.724436581 0.301236808 0.080809124
0.764292777 0.305484504 0.080883749
0.803996682 0.309112132 0.081026688
0.843861997 0.311782718 0.080813438
0.032350563 0.217012510 0.102477379
0.062661499 0.225625932 0.108244561
0.092790253 0.234312266 0.107795000
0.145382464 0.252347887 0.106712125
0.233043388 0.281090438 0.107568122
0.334353238 0.306197941 0.102040313
0.405640125 0.314487368 0.091707624
0.461924821 0.319609314 0.085859746
0.513044953 0.324332237 0.083483495
0.561671317 0.328872561 0.082480997
0.608032584 0.333274275 0.082255684
0.652125955 0.337570637 0.082312942
0.694211900 0.341760486 0.082341939
0.734786093 0.345816255 0.082404256
0.774823129 0.349689186 0.082394250
0.814726710 0.353148550 0.082456753
0.854740202 0.355823427 0.082030371
0.049879450 0.264987469 0.122213073
0.081527255 0.273435295 0.128096521
0.108233511 0.280387282 0.127350137
0.146863207 0.293216228 0.124104008
0.217520192 0.319770783 0.123570450
0.319611549 0.353774637 0.123485133
0.412706077 0.374500573 0.113635823
0.470335126 0.376315147 0.100444503
0.519606113 0.377369761 0.093018815
0.568131268 0.379796833 0.089724943
0.615401149 0.382765412 0.087847754
0.660315812 0.385885715 0.086470060
0.702976763 0.389166713 0.085367069
0.744019687 0.392599702 0.084790185
0.784464002 0.396146804 0.084453121
0.824755847 0.399538130 0.084367618
0.865129173 0.402288735 0.083831370
0.074284144 0.316907883 0.144798696
0.106896766 0.325085700 0.150712639
0.132133141 0.331039280 0.150001451
0.162527889 0.340024292 0.145535216
0.214264691 0.359826684 0.141275838
0.298395514 0.392949849 0.142079130
0.403039813 0.426020652 0.138845831
0.481879860 0.438227385 0.124971002
0.528999209 0.433874071 0.109076947
0.573871851 0.431937635 0.100116320
0.620380163 0.433000475 0.095826700
0.666004956 0.435125530 0.093009382
0.709593594 0.437647104 0.090595439
0.751510739 0.440467834 0.088890627
0.792660952 0.443632215 0.087791875
0.833589733 0.446936309 0.087159872
0.874572754 0.449835271 0.086273119
0.104957446 0.371991485 0.169763058
0.136976063 0.379555434 0.175569743
0.160895392 0.384834707 0.174914941
0.187336639 0.391637206 0.170379430
0.225054070 0.404983640 0.163321570
0.286073744 0.430507481 0.159730196
0.379662037 0.466166735 0.160816759
0.479446352 0.492984891 0.153655618
0.544881344 0.496490151 0.135715008
0.584343791 0.487661481 0.117351316
0.625669301 0.483885199 0.106894508
0.670081794 0.484267473 0.101779751
0.714219809 0.486126006 0.098411694
0.757148921 0.488547862 0.095645130
0.799298346 0.491421610 0.093480937
0.841107905 0.494612992 0.091800004
0.882781386 0.497569531 0.090044498
0.138407066 0.428983897 0.196495503
0.168401375 0.435524076 0.202022180
0.190793067 0.440149933 0.201336503
0.214941859 0.445664197 0.197170615
0.244695067 0.454737008 0.189371690
0.287641376 0.472025961 0.180900559
0.358637184 0.501285911 0.179123625
0.459228218 0.535296857 0.179102883
0.550481439 0.553855300 0.167797923
0.604053795 0.550513983 0.145712122
0.637385368 0.538851142 0.125306189
0.675462604 0.534019053 0.113715619
0.718043208 0.534140050 0.108189188
0.761385739 0.536074638 0.104584441
0.804565430 0.538880587 0.101525940
0.847396374 0.542087317 0.098809868
0.889684260 0.544999659 0.095797874
0.169975311 0.486167252 0.224197567
0.197411254 0.491584688 0.229320630
0.218293369 0.495545208 0.228541821
0.240767613 0.500162423 0.224670500
0.266337991 0.506787658 0.217320681
0.298735380 0.518148363 0.206615329
0.349708408 0.539000452 0.198912382
0.433808565 0.569887400 0.199095070
0.537103713 0.599088907 0.197010010
0.617063880 0.609969258 0.181325883
0.660135984 0.601660311 0.155368567
0.688436508 0.588386118 0.133515805
0.723971665 0.583014548 0.121216744
0.765449464 0.583116710 0.115240321
0.808965623 0.585587442 0.111289188
0.852726281 0.588914812 0.107788488
0.895525396 0.591831386 0.103593186
0.196520865 0.542521775 0.252209067
0.221863061 0.547069907 0.256890923
0.241458192 0.550442159 0.256029874
0.262564361 0.554339826 0.252316117
0.285648555 0.559507251 0.245616168
0.312646985 0.567326665 0.234985456
0.350865841 0.581375062 0.223093316
0.416315854 0.605336010 0.218037993
0.513167679 0.635078907 0.219301060
0.611478925 0.657517970 0.214387938
0.678537011 0.661978781 0.194382936
0.712901413 0.650415778 0.165284246
0.737856746 0.636731505 0.142470062
0.772059381 0.631305218 0.129377574
0.813567817 0.631960630 0.122855678
0.857573092 0.635093331 0.118296683
0.900739908 0.638085246 0.113101438
0.217327446 0.598156214 0.280203760
0.241581500 0.602106452 0.284466892
0.260057956 0.604938626 0.283521593
0.279867798 0.608140588 0.279979825
0.301396310 0.612317681 0.273789942
0.325937599 0.618173063 0.264120340
0.357659012 0.627769530 0.250911266
0.409025788 0.644856393 0.240161747
0.492395639 0.669807971 0.238181740
0.593000233 0.694919288 0.238870889
0.679384530 0.710038126 0.230547637
0.734128356 0.709522486 0.206730455
0.762299061 0.696750998 0.175447196
0.786367178 0.684114039 0.151800990
0.820868909 0.679632187 0.138023645
0.862875819 0.681204677 0.130713612
0.905863643 0.684173346 0.124154508
0.233390272 0.653071523 0.307866454
0.256717682 0.656424046 0.311725974
0.274263918 0.658684671 0.310669482
0.293049693 0.661198139 0.307303727
0.313812315 0.664609849 0.301548988
0.337664485 0.669318557 0.292876482
0.366747767 0.676227331 0.280208111
0.409206897 0.687906206 0.265944719
0.479260892 0.706669211 0.257989854
0.573896766 0.729084849 0.257984400
0.667145312 0.747489393 0.256733298
0.739725649 0.756480932 0.244809598
0.784251809 0.753175855 0.217836201
0.809322655 0.741255403 0.185245767
0.835124731 0.731270373 0.161347210
0.870384157 0.728190839 0.146459758
0.911389470 0.730145454 0.137202322
0.245356515 0.706575990 0.334920555
0.267378926 0.709124565 0.338340431
0.284506440 0.710926294 0.337167591
0.303375512 0.713071465 0.333992839
0.324203521 0.715838671 0.328656912
0.348220348 0.719746530 0.320755124
0.376878083 0.725100398 0.309222043
0.414667070 0.733089030 0.293803155
0.473860770 0.746179283 0.280419022
0.559368372 0.763945580 0.275778651
0.652637780 0.781164229 0.276227474
0.732528031 0.793152511 0.272304237
0.792183340 0.797940314 0.256949544
0.829219699 0.793853283 0.227688879
0.854405820 0.784312129 0.194539323
0.882497847 0.777457356 0.170094267
0.917791307 0.775720954 0.153711289
0.253203809 0.757616460 0.360871524
0.275583297 0.759838402 0.363945216
0.293280929 0.761460483 0.362754762
0.312602758 0.763479829 0.359786779
0.333994895 0.765790045 0.354718387
0.358742476 0.768967569 0.347366273
0.388085008 0.773239017 0.336866230
0.424266279 0.778975248 0.321990162
0.475611269 0.787621260 0.305273801
0.551139295 0.800264835 0.294784546
0.641033232 0.814574480 0.293354928
0.723157048 0.826469481 0.293395817
0.789694190 0.834058285 0.287246436
0.837529540 0.836190999 0.269804090
0.869964838 0.832461774 0.238988787
0.896018147 0.825443804 0.204289198
0.925003171 0.820549905 0.178669602
0.260881305 0.805944145 0.384799778
0.283686966 0.807825685 0.387474418
0.301972151 0.809240162 0.386219680
0.321989059 0.810833156 0.383302689
0.344188392 0.812902331 0.378545493
0.369951695 0.815790832 0.371758759
0.400401592 0.819543064 0.362195700
0.437038034 0.824187279 0.348600566
0.484329790 0.830242157 0.331189692
0.551561117 0.838982463 0.317213833
0.636244774 0.849931121 0.314018071
0.718997777 0.860107422 0.318184674
0.786319077 0.867440045 0.320977420
0.837683856 0.871657073 0.318424821
0.875068605 0.872347891 0.305493712
0.904182851 0.869106174 0.274234384
0.931009829 0.863366246 0.229138508
0.001255875 0.014637626 0.060218375
0.031587061 0.022576936 0.070589125
0.080777131 0.030332500 0.078669131
0.136114076 0.037539504 0.083164126
0.209030509 0.048039123 0.086969748
0.289945632 0.062478937 0.088815123
0.363049001 0.077778004 0.089231133
0.423737347 0.092274942 0.089169875
0.475674033 0.105605759 0.089092501
0.523132801 0.117745250 0.089139819
0.568172395 0.128749266 0.089448251
0.611171246 0.138552696 0.090172008
0.652208328 0.147153616 0.091467753
0.691672027 0.154572681 0.093122125
0.730427563 0.160651863 0.094797254
0.769028425 0.165378809 0.096285179
0.807935774 0.168654874 0.097630247
0.006251000 0.067359500 0.081513494
0.040962316 0.075411312 0.088142440
0.089907371 0.082746871 0.094636068
0.149738759 0.090285622 0.095444322
0.223771125 0.100906253 0.097218506
0.302131832 0.113981433 0.097938247
0.372481734 0.127657369 0.097915314
0.431571037 0.140464813 0.097916186
0.482895136 0.151963621 0.098073751
0.530353487 0.162356317 0.098478816
0.575632215 0.171684429 0.099076509
0.618963957 0.179797366 0.099813625
0.660393953 0.186782882 0.100783624
0.700057745 0.192716449 0.101786315
0.738954246 0.197598070 0.102714628
0.777733624 0.201413617 0.103611626
0.816784978 0.203862071 0.103894003
0.010754376 0.108178750 0.094116375
0.046578687 0.114809550 0.098665431
0.083440758 0.125028759 0.123761252
0.155299261 0.133803561 0.114992127
0.234489754 0.144160241 0.108592249
0.310877264 0.156341627 0.108129814
0.378681034 0.168881014 0.108396128
0.436447918 0.180437684 0.108873636
0.487430274 0.190804750 0.109630629
0.535060644 0.200158998 0.110404745
0.580840766 0.208591625 0.111137629
0.624895155 0.216074377 0.111835875
0.667054951 0.222575247 0.112422377
0.707398057 0.228158996 0.113024630
0.746929348 0.232903630 0.113412999
0.786239088 0.236574769 0.113577254
0.825602770 0.238747239 0.113049626
0.015290252 0.142236382 0.101256937
0.050043374 0.150887579 0.107327938
0.088936381 0.164152518 0.125957191
0.155598164 0.178165078 0.129804879
0.243969351 0.189041018 0.118114367
0.320375711 0.200111002 0.115864314
0.386419684 0.210935891 0.115336746
0.443133831 0.220864892 0.115353562
0.493800193 0.229750827 0.115705803
0.541539550 0.237864822 0.116196252
0.587608039 0.245296940 0.116683751
0.632005334 0.251955062 0.117094815
0.674552977 0.257855564 0.117228188
0.715351224 0.263004512 0.117258191
0.755308270 0.267468274 0.117139071
0.795006096 0.271018028 0.117033869
0.834724665 0.273159504 0.116001368
0.022262249 0.178714871 0.111305133
0.055947874 0.188443989 0.118164435
0.098556988 0.202522993 0.128667250
0.154100910 0.220105320 0.136223182
0.246492013 0.239363134 0.132032380
0.329555869 0.251304924 0.126406565
0.395627141 0.260345489 0.123761877
0.451992303 0.268316180 0.122554809
0.502934039 0.275494277 0.122035876
0.551039457 0.282061219 0.121860564
0.597333252 0.288174123 0.121783376
0.641774058 0.293765754 0.121582747
0.684283674 0.298802733 0.121170491
0.725182533 0.303357661 0.120675437
0.765361667 0.307452381 0.120049991
0.805284500 0.310845852 0.119601063
