hollywood-luts/It.cube
TITLE "17x17x17 Adobe/IRIDAS cube 3D LUT exported with GrossGrade v0.2.2 (beta) 64 bit"
DOMAIN_MIN 0 0 0
DOMAIN_MAX 1 1 1
LUT_3D_SIZE 5
0.000000000 0.001777000 0.030851001
0.242808998 0.034169249 0.055031501
0.580669045 0.071537502 0.090480506
0.836336493 0.108030997 0.123389252
0.885698974 0.112695001 0.127658993
0.024273500 0.189332500 0.060694247
0.194962502 0.207498997 0.100817755
0.510964990 0.227621734 0.089066744
0.832906246 0.182364255 0.129688248
0.894255459 0.181439504 0.135029495
0.037569501 0.407198519 0.076747499
0.108486757 0.450791538 0.092641994
0.486921042 0.483486533 0.202464014
0.773845792 0.535617769 0.174639255
0.937658489 0.592380524 0.189806998
0.072255269 0.674056530 0.115562253
0.175705254 0.726345778 0.136651754
0.375507295 0.737311959 0.198686272
0.785802543 0.763133049 0.375171244
0.951671720 0.791258514 0.321419030
0.248714998 0.881568015 0.198110998
0.316769749 0.908302724 0.224938750
0.381853998 0.914982498 0.251787007
0.778003752 0.917750955 0.428564250
0.971266985 0.933256984 0.555796981
0.012094250 0.009262000 0.091515496
0.172584504 0.033583000 0.114979506
0.527908802 0.065931752 0.144691259
0.838145256 0.108493499 0.135785758
0.885926008 0.112933248 0.137828499
0.031206999 0.184404507 0.110786006
0.213594005 0.223411500 0.191359520
0.556118727 0.237518251 0.194094747
0.845429718 0.180073768 0.187157750
0.900268734 0.184760496 0.205405250
0.038356002 0.405917764 0.150764987
0.123842500 0.469533741 0.235941753
0.515408516 0.509682775 0.361898512
0.815975308 0.550699472 0.271862507
0.938849032 0.572580278 0.242242262
0.083628260 0.681937575 0.183918491
0.189534009 0.741153717 0.251132250
0.395387292 0.761989355 0.383903265
0.804161251 0.786274552 0.557640314
0.969030023 0.814869225 0.514998794
0.249709487 0.887879014 0.253785998
0.320259243 0.921532512 0.292756498
0.386438012 0.932043254 0.428306013
0.796373487 0.934538960 0.590750277
0.982926488 0.947726965 0.699529469
0.031287000 0.024070501 0.178646505
0.150984004 0.041783497 0.232854262
0.321451008 0.066161506 0.228422508
0.759273291 0.091651499 0.294961512
0.876844525 0.109782502 0.300328523
0.027642999 0.168279767 0.213192016
0.110613488 0.205988765 0.315472245
0.414145768 0.258209765 0.360392243
0.778185725 0.234515011 0.412262499
0.899250984 0.230683744 0.400417507
0.041520499 0.399899542 0.208638012
0.166380003 0.459626526 0.341828763
0.535675049 0.526069522 0.464200556
0.845809937 0.563437045 0.411512256
0.949360490 0.581962585 0.425912023
0.083146766 0.682044029 0.177040011
0.196964011 0.737174034 0.353824764
0.403784782 0.773452759 0.507636011
0.818577051 0.799830556 0.675054789
0.983678520 0.840924740 0.689237475
0.250783503 0.891475499 0.307330012
0.321178257 0.920971274 0.469355255
0.404431015 0.939622462 0.603038013
0.804011226 0.953301311 0.733558536
0.991720498 0.964696527 0.819782972
0.038833249 0.031654000 0.253974497
0.135435015 0.052741252 0.432426006
0.305157274 0.095079005 0.346456766
0.524032533 0.113576002 0.369536251
0.867471933 0.138035506 0.456350267
0.039668001 0.167151242 0.328337729
0.095601507 0.201328248 0.486899257
0.341120481 0.239340767 0.550014019
0.608168244 0.310119748 0.539484739
0.879412770 0.321736753 0.610746562
0.051623002 0.372700036 0.366480261
0.121038258 0.400103003 0.537101567
0.348783016 0.494542301 0.667169511
0.749488473 0.583178043 0.701347172
0.952604473 0.619483531 0.741202533
0.106147259 0.669894278 0.360930502
0.214814767 0.718793213 0.545025229
0.539857745 0.773924232 0.679336786
0.832705796 0.812413275 0.768770576
0.990753233 0.851544023 0.807409763
0.250033498 0.890669227 0.286676258
0.321241766 0.921112537 0.466881275
0.410104811 0.940096796 0.633478999
0.822382212 0.965391219 0.839887738
0.997330785 0.971964240 0.905096233
0.040658001 0.039381001 0.356063008
0.128473252 0.072255999 0.595628262
0.349534988 0.110759504 0.556336999
0.477136761 0.156822756 0.489172757
0.755765975 0.178738996 0.531957984
0.055521503 0.171557248 0.481440008
0.118919507 0.201855242 0.636053979
0.297984779 0.220117003 0.730456769
0.615548253 0.313110501 0.686905742
0.803166747 0.362776250 0.712724268
0.066690996 0.344790012 0.510280490
0.146833256 0.384485483 0.704657018
0.259737015 0.481266499 0.806235433
0.721150994 0.566982269 0.835290551
0.894926012 0.632816076 0.846781015
0.124629512 0.644753039 0.577264786
0.259598494 0.688431263 0.746141970
0.465418309 0.737452269 0.849259257
0.782017231 0.812822044 0.909402728
0.960886002 0.848371744 0.936948001
0.269504994 0.885218978 0.557573020
0.330901504 0.905269265 0.725949764
0.615790546 0.935884953 0.841104984
0.918215275 0.971015990 0.968100965
1.004271984 0.982654989 1.002794027
