hollywood-luts/It.cube
TITLE "17x17x17 Adobe/IRIDAS cube 3D LUT exported with GrossGrade v0.2.2 (beta) 64 bit"
DOMAIN_MIN 0 0 0
DOMAIN_MAX 1 1 1
LUT_3D_SIZE 17
0.000000000 0.001777000 0.030851001
0.064221561 0.014560751 0.037077878
0.116330504 0.026927125 0.042867251
0.179827571 0.031850439 0.049259122
0.242808998 0.034169249 0.055031501
0.315697998 0.039589126 0.062113747
0.398839891 0.048141629 0.070420630
0.487375170 0.059002571 0.079702444
0.580669045 0.071537502 0.090480506
0.671275735 0.084141999 0.101742439
0.749480903 0.095325254 0.111846998
0.807269275 0.103757754 0.119506687
0.836336493 0.108030997 0.123389252
0.848264515 0.109775878 0.124987684
0.857012331 0.111093625 0.126188129
0.865494967 0.112195313 0.127199620
0.885698974 0.112695001 0.127658993
0.014529375 0.067141376 0.041029438
0.054747187 0.069660433 0.047990374
0.102362119 0.071247682 0.046942499
0.166321456 0.070971310 0.050907373
0.229729369 0.069390379 0.056369498
0.305007637 0.062061064 0.062990189
0.386684924 0.058413815 0.070351563
0.474177629 0.065065384 0.079066820
0.567604482 0.075407818 0.089481249
0.659981310 0.086479753 0.100723058
0.741280556 0.097981378 0.111171998
0.803102434 0.106834315 0.119325750
0.836936653 0.111776315 0.123853311
0.849123061 0.113580249 0.125511378
0.857829034 0.114882253 0.126698181
0.865887940 0.115952313 0.127677113
0.885950267 0.116418749 0.128101498
0.021029750 0.105360627 0.048840124
0.057170063 0.109696187 0.057717308
0.095084876 0.112787500 0.064516380
0.144628763 0.115266621 0.058879063
0.213522017 0.115555629 0.056065999
0.288859427 0.111926496 0.062540621
0.371889025 0.101563111 0.072802633
0.458873302 0.093192369 0.082134373
0.549605072 0.088850379 0.089916259
0.641875863 0.093229249 0.099418439
0.725991726 0.103904247 0.110028997
0.792935133 0.111940309 0.118668742
0.835036099 0.116950251 0.124179244
0.850557625 0.118932627 0.126242936
0.859083772 0.119846001 0.127369881
0.866783559 0.120625123 0.128278241
0.886618018 0.121031500 0.128670871
0.021813499 0.144639075 0.054056376
0.048497565 0.150221571 0.061949186
0.092222996 0.154084504 0.071927935
0.140990824 0.157629460 0.082120627
0.193652436 0.161346078 0.075416192
0.268108070 0.164046019 0.065594502
0.352553904 0.168467388 0.072899878
0.441002548 0.170027182 0.087810814
0.533039808 0.145503581 0.094478689
0.628176093 0.126810268 0.101034313
0.715924978 0.126257896 0.111158006
0.786556184 0.129213139 0.119757876
0.835384071 0.134369940 0.126087248
0.854850471 0.135114133 0.128486499
0.862069130 0.131819129 0.129022688
0.868665099 0.131187454 0.129633620
0.888554513 0.131657705 0.130057752
0.024273500 0.189332500 0.060694247
0.038272813 0.194808632 0.064893313
0.072651625 0.199656636 0.071676373
0.132566452 0.203661799 0.084878191
0.194962502 0.207498997 0.100817755
0.251688957 0.213548571 0.096488371
0.328797191 0.218786269 0.080729254
0.416766495 0.226306260 0.082996383
0.510964990 0.227621734 0.089066744
0.605802894 0.213153124 0.097520374
0.696897626 0.205069005 0.111201875
0.774762094 0.191729367 0.121913373
0.832906246 0.182364255 0.129688248
0.860208869 0.181318820 0.133066937
0.867745042 0.179629505 0.133822009
0.874051750 0.180020183 0.134473324
0.894255459 0.181439504 0.135029495
0.028036499 0.237559244 0.063127123
0.039813187 0.243720680 0.066062249
0.058244497 0.249561608 0.072585188
0.098519273 0.255686253 0.082877129
0.175649881 0.259869576 0.102617189
0.255367070 0.265160918 0.123551629
0.320359886 0.273827493 0.118922241
0.398317933 0.282842129 0.101166561
0.489008725 0.293938488 0.100712813
0.585184753 0.297493398 0.099292435
0.676985800 0.300294995 0.105277814
0.758020163 0.299597174 0.114718750
0.822152436 0.295026422 0.124739885
0.860650897 0.297134697 0.130735561
0.875104547 0.299536109 0.132900625
0.883339286 0.301976442 0.133950755
0.904789269 0.304090500 0.134586066
0.029553376 0.289945513 0.067757122
0.040558688 0.298788339 0.070859000
0.052694004 0.306355774 0.076741874
0.074242249 0.313752890 0.082883067
0.125794262 0.320365012 0.093444005
0.229123294 0.325370014 0.121310681
0.327664882 0.332480013 0.149056017
0.394622087 0.342959017 0.143266201
0.474667877 0.355503768 0.128757030
0.566082120 0.366967708 0.121965647
0.657618165 0.374811769 0.117161512
0.739387035 0.384386897 0.119032510
0.805185616 0.392968655 0.125686511
0.853359282 0.402127832 0.132320449
0.880640030 0.409266919 0.135802880
0.895176470 0.412652582 0.137269005
0.917677999 0.414381146 0.138113886
0.032307003 0.347419918 0.072225250
0.042739503 0.358075351 0.075385749
0.054920249 0.367917657 0.078967750
0.071587443 0.376180291 0.083191499
0.108258881 0.384245038 0.091632560
0.195469931 0.390982211 0.114843488
0.307675540 0.396752775 0.148479819
0.404943228 0.405729145 0.174506515
0.474155754 0.418711782 0.173407823
0.556556702 0.432964057 0.156037226
0.642738104 0.443456829 0.144591451
0.721364915 0.454404652 0.143239021
0.786780953 0.466737777 0.144838274
0.840932906 0.481871814 0.149808958
0.881031871 0.495686740 0.154623643
0.904242277 0.503518343 0.158209383
0.929054737 0.506875098 0.160522014
0.037569501 0.407198519 0.076747499
0.046095002 0.420069575 0.079776496
0.059457250 0.432185233 0.082669005
0.076022446 0.441835523 0.085633747
0.108486757 0.450791538 0.092641994
0.183780938 0.458931684 0.109424934
0.290412426 0.464814365 0.140008748
0.396430492 0.472497284 0.176920712
0.486921042 0.483486533 0.202464014
0.558245778 0.497813582 0.202510685
0.636258841 0.511624515 0.184145644
0.710286677 0.522831738 0.176326573
0.773845792 0.535617769 0.174639255
0.830871105 0.553005099 0.177414447
0.878728509 0.571143270 0.182237267
0.909606814 0.585118651 0.186923876
0.937658489 0.592380524 0.189806998
0.042268500 0.468728870 0.083700940
0.052014627 0.483791351 0.087177061
0.066823065 0.498563796 0.090573564
0.082733564 0.510398030 0.093495436
0.107682131 0.520362616 0.098131433
0.161293566 0.529961586 0.107082188
0.265624583 0.536694765 0.133502826
0.383369058 0.542254388 0.171266943
0.484693855 0.550369203 0.208133191
0.570596337 0.560990989 0.237138435
0.638678491 0.573735952 0.234026507
0.705933630 0.586499512 0.220912695
0.767822206 0.598949313 0.209197000
0.826250434 0.615694225 0.206984505
0.876207769 0.633592546 0.210011065
0.912455082 0.650437355 0.213432804
0.943872213 0.660574496 0.215818182
0.047477249 0.534299850 0.092247374
0.060682125 0.551004648 0.096316501
0.076780125 0.567725658 0.099952623
0.095746256 0.581234932 0.103573002
0.117724992 0.591879368 0.107529253
0.148168311 0.601307392 0.112421378
0.214892551 0.608917832 0.127404749
0.344250888 0.611884117 0.164871395
0.472327143 0.616234839 0.207644507
0.569043279 0.623916030 0.247607127
0.649491251 0.633778512 0.277253509
0.711030006 0.644663215 0.276580691
0.767863631 0.656935215 0.261814117
0.824433327 0.670660257 0.247860238
0.874404192 0.684647620 0.241249233
0.912988901 0.700448275 0.238577008
0.947125137 0.710308909 0.240224496
0.056002565 0.603902996 0.102218941
0.071175687 0.620846748 0.106654257
0.091134317 0.638565004 0.110988744
0.116676323 0.652795970 0.115568250
0.141585425 0.662413239 0.119844496
0.164842054 0.669781089 0.124844812
0.196557105 0.675550520 0.132581696
0.279320806 0.678016961 0.155517712
0.428912044 0.677963197 0.200354934
0.558667064 0.682885289 0.247107118
0.648253441 0.691601276 0.293430686
0.722277820 0.702080429 0.323028177
0.775768638 0.712376475 0.325415969
0.826102257 0.723389387 0.313721597
0.874031186 0.733289361 0.291123241
0.913259506 0.743939400 0.272014081
0.948546052 0.751167953 0.268947303
0.072255269 0.674056530 0.115562253
0.093944885 0.688385844 0.120824441
0.121854886 0.705382764 0.126607746
0.151107371 0.718507707 0.131939501
0.175705254 0.726345778 0.136651754
0.196854889 0.731148899 0.142066568
0.216774389 0.734868467 0.148757011
0.264509141 0.736975729 0.164037898
0.375507295 0.737311959 0.198686272
0.525675774 0.739488840 0.250843436
0.643284380 0.745965779 0.299460351
0.723176837 0.754376769 0.344052613
0.785802543 0.763133049 0.375171244
0.832477331 0.771659613 0.378156066
0.875604331 0.779380143 0.361438125
0.914345264 0.786688387 0.332914650
0.951671720 0.791258514 0.321419030
0.110937491 0.738344669 0.132592514
0.139461845 0.750641525 0.138179258
0.166687414 0.764752805 0.144409776
0.189956099 0.774039626 0.150129274
0.210491091 0.779453278 0.156153083
0.230166987 0.783165693 0.162599593
0.248826608 0.786552548 0.169241399
0.288845867 0.789333224 0.181637600
0.380369842 0.790532172 0.209495977
0.510119319 0.791525722 0.254188448
0.630708814 0.795008957 0.306329578
0.721841991 0.800253868 0.352312565
0.787759781 0.808068216 0.393291265
0.839947820 0.815583527 0.422122806
0.881164014 0.822156072 0.428152144
0.917801142 0.828568816 0.417643368
0.956043303 0.831603527 0.403608769
0.160268545 0.792642534 0.150213897
0.180704921 0.799571395 0.155889168
0.203838795 0.810678303 0.162978411
0.226604983 0.820987344 0.171104148
0.247113049 0.827498913 0.179170534
0.266422540 0.831852317 0.186945036
0.283757538 0.835138679 0.194175392
0.312226653 0.837330937 0.204370961
0.383040518 0.838422418 0.227628142
0.502633631 0.838759959 0.268585026
0.623393953 0.839936197 0.315586507
0.715552688 0.843044281 0.361086130
0.786231518 0.848439097 0.405213267
0.840837777 0.855606794 0.448241055
0.887103915 0.861828148 0.476135552
0.922597647 0.867117107 0.483879864
0.961781144 0.869872928 0.481926531
0.204262540 0.838713944 0.171975404
0.223664969 0.845810056 0.179476276
0.245259106 0.856339991 0.188265204
0.265879273 0.865275323 0.196841329
0.285061270 0.871744752 0.204795584
0.301309347 0.874986053 0.211154327
0.315469474 0.876645863 0.216653332
0.330295384 0.878081441 0.222544655
0.370630473 0.879040599 0.235800818
0.471123576 0.878855646 0.269317150
0.604710460 0.878863752 0.320995629
0.708663166 0.881479144 0.375111073
0.782775044 0.885688722 0.427007049
0.840676427 0.890597403 0.469975412
0.888062894 0.895972788 0.502320647
0.927466154 0.900398612 0.521260500
0.966122031 0.902413309 0.523303330
0.248714998 0.881568015 0.198110998
0.266541570 0.890687108 0.206122875
0.285249263 0.898819149 0.213444382
0.301514924 0.903863847 0.219176874
0.316769749 0.908302724 0.224938750
0.330354333 0.911476254 0.230381504
0.342276514 0.912421882 0.235220879
0.354655266 0.913378894 0.240544200
0.381853998 0.914982498 0.251787007
0.459885001 0.915743053 0.281574547
0.583913267 0.915286124 0.330695629
0.697712600 0.915426433 0.382684678
0.778003752 0.917750955 0.428564250
0.837140024 0.921258211 0.470491707
0.886349678 0.925567389 0.507740319
0.927492380 0.930263579 0.537848592
0.971266985 0.933256984 0.555796981
0.001730625 0.003550750 0.041765377
0.054551248 0.013394499 0.055064749
0.105203316 0.026490625 0.067058749
0.168456569 0.033007372 0.070951752
0.234301001 0.034003314 0.072607003
0.307415426 0.038901187 0.077573434
0.386863351 0.047597565 0.085561559
0.474771798 0.058076881 0.090903878
0.569598556 0.070247442 0.096758939
0.663281262 0.083119683 0.105833374
0.745740771 0.094867937 0.115586691
0.806408703 0.103703059 0.123057619
0.836591840 0.108138561 0.126819432
0.848285496 0.109867185 0.128191307
0.857071757 0.111161940 0.129230380
0.865625322 0.112250067 0.130116507
0.885857463 0.112741880 0.130606502
0.015930938 0.064873569 0.067556940
0.063522190 0.077921689 0.085121006
0.106910869 0.076977558 0.084921002
0.170451328 0.074340433 0.080876693
0.236752748 0.068854123 0.076153561
0.310008168 0.063193932 0.078131378
0.390448958 0.060678191 0.082543746
0.477957994 0.066980876 0.087619439
0.570049405 0.076627575 0.095079258
0.661451101 0.087312751 0.105226003
0.743356824 0.098750882 0.115517691
0.805020571 0.107486814 0.123363249
0.837601960 0.112252563 0.127652943
0.849623501 0.114066251 0.129316315
0.858222067 0.115361243 0.130491242
0.866360009 0.116403066 0.131465301
0.886311233 0.116906255 0.132083058
0.022937939 0.102654435 0.079673499
0.062005810 0.115080431 0.089295186
0.102151871 0.119058996 0.097116247
0.156680822 0.119484507 0.088591754
0.227525756 0.117066249 0.078770682
0.301151067 0.112315498 0.079526313
0.381793082 0.101503499 0.085932434
0.466104537 0.093188062 0.090322316
0.553948283 0.089049004 0.094813749
0.644758821 0.093541622 0.103390254
0.729145586 0.104117751 0.113901943
0.795482755 0.111944124 0.122375622
0.835716605 0.116989873 0.127659619
0.850908995 0.118971311 0.129712239
0.859383523 0.119850621 0.130839556
0.867098570 0.120684318 0.131740510
0.887055039 0.121258251 0.132195696
0.025520999 0.142913952 0.079778746
0.054337308 0.154407457 0.089434370
0.095633507 0.159512699 0.100222252
0.147948816 0.162952021 0.111136317
0.205902055 0.166632503 0.100999378
0.285356194 0.166162252 0.086335942
0.372297168 0.169636890 0.090623319
0.460324317 0.165774137 0.098735064
0.549620152 0.140094146 0.100636438
0.640046299 0.123901404 0.105792746
0.723446965 0.125578761 0.115433812
0.790788889 0.129122391 0.123629436
0.836692631 0.134137839 0.129611179
0.855018795 0.134920821 0.131895259
0.862168252 0.131209940 0.132363677
0.868703365 0.130523771 0.132980704
0.888652563 0.130953386 0.133389056
0.028068500 0.187891379 0.082293503
0.042924315 0.198660254 0.089028135
0.078971118 0.203461632 0.097296178
0.138063937 0.208227009 0.112445757
0.202297509 0.212102696 0.128302813
0.261720628 0.218442112 0.119660564
0.345964909 0.222795248 0.101214938
0.438147306 0.228745818 0.096737690
0.532793880 0.225471810 0.098969243
0.626188457 0.208340570 0.105651066
0.713038027 0.197782755 0.117469057
0.785311997 0.185453951 0.126781255
0.837804735 0.178847253 0.133499309
0.861076951 0.175665677 0.136249751
0.867866874 0.171675071 0.136741251
0.873709142 0.171409324 0.137308434
0.893894017 0.173274815 0.137839571
0.028624438 0.236258820 0.083705321
0.040930938 0.247185245 0.088570744
0.060162749 0.253066838 0.095633253
0.103342384 0.259385198 0.108370379
0.180813566 0.264861882 0.128485322
0.261277825 0.269634485 0.150659814
0.328111649 0.278974205 0.142686054
0.412832141 0.288502842 0.121694371
0.507932067 0.298474044 0.114711255
0.606752098 0.296554178 0.109026253
0.696878076 0.295944065 0.113053240
0.772565603 0.294163138 0.121863559
0.830787838 0.291253358 0.130680323
0.862964988 0.291156113 0.136021495
0.874218822 0.291735470 0.137762308
0.881943464 0.294156522 0.138688698
0.903534770 0.296734452 0.139251992
0.029777437 0.289463967 0.084206186
0.040549316 0.302516788 0.089182124
0.052416001 0.310495317 0.097358994
0.074318640 0.317927718 0.108557567
0.125441134 0.325250089 0.122319125
0.232337534 0.331214815 0.149059743
0.332306176 0.337729096 0.178736329
0.402234852 0.348982096 0.171003953
0.486930102 0.361528188 0.149319842
0.581754625 0.371919394 0.135778084
0.674671888 0.376170605 0.126429573
0.753472030 0.384493142 0.127568454
0.816424727 0.391332954 0.132642314
0.860262752 0.397848487 0.137952387
0.882443905 0.403572977 0.140424818
0.894524872 0.407516122 0.141937762
0.916828930 0.409547716 0.142944202
0.032814752 0.347833186 0.088394687
0.042787690 0.362225115 0.093226001
0.053686753 0.372913361 0.099198937
0.070645317 0.381332546 0.107098751
0.107581444 0.389439523 0.117962062
0.196151614 0.396913022 0.143224820
0.312681228 0.402756721 0.178248942
0.410750091 0.411719799 0.208606392
0.482138127 0.425066561 0.202770457
0.566706538 0.439299941 0.178026840
0.654363096 0.448322296 0.159709588
0.732382119 0.458275259 0.154495463
0.797287345 0.468876541 0.154107079
0.850429058 0.481182933 0.157509401
0.885678053 0.492410719 0.160647452
0.904595256 0.498911679 0.163194075
0.928478539 0.501655519 0.165147081
0.037852000 0.409128517 0.090843812
0.047114935 0.424700320 0.095082119
0.059740689 0.437265277 0.099527754
0.075937197 0.447044432 0.105834253
0.110271126 0.455977380 0.116716124
0.186803997 0.464569509 0.138395116
0.293433219 0.471324474 0.170077562
0.402546495 0.478626639 0.210453838
0.493675143 0.490320742 0.241850376
0.566591978 0.505533814 0.239622951
0.645300210 0.518937171 0.212935150
0.719008863 0.528022230 0.194073826
0.782075167 0.540097296 0.186588705
0.839512467 0.555976987 0.187473759
0.884499371 0.571802974 0.191020936
0.911315739 0.583702981 0.194315314
0.938074648 0.589900911 0.196498439
0.042596061 0.472701579 0.095039696
0.052514374 0.489324689 0.099310376
0.066855557 0.504020154 0.103701316
0.082578391 0.515730560 0.109587312
0.108959503 0.524980485 0.117416382
0.166273266 0.534420669 0.132005632
0.269892037 0.542348027 0.163004816
0.386975110 0.548993826 0.205085397
0.490520895 0.556818962 0.248286515
0.576604009 0.568586051 0.280643463
0.646993101 0.582681715 0.278609276
0.714895248 0.594089746 0.254548430
0.775668740 0.604551792 0.231365994
0.833170414 0.620179892 0.223525554
0.882034719 0.636836469 0.222124249
0.915666163 0.652745903 0.222637177
0.945501506 0.662320256 0.224512056
0.048048936 0.539245546 0.103666879
0.060551252 0.557134151 0.108239070
0.075864002 0.573838472 0.112508565
0.095157318 0.586961389 0.117475748
0.118234813 0.596813202 0.123430371
0.151310265 0.605350971 0.132416695
0.220237747 0.613046587 0.153529584
0.348631442 0.617890298 0.196899980
0.476968974 0.622728527 0.245958954
0.574897408 0.630251110 0.290416360
0.655309319 0.640939713 0.322961539
0.718830287 0.653068602 0.322288334
0.776603520 0.664517641 0.301102102
0.831186891 0.676103592 0.279533863
0.879846692 0.689037919 0.262576431
0.917019069 0.703807771 0.252003610
0.949610651 0.713163435 0.251408130
0.056490690 0.607455492 0.113635503
0.071744755 0.627504945 0.118688628
0.091478437 0.645353615 0.123314373
0.117311001 0.658816874 0.128091872
0.143847808 0.667644739 0.133892372
0.167634189 0.674056709 0.141491935
0.200571164 0.679451108 0.156014830
0.284419179 0.682788908 0.186458096
0.435007513 0.684277177 0.236438200
0.565097392 0.688654244 0.288921952
0.654753387 0.697386622 0.337255746
0.728542149 0.708192587 0.370232880
0.782728016 0.720118642 0.374166191
0.832917511 0.730651855 0.359812766
0.879506826 0.738977015 0.329243183
0.917639315 0.748302102 0.301706791
0.952261925 0.754431427 0.292309821
0.073271386 0.675203621 0.126894444
0.094366200 0.695898473 0.133256435
0.122979574 0.713121116 0.139184371
0.152314201 0.725067914 0.144436002
0.177855194 0.731430709 0.149161384
0.199135378 0.735140741 0.154456943
0.218822539 0.738416791 0.166383147
0.268453270 0.741099834 0.189961284
0.382255763 0.742858529 0.231822386
0.534421563 0.745569944 0.290672123
0.651041448 0.751452565 0.346994549
0.730116963 0.759814382 0.394197673
0.791004062 0.769056618 0.423472315
0.837800443 0.778552651 0.427312165
0.881120324 0.786302149 0.412301421
0.919373989 0.792544365 0.384051204
0.956274390 0.796249568 0.365908533
0.114639491 0.739705920 0.143832579
0.143577293 0.756709754 0.150454700
0.171984360 0.771490216 0.157248318
0.194829851 0.779652297 0.162692904
0.213112921 0.783447504 0.167820647
0.231126666 0.786599219 0.173880965
0.248622790 0.789897442 0.185129344
0.290411890 0.793252885 0.206231028
0.385788649 0.795802653 0.242859006
0.518929720 0.797819197 0.296597064
0.639613032 0.801158011 0.356244653
0.728800476 0.806261480 0.405962050
0.793856025 0.812941253 0.445553690
0.844365180 0.820881546 0.470452428
0.885758817 0.828201950 0.477505267
0.922572374 0.834743857 0.469534099
0.960505247 0.837490261 0.455977529
0.165459543 0.796520174 0.161985457
0.186554477 0.805373728 0.168166861
0.210278988 0.816936135 0.175881088
0.232055604 0.826476097 0.183537036
0.249985799 0.831314266 0.190312654
0.267534971 0.834857464 0.197450653
0.284188718 0.837954879 0.206718147
0.313470781 0.840770185 0.223016024
0.386488229 0.842973709 0.255268812
0.508586168 0.844129682 0.306903988
0.631873071 0.845197082 0.365035743
0.723515570 0.848038256 0.416426271
0.793304026 0.853581429 0.460441172
0.846315026 0.859907568 0.497784555
0.890177011 0.866545677 0.521110415
0.926814079 0.872293830 0.527799845
0.965917468 0.875677824 0.527130067
0.207354367 0.841614008 0.182417721
0.228596553 0.850202024 0.190937027
0.250645965 0.861403942 0.200099334
0.270259172 0.870084226 0.208177269
0.286989629 0.875198126 0.214843407
0.302028954 0.878072321 0.220735893
0.315715849 0.879834712 0.228335142
0.329931974 0.881744146 0.240222409
0.371570736 0.883578539 0.264439702
0.474076092 0.884441435 0.310433686
0.609196305 0.884823978 0.370360374
0.715461850 0.886628449 0.425961077
0.789004564 0.889929771 0.473012298
0.845811307 0.894333005 0.511727750
0.891649127 0.899484694 0.542506754
0.929794908 0.904403090 0.559650362
0.968784213 0.906157851 0.561826229
0.248262197 0.883396089 0.206892565
0.268301249 0.893999279 0.215769753
0.287820935 0.903464794 0.223518252
0.304306328 0.909225523 0.229579434
0.318288505 0.912154913 0.234769195
0.331412554 0.914401889 0.240269199
0.343177736 0.915379643 0.247097448
0.354965001 0.916550636 0.259297550
0.382899284 0.918747008 0.280826628
0.463319421 0.920478404 0.320390135
0.588193297 0.920577168 0.375229329
0.701817334 0.920424521 0.428932786
0.783858597 0.922054291 0.474818885
0.841939032 0.924938798 0.513792038
0.889820099 0.928947866 0.547459483
0.930236816 0.933815598 0.575911283
0.972481072 0.936833560 0.590449810
0.004110500 0.005669250 0.056540251
0.049588125 0.015435999 0.065878496
0.094202124 0.024584124 0.077275619
0.156196758 0.032059748 0.083539873
0.223668128 0.033832747 0.086566880
0.298473269 0.038132250 0.089833312
0.379681289 0.047013380 0.094868623
0.468316793 0.057575878 0.098070070
0.564162552 0.069676876 0.101711251
0.659430921 0.082663499 0.109130688
0.743753850 0.094616748 0.118068494
0.805990517 0.103655063 0.125232995
0.837284625 0.108242124 0.129014879
0.848497868 0.109917000 0.130251318
0.857163727 0.111217871 0.131159633
0.865577996 0.112301752 0.131858498
0.885880291 0.112779997 0.132189006
0.014452063 0.064810693 0.078970939
0.060520809 0.077385433 0.093964249
0.101889439 0.078178182 0.100578628
0.160552382 0.076950863 0.104564622
0.229963377 0.071140066 0.101989821
0.301077962 0.063866436 0.102527305
0.378227651 0.061145879 0.105969690
0.464862287 0.067670189 0.110434324
0.558606505 0.076423742 0.113155812
0.652941823 0.086482063 0.117758937
0.737808287 0.098139189 0.125083879
0.802769840 0.107368626 0.132612243
0.839010715 0.112677000 0.138314754
0.850506723 0.114404254 0.140563995
0.858734906 0.115633689 0.141674995
0.866623223 0.116658255 0.142377436
0.886656046 0.117154375 0.143337816
0.022880001 0.102328256 0.086394496
0.062452745 0.114102364 0.102568179
0.105638377 0.121187381 0.114849873
0.158434644 0.121762738 0.114527188
0.228989497 0.119881004 0.112483874
0.303565264 0.117931001 0.112782374
0.382578641 0.111430369 0.117571875
0.464474678 0.099507563 0.117678687
0.552267075 0.092292503 0.114418253
0.643249631 0.096190691 0.116008379
0.728015780 0.106322378 0.122887626
0.795982361 0.113652065 0.130052060
0.837121904 0.117995627 0.135028362
0.851772785 0.119824246 0.136792243
0.860104799 0.120689750 0.137601122
0.867665708 0.121925496 0.138811380
0.888030291 0.123996243 0.140911877
0.025869751 0.141697630 0.091904938
0.056132622 0.152704194 0.110422499
0.098892249 0.162603945 0.124555692
0.154181436 0.166845217 0.137159646
0.216017067 0.169212326 0.128026709
0.298562378 0.168496013 0.117682576
0.381843895 0.171912134 0.120276943
0.466958374 0.167066008 0.124713548
0.553149700 0.137255698 0.116668493
0.641645253 0.120502330 0.114141807
0.725290239 0.123497635 0.121247187
0.792964816 0.126320019 0.128531247
0.837231457 0.130002081 0.134043932
0.854486048 0.131401941 0.136095062
0.862146199 0.129022196 0.136584312
0.868775666 0.128619760 0.137252629
0.889036775 0.130812764 0.138700753
0.029771626 0.186172366 0.097818002
0.047647942 0.197281495 0.113392740
0.082434878 0.207450628 0.125494748
0.143299326 0.212670267 0.140949056
0.208306268 0.217290998 0.157298386
0.273850203 0.223408312 0.144814014
0.363783896 0.226837367 0.127877504
0.456340224 0.229300261 0.121910304
0.546988606 0.220744520 0.116382375
0.637181818 0.197497129 0.114635818
0.721899629 0.182168126 0.122969493
0.791453004 0.169705942 0.131151751
0.840188384 0.165758878 0.137061357
0.860991120 0.161252677 0.139229313
0.867615521 0.155101523 0.139374495
0.873132110 0.153688878 0.139831752
