hollywood-luts/Jack Reacher.cube
TITLE "17x17x17 Adobe/IRIDAS cube 3D LUT exported with GrossGrade v0.2.2 (beta) 64 bit"
DOMAIN_MIN 0 0 0
DOMAIN_MAX 1 1 1
LUT_3D_SIZE 5
0.000153000 0.000885000 0.000000000
0.122972503 0.028271999 0.000000000
0.335510015 0.070005998 0.000000000
0.594032764 0.084785253 0.000000000
0.885703981 0.070428997 0.000000000
0.051146001 0.142322749 0.000000000
0.213928252 0.180237755 0.000000000
0.450237274 0.248189509 0.000000000
0.696810305 0.270379245 0.000000000
0.963531733 0.275030017 0.000000000
0.132948518 0.377185017 0.101740509
0.332758248 0.391506791 0.022514258
0.523351073 0.446525037 0.000000000
0.744976997 0.508300006 0.000000000
0.999027967 0.513355017 0.000000000
0.313900769 0.620691061 0.270281732
0.470526755 0.625206232 0.216108263
0.610136271 0.615728796 0.088842995
0.759556532 0.701544762 0.000009250
0.999786019 0.765873253 0.000000000
0.271016985 0.866310000 0.247731999
0.426983505 0.886279225 0.228818253
0.599296451 0.904737949 0.164509490
0.779078722 0.936580241 0.087575994
0.999737024 0.999643981 0.015807999
0.000000000 0.022498000 0.065093756
0.100807495 0.022816500 0.090449005
0.338038504 0.015001250 0.074248001
0.607740760 0.032060001 0.117048763
0.902740777 0.036592498 0.163541749
0.000000000 0.161634251 0.152459756
0.161825016 0.194484264 0.156764761
0.453521788 0.234805256 0.166522756
0.706835032 0.254531026 0.186579734
0.970089495 0.263482511 0.211197004
0.000745502 0.377864033 0.214252755
0.239161506 0.428258240 0.225066766
0.513371050 0.458732307 0.161783248
0.750446200 0.509239018 0.231653005
0.999736249 0.512546062 0.244747505
0.195683241 0.612674952 0.343541503
0.370633483 0.646020055 0.350259781
0.589650273 0.640086770 0.255920738
0.756929517 0.706966281 0.203904003
0.999812245 0.766486764 0.254146755
0.219727993 0.865485489 0.380751759
0.381493509 0.893587470 0.387254000
0.586367965 0.915826738 0.345073998
0.776522756 0.947537065 0.290115744
0.999729276 0.999679983 0.273374736
0.004227001 0.057489004 0.153446004
0.049713999 0.071401753 0.197977498
0.238465011 0.044595003 0.183616012
0.526399255 0.023677001 0.238759011
0.845248997 0.035190001 0.367518485
0.000000000 0.193482518 0.257914513
0.026062995 0.235083997 0.310141981
0.334791988 0.233006269 0.301520526
0.644080222 0.236970007 0.356580496
0.930384457 0.261275530 0.445840508
0.000000000 0.402815044 0.381568015
0.119434752 0.460386753 0.430673003
0.449055523 0.487560540 0.422421008
0.731250763 0.507423997 0.469099522
0.998317480 0.513385534 0.502833486
0.148655504 0.621249259 0.486131519
0.277405530 0.663991570 0.517109990
0.529703021 0.680574059 0.493062794
0.739505529 0.704828799 0.457831025
0.999823272 0.766455770 0.517010748
0.170197994 0.866690040 0.541657984
0.330411017 0.901715219 0.559750736
0.555088520 0.926735461 0.548998952
0.772770524 0.958505452 0.523191273
0.999716997 0.999614000 0.530251503
0.020281501 0.103845000 0.244595498
0.042352751 0.128728509 0.285232514
0.141468257 0.131398261 0.338869512
0.414915532 0.082769759 0.278012484
0.708471179 0.068616010 0.406686008
0.000000000 0.239868253 0.353542030
0.000000000 0.282332510 0.402747750
0.184730753 0.326635480 0.469937027
0.539718747 0.283758283 0.412554026
0.819726765 0.283113033 0.522462249
0.017078757 0.437190264 0.483610511
0.113935016 0.487866759 0.529452503
0.342126280 0.544859231 0.577326536
0.621140778 0.533524513 0.559320271
0.922719777 0.522469521 0.655745506
0.130416244 0.643391788 0.598673463
0.223389506 0.683028758 0.635331750
0.453287512 0.706971765 0.661884546
0.702358246 0.713519335 0.651451766
0.990429461 0.761171222 0.743554771
0.155434743 0.881011009 0.707208991
0.313604772 0.917991996 0.736015201
0.528995514 0.938692451 0.743541479
0.763628960 0.968303502 0.752944708
0.999694705 0.996518493 0.774011731
0.027100001 0.165445000 0.342954010
0.039734751 0.200966507 0.389224499
0.078763008 0.251289487 0.467591494
0.401242524 0.221030250 0.497936010
0.610602975 0.193409994 0.417526007
0.000000000 0.297832251 0.448599517
0.005106750 0.341486245 0.495940745
0.087863266 0.409613013 0.578994274
0.460390270 0.421110511 0.621210992
0.723905504 0.397034258 0.548665524
0.030494010 0.486816525 0.578314483
0.112826020 0.533074498 0.618326008
0.273089021 0.582511067 0.662062466
0.520255268 0.611270785 0.695595741
0.817902505 0.576061964 0.685226500
0.192719743 0.672121227 0.692756295
0.274631262 0.708987534 0.730878234
0.438664287 0.733864784 0.774019718
0.650293052 0.756124020 0.825938761
0.915522218 0.747411013 0.851016998
0.143848002 0.904708982 0.882146001
0.305404246 0.942413509 0.922465980
0.512502551 0.960283995 0.945849478
0.756667018 0.981340289 0.975113511
0.999625981 0.997761011 0.999589980
