hollywood-luts/Jack Reacher.cube
TITLE "17x17x17 Adobe/IRIDAS cube 3D LUT exported with GrossGrade v0.2.2 (beta) 64 bit"
DOMAIN_MIN 0 0 0
DOMAIN_MAX 1 1 1
LUT_3D_SIZE 17
0.000153000 0.000885000 0.000000000
0.023512688 0.006050625 0.000000000
0.049585748 0.011934625 0.000000000
0.082268134 0.019485189 0.000000000
0.122972503 0.028271999 0.000000000
0.168537617 0.039807562 0.000000000
0.220825151 0.050647877 0.000000000
0.277004451 0.060880318 0.000000000
0.335510015 0.070005998 0.000000000
0.396734178 0.076804191 0.000000000
0.460182101 0.081584878 0.000000000
0.525693357 0.084519252 0.000000000
0.594032764 0.084785253 0.000000000
0.664974749 0.082715057 0.000000000
0.737243712 0.079551116 0.000000000
0.810727477 0.075733364 0.000000000
0.885703981 0.070428997 0.000000000
0.022936124 0.026580939 0.000000000
0.042602062 0.033493124 0.000000000
0.069994621 0.041453503 0.000000000
0.105610952 0.051485062 0.000000000
0.148237199 0.062886000 0.000000000
0.196647882 0.074766748 0.000000000
0.249258250 0.086541951 0.000000000
0.305543453 0.097410947 0.000000000
0.364724368 0.106812879 0.000000000
0.426298112 0.114414312 0.000000000
0.490150452 0.120103002 0.000000000
0.556301832 0.123693630 0.000000000
0.624302089 0.125362381 0.000000000
0.693912029 0.125489995 0.000000000
0.764705777 0.124388933 0.000000000
0.836824596 0.122044936 0.000000000
0.909673035 0.118774936 0.000000000
0.037626375 0.059507873 0.000000000
0.060792312 0.064967558 0.000000000
0.088051498 0.073819622 0.000000000
0.126756132 0.087161750 0.000000000
0.172805622 0.100957870 0.000000000
0.223539442 0.114842370 0.000000000
0.277953774 0.127581999 0.000000000
0.334842473 0.138777182 0.000000000
0.394183904 0.148245752 0.000000000
0.456104875 0.155730933 0.000000000
0.520111024 0.161465496 0.000000000
0.585648775 0.165811121 0.000000000
0.652371049 0.168919861 0.000000000
0.720481277 0.170589566 0.000000000
0.789405704 0.171354994 0.000000000
0.860085189 0.170252740 0.000000000
0.931264758 0.168233871 0.000000000
0.047740251 0.097632140 0.000000000
0.074082814 0.103659198 0.000000000
0.106084317 0.110267386 0.000000000
0.144992769 0.122898012 0.000000000
0.194647640 0.142346635 0.000000000
0.249623507 0.159598082 0.000000000
0.306432337 0.174001575 0.000000000
0.364635140 0.185699135 0.000000000
0.423995465 0.195125952 0.000000000
0.484842122 0.202726707 0.000000000
0.547356486 0.208751634 0.000000000
0.611195683 0.213600144 0.000000000
0.676218927 0.217418373 0.000000000
0.742990494 0.219669878 0.000000000
0.810612500 0.221070826 0.000000000
0.879531443 0.221176088 0.000000000
0.948919892 0.220447078 0.000000000
0.051146001 0.142322749 0.000000000
0.083243564 0.149128824 0.000000000
0.121397242 0.154910743 0.000000000
0.165387318 0.162998617 0.000000000
0.213928252 0.180237755 0.000000000
0.271456510 0.204896003 0.000000000
0.331571162 0.224203512 0.000000000
0.391040981 0.238043875 0.000000000
0.450237274 0.248189509 0.000000000
0.509947479 0.255910337 0.000000000
0.570874214 0.261931896 0.000000000
0.633236229 0.266632259 0.000000000
0.696810305 0.270379245 0.000000000
0.761972070 0.272893995 0.000000000
0.828140974 0.274582624 0.000000000
0.895368755 0.275340170 0.000000000
0.963531733 0.275030017 0.000000000
0.048961252 0.193893820 0.003986125
0.088345632 0.202056810 0.001844562
0.134173244 0.207606375 0.000000000
0.185926080 0.212454990 0.000000000
0.237867072 0.222551569 0.000000000
0.291645616 0.244245827 0.000000000
0.351314366 0.272271425 0.000000000
0.411822289 0.292191744 0.000000000
0.471231848 0.304901868 0.000000000
0.530290663 0.313326120 0.000000000
0.590092897 0.319338590 0.000000000
0.651322603 0.323773235 0.000000000
0.713869214 0.327150226 0.000000000
0.777682483 0.329614103 0.000000000
0.842714608 0.331251621 0.000000000
0.908934712 0.332003921 0.000000000
0.975929916 0.331984878 0.000000000
0.061058134 0.250682890 0.026718009
0.103988133 0.260044754 0.023192700
0.152790010 0.265895396 0.012027263
0.207878709 0.269180894 0.000778129
0.265507042 0.273843020 0.000000000
0.319334060 0.286588013 0.000000000
0.372743756 0.311866820 0.000000000
0.429164380 0.341374785 0.000000000
0.487160146 0.360766143 0.000000000
0.545824707 0.372031510 0.000000000
0.605111241 0.378842622 0.000000000
0.665505409 0.383368254 0.000000000
0.727367282 0.386494130 0.000000000
0.790512204 0.388696909 0.000000000
0.854809582 0.390173405 0.000000000
0.920192957 0.390909255 0.000000000
0.986209035 0.391106158 0.000000000
0.090928584 0.312193394 0.061867334
0.134841263 0.322002828 0.058604270
0.184335336 0.327721030 0.044062395
0.238985166 0.329787821 0.017940950
0.296233594 0.331151158 0.000685322
0.351613760 0.336971164 0.000000000
0.402761608 0.352154374 0.000000000
0.451115221 0.380037695 0.000000000
0.502175331 0.409755021 0.000000000
0.557417512 0.428200185 0.000000000
0.615946710 0.438241333 0.000000000
0.676214874 0.443841755 0.000000000
0.737688959 0.447239429 0.000000000
0.800476491 0.449367046 0.000000000
0.864375174 0.450734526 0.000000000
0.929184020 0.451511264 0.000000000
0.994690180 0.451742917 0.000000000
0.132948518 0.377185017 0.101740509
0.176136449 0.386655688 0.099437945
0.225057513 0.391688645 0.086211383
0.278426349 0.392516971 0.058424816
0.332758248 0.391506791 0.022514258
0.385913193 0.392275512 0.000883817
0.435123771 0.399936885 0.000000000
0.481282383 0.416962832 0.000000000
0.523351073 0.446525037 0.000000000
0.569760919 0.476151824 0.000000000
0.623703837 0.494082153 0.000000000
0.683030486 0.503504217 0.000000000
0.744976997 0.508300006 0.000000000
0.807983160 0.510876894 0.000000000
0.871789455 0.512347519 0.000000000
0.936133265 0.513132155 0.000000000
0.999027967 0.513355017 0.000000000
0.181695879 0.442996502 0.145335063
0.222996444 0.451580375 0.143455133
0.270307809 0.455612481 0.131431311
0.321495563 0.455371499 0.107310243
0.372454047 0.452729672 0.071684808
0.421422720 0.450026751 0.031028312
0.467474490 0.451574951 0.002771061
0.510240734 0.460987747 0.000016625
0.551143050 0.479434848 0.000000000
0.588756144 0.510280609 0.000000000
0.633027315 0.540324330 0.000000000
0.687504172 0.558624864 0.000000000
0.748432159 0.568047583 0.000000000
0.812565863 0.572443902 0.000000000
0.877277851 0.574487984 0.000000000
0.941760063 0.575396299 0.000000000
0.999752045 0.575716138 0.000000000
0.231594130 0.506656528 0.190772876
0.270266563 0.514212012 0.188872203
0.315251887 0.517216086 0.177243620
0.363818258 0.516179264 0.155432671
0.411498398 0.512670398 0.125892624
0.456324279 0.507919908 0.088208631
0.498297274 0.505044520 0.045577869
0.537479162 0.508029342 0.010220058
0.575056493 0.519130111 0.000396250
0.612013221 0.539301336 0.000000000
0.648221731 0.572076142 0.000000000
0.693734527 0.603322983 0.000000000
0.750194788 0.622669876 0.000000000
0.813482523 0.632421732 0.000000000
0.879722059 0.636632383 0.000000000
0.945337296 0.638196111 0.000000000
0.999793470 0.638727367 0.000000000
0.277887255 0.565765917 0.234491929
0.313043505 0.572554648 0.233007878
0.355175316 0.574808598 0.221820876
0.401050180 0.573362112 0.201439381
0.445813000 0.569810033 0.175147310
0.487210870 0.564676821 0.144424260
0.525463700 0.559636176 0.108207054
0.561227620 0.558238506 0.066481233
0.595345795 0.563699424 0.026833370
0.629874587 0.577237666 0.004148063
0.665702999 0.599907041 0.000121562
0.704094529 0.634822667 0.000000000
0.753557384 0.667250514 0.000000000
0.813255847 0.687285721 0.000000000
0.878876686 0.697087288 0.000000000
0.945694089 0.701044500 0.000000000
0.999805689 0.702291727 0.000000000
0.313900769 0.620691061 0.270281732
0.345042497 0.627229393 0.269808948
0.384361982 0.629308939 0.259446144
0.428000033 0.627995074 0.240289509
0.470526755 0.625206232 0.216108263
0.509388506 0.621345401 0.189097315
0.544865429 0.616815031 0.159218132
0.578033566 0.613874197 0.125974178
0.610136271 0.615728796 0.088842995
0.642555833 0.624632239 0.049822070
0.677455366 0.641050637 0.016566262
0.715777457 0.666078985 0.002166198
0.759556532 0.701544762 0.000009250
0.814242840 0.733389199 0.000002313
0.877215326 0.752828300 0.000000000
0.943679452 0.762214184 0.000000000
0.999786019 0.765873253 0.000000000
0.328713059 0.675899327 0.288019449
0.356567502 0.682807565 0.289049029
0.393116355 0.685556829 0.280445486
0.435514420 0.685019851 0.263073951
0.477571607 0.683515728 0.241054684
0.516165257 0.681764722 0.217003077
0.551467776 0.679419994 0.191306323
0.584634900 0.677229822 0.163803831
0.617054284 0.677405357 0.134372458
0.650196075 0.682461441 0.103056341
0.685369372 0.693998694 0.070027664
0.724060118 0.712250412 0.036600668
0.767246246 0.738325000 0.009373222
0.817105770 0.772545993 0.000279440
0.876384676 0.801936150 0.000083125
0.941339791 0.819513381 0.000000000
0.999756753 0.827952504 0.000000000
0.322827995 0.733989835 0.287481368
0.350448281 0.741455436 0.290053934
0.385063976 0.745351553 0.284516990
0.427028388 0.745860517 0.270255804
0.470036238 0.745513439 0.251391143
0.510171294 0.745670438 0.230719626
0.547272205 0.745899916 0.208894610
0.582545280 0.745961368 0.185695991
0.617144108 0.746878922 0.160990760
0.652307332 0.750601351 0.135004386
0.689434767 0.758907557 0.107765138
0.729620397 0.772664189 0.079066649
0.773605764 0.791747391 0.049266271
0.822317481 0.816983819 0.019658009
0.877412796 0.847421765 0.002050131
0.939766169 0.872398376 0.000477064
0.999732375 0.887228429 0.000067752
0.302409172 0.796753168 0.272950739
0.331449956 0.804976463 0.276428699
0.365925193 0.810242355 0.273445785
0.407730222 0.812097728 0.262483478
0.452411205 0.812804163 0.246611804
0.495304108 0.814467132 0.228854120
0.535227418 0.817113459 0.210204720
0.573340237 0.820102334 0.190511033
0.610980451 0.823362529 0.169549555
0.649167717 0.827787161 0.147573188
0.689005315 0.834782898 0.124788567
0.731604278 0.845364571 0.101167068
0.777701378 0.859782934 0.077066056
0.827542961 0.877708912 0.052930616
0.881254077 0.899854362 0.027968876
0.939951777 0.924278438 0.007635821
0.999722004 0.943724990 0.001496139
0.271016985 0.866310000 0.247731999
0.302825451 0.874960303 0.251168877
0.338563502 0.881404757 0.249783620
0.380779177 0.884511471 0.241757065
0.426983505 0.886279225 0.228818253
0.472791612 0.888993740 0.213755071
0.516135991 0.893428385 0.198137239
0.557836950 0.898941636 0.181911916
0.599296451 0.904737949 0.164509490
0.641358495 0.910630167 0.146184370
0.684785008 0.917260408 0.127356380
0.730477214 0.925691605 0.107807621
0.779078722 0.936580241 0.087575994
0.830843449 0.949869871 0.067368165
0.885537267 0.965071499 0.047988355
0.943102658 0.982565582 0.030465798
0.999737024 0.999643981 0.015807999
0.000009563 0.005228437 0.010810313
0.029343937 0.006098438 0.016241251
0.063056625 0.006248563 0.012246000
0.098117694 0.008665689 0.005397250
0.135476321 0.015543000 0.004280250
0.178308502 0.026404750 0.006040937
0.227302641 0.038654439 0.008634064
0.282170087 0.049741317 0.011538939
0.340413004 0.059963506 0.014606314
0.402021319 0.067929380 0.017780814
0.466658354 0.073350064 0.021066938
0.532942772 0.077485502 0.024404375
0.601597250 0.079359129 0.027737375
0.673304677 0.078126751 0.031094629
0.746276677 0.075563304 0.034349129
0.820517957 0.071799934 0.037644003
0.894734919 0.067825563 0.040683750
0.010608937 0.033928122 0.016575938
0.042227060 0.037017185 0.008399063
0.074723497 0.040941190 0.006171313
0.113190636 0.046886817 0.005011188
0.156038880 0.055782747 0.005796938
0.204025120 0.066240057 0.007816626
0.255744517 0.077529132 0.010297501
0.311354846 0.088309698 0.013025814
0.370140731 0.097884372 0.015938062
0.431529015 0.105972312 0.018992689
0.495076418 0.112576753 0.022160437
0.561033070 0.117129564 0.025387812
0.629645467 0.119213194 0.028643563
0.699692070 0.119831622 0.031917941
0.770712197 0.119499311 0.035099942
0.842700899 0.118139498 0.038305942
0.915445268 0.115475871 0.041307189
0.020600438 0.066452563 0.009302937
0.053056814 0.070883870 0.003736188
0.086430505 0.076850191 0.002605688
0.128652200 0.087196752 0.006150750
0.177035198 0.098205753 0.008121938
0.229207993 0.110103250 0.010188812
0.284210891 0.121595941 0.012503876
0.341250658 0.132069558 0.015083440
0.400285751 0.141281754 0.017873937
0.461443812 0.149033248 0.020790813
0.524852216 0.155149877 0.023817813
0.590241611 0.159686804 0.026912875
0.656954527 0.163078800 0.030028813
0.724848926 0.165414259 0.033183441
0.793935359 0.166556880 0.036241192
0.864031374 0.166563183 0.039359380
0.934927285 0.165295303 0.042223312
0.022541311 0.104530200 0.005375814
0.057538938 0.110518262 0.002206314
0.096540563 0.115945332 0.000984001
0.141936451 0.126081005 0.002594875
0.195377797 0.143421888 0.009343248
0.252547294 0.158581033 0.013102062
0.310800135 0.171655506 0.015514690
0.369892985 0.182355195 0.017860565
0.429693162 0.191017255 0.020413563
0.490473032 0.198137566 0.023145936
0.552619278 0.204032272 0.026013812
0.616229653 0.208855510 0.028960314
0.681012869 0.212807134 0.031945940
0.747165799 0.215652019 0.034995254
0.814563215 0.217430949 0.037966751
0.883074045 0.218039826 0.040963627
0.951987267 0.217877954 0.043708999
0.021382064 0.147577062 0.008914312
0.057416193 0.155753374 0.007478437
0.102076374 0.162048310 0.003483813
0.154915497 0.168832123 0.000760876
0.210616052 0.183741376 0.003613875
0.272285491 0.206656814 0.012792500
0.334608465 0.224334821 0.018229188
0.395357609 0.237076759 0.021175314
0.455241352 0.246401936 0.023565438
0.515184462 0.253510714 0.026037686
0.575987577 0.259149015 0.028661812
0.638077497 0.263699830 0.031381626
0.701390386 0.267403245 0.034165189
0.766071141 0.270139456 0.037012689
0.831883132 0.272062629 0.039809126
0.898813665 0.272996694 0.042659752
0.966424346 0.273115247 0.045289502
0.017689941 0.196588740 0.029263875
0.059631824 0.206624761 0.028736688
0.109440610 0.213910311 0.019561499
0.167544082 0.219836324 0.005985936
0.229161635 0.228370875 0.000784250
0.289507866 0.247866362 0.004823875
0.352606148 0.274383873 0.015599253
0.414819926 0.293071359 0.022962127
0.475084692 0.304910004 0.026971752
0.534519255 0.312722355 0.029544499
0.594433129 0.318267524 0.031904999
0.655556917 0.322407931 0.034353752
0.717909396 0.325617820 0.036881503
0.781494856 0.328015476 0.039493814
0.846247375 0.329698861 0.042067066
0.912018061 0.330613226 0.044696506
0.978517413 0.330823451 0.047152124
0.025583450 0.251453817 0.054509886
0.072115317 0.263005078 0.055432700
0.125545189 0.270923585 0.045742512
0.186784208 0.275977194 0.024986316
0.251495779 0.281189322 0.004577819
0.313941449 0.291948080 0.000626750
0.371976882 0.315300822 0.005900001
0.430798084 0.343619227 0.018257879
0.489840508 0.362034023 0.027200997
0.548936903 0.372613907 0.032388061
0.608375192 0.378947616 0.035357375
0.668856978 0.383106709 0.037684061
0.730668902 0.385997206 0.039940752
0.793675244 0.388040751 0.042290691
0.857819080 0.389417648 0.044618066
0.922891498 0.390184015 0.047003563
0.988510847 0.390455842 0.049238753
0.052534770 0.311525702 0.084465586
0.099733964 0.323817432 0.086516082
0.154471695 0.331773549 0.077705085
0.216468394 0.335827529 0.055407953
0.280625165 0.338431418 0.022816144
0.343302518 0.343568534 0.002162759
0.400094479 0.356885046 0.000575188
0.451549858 0.383120745 0.006918000
0.503890574 0.411955208 0.020501623
0.559668064 0.429609537 0.030664247
0.618364692 0.439062774 0.037123498
0.678660512 0.444257796 0.040808499
0.740182757 0.447384030 0.043250129
0.802916825 0.449324459 0.045351565
0.866736054 0.450545967 0.047416814
0.931350172 0.451227456 0.049533878
0.996233821 0.451438218 0.051562876
0.094827816 0.375369072 0.119437136
0.139832631 0.387596816 0.122387014
0.193667829 0.395007282 0.114516452
0.254643440 0.397970766 0.094050571
0.316630661 0.398336947 0.060435638
0.376403809 0.399215519 0.020476446
0.430903912 0.405564010 0.001134753
0.480330616 0.420990884 0.000691752
0.524408519 0.449327588 0.007999625
0.571398556 0.478261828 0.022291873
0.625597835 0.495500088 0.033506624
0.684944749 0.504373014 0.041071061
0.746824920 0.508827507 0.045658376
0.809750557 0.511192262 0.048422191
0.873508751 0.512506425 0.050381195
0.937674999 0.513157129 0.052300002
0.999548197 0.513317466 0.054205753
0.145978376 0.440618813 0.159522936
0.187727749 0.452114195 0.162891939
0.239302576 0.458529353 0.155568197
0.297817141 0.460318804 0.136849880
0.356482297 0.459091365 0.107506752
0.411755741 0.456878453 0.067340627
0.462507039 0.457633495 0.024910431
0.508222044 0.465688556 0.002520437
0.551081300 0.482897997 0.001090627
0.589935303 0.512901187 0.009181751
0.634578466 0.542353749 0.023826750
0.689146638 0.560003340 0.035760622
0.750009716 0.568925142 0.044188626
0.813967526 0.572984874 0.049862381
0.878504932 0.574840307 0.053006753
0.942789555 0.575587690 0.055209063
0.999762535 0.575829923 0.056951065
0.199953884 0.504411578 0.202852741
0.237710014 0.514787436 0.206145987
0.286157280 0.520000935 0.198888555
0.341327459 0.520700812 0.181164816
0.396191418 0.518497288 0.155081868
0.446963072 0.514510036 0.121927321
0.493091375 0.511299431 0.080833048
0.535047650 0.513088226 0.038753610
0.574096918 0.523096800 0.010268437
0.612332225 0.542416990 0.002844375
0.649414241 0.574554324 0.010832250
0.695201278 0.605281770 0.025630062
0.751675546 0.624033093 0.038031001
0.814804792 0.633281827 0.047232382
0.880805492 0.637144566 0.053445753
0.946090579 0.638483047 0.057194129
0.999800265 0.638887286 0.059363436
0.251375079 0.564072430 0.245602876
0.284293830 0.573396802 0.249041930
0.328675479 0.577564180 0.242049053
0.380138993 0.577492297 0.225084931
0.431258470 0.575020134 0.201174676
0.478145003 0.570742130 0.172281310
0.520174980 0.565859616 0.138833299
0.558372736 0.563686430 0.100966409
0.594102025 0.567958176 0.061284803
0.629479647 0.580669284 0.027261499
0.666220129 0.602786303 0.010027187
0.705307364 0.637214839 0.014816563
0.754967034 0.669163048 0.028923191
0.814614594 0.688617408 0.041240070
0.879970193 0.697919011 0.050150570
0.946470857 0.701496840 0.056448940
0.999811947 0.702507973 0.060255311
0.292062432 0.619726539 0.281941801
0.320825964 0.628317714 0.285706729
0.360706210 0.632030845 0.279507071
0.408866674 0.631740034 0.263407052
0.456922680 0.629750550 0.241255432
0.500815868 0.626637578 0.215344250
0.539808869 0.622582316 0.186504692
0.575155914 0.619419813 0.155058622
0.608625233 0.620443463 0.121495306
0.642027140 0.628369212 0.086322263
0.677529097 0.644158065 0.051937200
0.716507137 0.668820262 0.026992135
0.760789752 0.703925014 0.023185441
0.815589666 0.735273182 0.034042262
0.878416479 0.754129291 0.044553943
0.944554567 0.762980878 0.052881882
0.999794006 0.766269505 0.058427684
0.310642362 0.675714970 0.302937120
0.337459385 0.683938384 0.307002485
0.373284310 0.688059628 0.302291870
0.418584764 0.688339949 0.287964493
0.465013444 0.687381089 0.267944068
0.508044899 0.686166286 0.244854778
0.546642363 0.684387684 0.219775587
0.581936181 0.682403862 0.193011820
0.615640402 0.682228029 0.164902389
0.649580240 0.686628699 0.135815769
0.685394704 0.697500706 0.106318280
0.724558532 0.715324938 0.076999106
0.768185198 0.741110623 0.049939036
0.818358064 0.774948835 0.035563391
0.877623200 0.803762257 0.040402450
0.942307889 0.820697665 0.048589069
0.999765992 0.828642845 0.055159688
0.308080554 0.734319389 0.307388425
0.335216045 0.742612898 0.312036037
0.369530976 0.747491717 0.309466511
0.412857383 0.748730183 0.298143715
0.459044755 0.748794436 0.281170189
0.502866268 0.749297917 0.261484563
0.542866468 0.750010073 0.240172803
0.580047786 0.750519574 0.217458367
0.615852952 0.751532257 0.193538129
0.651742876 0.754967332 0.168715715
0.689368308 0.762838006 0.143123955
0.730015635 0.776174486 0.117060967
0.774430156 0.794934332 0.091429964
0.823446155 0.819810688 0.067744449
0.878593624 0.849664509 0.051809702
0.940712452 0.873929024 0.049374081
0.999740601 0.888117671 0.054044824
0.290635407 0.797319651 0.298831910
0.319517612 0.806123674 0.303641647
0.354029208 0.812032998 0.302765518
0.396367610 0.814584494 0.294535398
0.443105042 0.815665960 0.280437052
0.488823503 0.817523658 0.263692051
0.531331480 0.820440114 0.245522931
0.571270287 0.823834717 0.226247489
0.610034883 0.827467203 0.205934867
0.648873389 0.832022130 0.184811205
0.689102590 0.838884771 0.163137689
0.732011795 0.849211574 0.141063780
0.778371036 0.863340259 0.119212329
0.828453779 0.880870044 0.098603122
0.882199168 0.902361810 0.079995818
0.940693080 0.925856233 0.067406565
0.999728382 0.944547713 0.063398391
0.261767626 0.866905332 0.279684812
0.293559194 0.875997186 0.284079790
0.329397857 0.882965744 0.284241557
0.372196823 0.886606336 0.278335631
0.419448227 0.888750553 0.267081559
0.467123985 0.891630709 0.253178984
0.512480974 0.896180868 0.238126934
0.555756807 0.901967108 0.222232863
0.598236799 0.908200026 0.205473676
0.640958548 0.914477170 0.187972367
0.684846163 0.921256065 0.169981867
0.730841875 0.929587245 0.151551068
0.779638410 0.940181255 0.132947564
0.831514120 0.953002036 0.115278549
0.886162102 0.967526674 0.100190490
0.943466842 0.983936012 0.089083306
0.999739826 0.999659956 0.080952995
0.000000000 0.010288500 0.023058251
0.023293376 0.011681750 0.031206064
0.050247751 0.012522875 0.037476126
0.089518890 0.010433000 0.038717248
0.136329621 0.008443250 0.027481873
0.185042813 0.011027875 0.018017249
0.234810635 0.020402381 0.017494502
0.287590325 0.033383384 0.022161629
0.344548523 0.045618251 0.028339252
0.405725151 0.055053622 0.034797311
0.470681489 0.061363250 0.041416377
0.537716150 0.066155754 0.048140191
0.606644869 0.069437496 0.054867379
0.678383946 0.069734812 0.061597697
0.751767576 0.068232626 0.068222009
0.826112866 0.065720931 0.074728131
0.901323736 0.061471876 0.080968499
0.000706625 0.040796813 0.043555371
0.024892502 0.043509625 0.049921874
0.059504874 0.045204751 0.053483810
0.105932571 0.046039686 0.044921622
0.156643450 0.048909627 0.031140063
0.209506765 0.054206938 0.021840500
0.262697011 0.063215323 0.021162312
0.317453593 0.074126892 0.025197377
0.375694513 0.083977878 0.030906128
0.436961830 0.092340998 0.037106000
0.500433207 0.099525429 0.043498747
0.566000164 0.105237879 0.050010812
0.633916736 0.108963937 0.056556817
0.703578353 0.111141436 0.063127130
0.774974942 0.111523494 0.069605701
0.847076535 0.111127444 0.075983003
0.919808924 0.109515935 0.082123935
0.001737000 0.073254630 0.061401252
0.030149126 0.077185437 0.059869125
0.072511375 0.080918498 0.048785500
0.121347383 0.087296933 0.040293496
0.176154122 0.094403006 0.033203252
0.233419195 0.102639191 0.027948499
0.290898770 0.111770630 0.027967002
0.348891526 0.120827250 0.031063190
0.408105761 0.129251376 0.035744250
0.468696803 0.137031317 0.041247811
0.530855656 0.144034237 0.047160253
0.594982088 0.149714366 0.053298499
0.661274016 0.153786510 0.059515502
0.728913248 0.156800747 0.065793380
0.797575355 0.159031630 0.072005384
0.867640018 0.159772381 0.078151636
0.938458622 0.159149870 0.084082626
0.004890874 0.109268188 0.057812624
0.037922621 0.116052516 0.055702377
0.080454439 0.121820077 0.045473877
0.132653832 0.129503071 0.031504747
0.192594200 0.143368393 0.032987118
0.254637748 0.155377194 0.033859372
0.316164225 0.166149259 0.035470381
0.376689643 0.175562516 0.038315944
0.436858416 0.183509633 0.042132504
0.497415692 0.190282688 0.046822689
0.559054494 0.196116760 0.052194878
0.622114658 0.201036334 0.057955436
0.686459899 0.205168188 0.063816562
0.752168000 0.208375752 0.069754444
0.819047928 0.210729763 0.075633317
0.886899710 0.212194517 0.081461631
0.955483377 0.212647140 0.087076746
0.003750375 0.151525632 0.057531003
0.036770999 0.160787702 0.057561494
0.082772121 0.168402255 0.049969498
0.139605895 0.175272003 0.035119995
0.203316122 0.187496126 0.024157124
0.271099746 0.207933500 0.033800311
0.336940050 0.223257750 0.041068751
0.399819374 0.234431744 0.045224566
0.460974157 0.242703363 0.049092751
0.521456361 0.249082744 0.053414311
0.582259595 0.254229754 0.058183748
0.644136310 0.258473277 0.063317120
0.707109272 0.262093127 0.068676129
0.771269381 0.265003622 0.074217692
0.836742580 0.267084867 0.079788879
0.903248072 0.268347681 0.085346319
