hollywood-luts/Jason Bourne.cube
TITLE "17x17x17 Adobe/IRIDAS cube 3D LUT exported with GrossGrade v0.2.2 (beta) 64 bit"
DOMAIN_MIN 0 0 0
DOMAIN_MAX 1 1 1
LUT_3D_SIZE 17
0.000000000 0.001869000 0.009380000
0.021762187 0.011790562 0.009380000
0.093775623 0.008094500 0.009380000
0.159923375 0.008126875 0.009380000
0.228622258 0.009684250 0.009380000
0.299932688 0.010669312 0.009380000
0.370433629 0.011311500 0.009380000
0.437905550 0.011556000 0.009380000
0.502068043 0.011202500 0.009380000
0.563962936 0.010264938 0.009380000
0.624877334 0.009301376 0.009380000
0.685683608 0.008737938 0.009380000
0.747008026 0.008118500 0.009380000
0.809581518 0.007575874 0.009380000
0.872243404 0.007201249 0.009380000
0.923867524 0.006390686 0.009380000
0.964763999 0.004391000 0.009380000
0.000000000 0.040727437 0.026249375
0.014701876 0.052641191 0.022191875
0.094154567 0.049966253 0.010234125
0.166500062 0.049503624 0.009380000
0.236483172 0.051539876 0.009380000
0.307585299 0.053472936 0.009380000
0.377723038 0.055110872 0.009380000
0.445211679 0.056397937 0.009380000
0.509638131 0.056959316 0.009380000
0.571839333 0.056745812 0.009380000
0.633144975 0.056501873 0.009380000
0.694311082 0.056714185 0.009380000
0.755675256 0.056857374 0.009380000
0.818125486 0.057093497 0.009380000
0.880225182 0.057171620 0.009380000
0.927958429 0.057025753 0.009380000
0.968483031 0.056846935 0.009380000
0.000000000 0.080894873 0.042320751
0.010703125 0.095270872 0.038580000
0.080310382 0.100483000 0.011820626
0.171292186 0.099128060 0.009432312
0.244627133 0.101953872 0.009380000
0.316590190 0.104647741 0.009380000
0.387094498 0.106874868 0.009380000
0.454527080 0.108371556 0.009380000
0.519060016 0.109512627 0.009380000
0.581673503 0.110475183 0.009380000
0.643477261 0.111449003 0.009380000
0.705068886 0.112672746 0.009380000
0.766768396 0.113782495 0.009380000
0.829333305 0.114866495 0.009380000
0.890062690 0.115837127 0.009380000
0.932878375 0.116573997 0.009380000
0.973479629 0.117960133 0.009380000
0.000000000 0.123898014 0.055068877
0.010189999 0.139896944 0.043185122
0.062384121 0.153771520 0.016226564
0.169940695 0.157263443 0.010388438
0.252685755 0.159736753 0.009445500
0.325416237 0.163357586 0.009380000
0.396063983 0.165899202 0.009380000
0.463987917 0.167885393 0.009380000
0.529425204 0.169422954 0.009380000
0.592959762 0.170897201 0.009380000
0.655313969 0.172326505 0.009380000
0.717233181 0.173874572 0.009380000
0.779286861 0.175498575 0.009380000
0.841428697 0.177129626 0.009380000
0.899190068 0.178787261 0.009380000
0.938816607 0.180430561 0.009380000
0.979543269 0.182954699 0.009380000
0.000000000 0.170242012 0.061358750
0.010017000 0.186426818 0.043114997
0.062697127 0.203292996 0.021556247
0.158412457 0.217745319 0.012308250
0.259273022 0.224119008 0.010039499
0.335102767 0.227673694 0.009413124
0.404754877 0.230805144 0.009380000
0.472368211 0.232882813 0.009380000
0.537870467 0.234686255 0.009380000
0.602143407 0.236546442 0.009380000
0.665817022 0.238536119 0.009380000
0.729193091 0.240464807 0.009380000
0.792403817 0.242282242 0.009380000
0.854048610 0.243988380 0.009380000
0.907637596 0.245765999 0.009380000
0.945192575 0.247991681 0.009380000
0.986225784 0.251458764 0.009380000
0.000000000 0.219716489 0.060135812
0.011336875 0.235598549 0.037503123
0.074622191 0.252030611 0.026965562
0.161773711 0.270117939 0.018732499
0.259482950 0.287534118 0.011205375
0.345203698 0.296904206 0.009545624
0.414543062 0.300417632 0.009380000
0.480482608 0.302824140 0.009380000
0.545371234 0.304315954 0.009380000
0.609381080 0.305952966 0.009380000
0.673209906 0.307965040 0.009380000
0.737331450 0.310175687 0.009380000
0.801861107 0.312343121 0.009380000
0.863807619 0.314496875 0.009380000
0.913817585 0.316777289 0.009380000
0.951360703 0.319549263 0.009380000
0.992783427 0.323717684 0.009380000
0.000000000 0.271733999 0.053746123
0.018054385 0.286238700 0.036410812
0.092120506 0.301700264 0.031044751
0.173293754 0.320019454 0.025450937
0.260856628 0.342348278 0.017397502
0.347950250 0.363783598 0.010036252
0.424274623 0.373732626 0.009380000
0.489072591 0.376080871 0.009380000
0.552294672 0.377459526 0.009380000
0.615490437 0.378588051 0.009380000
0.678983510 0.380120516 0.009380000
0.743002713 0.382074445 0.009380000
0.807806015 0.384286523 0.009380000
0.869942427 0.386760592 0.009380000
0.917433202 0.389681906 0.009380000
0.955673456 0.393171340 0.009380000
0.997878730 0.398276776 0.009380000
0.000000006 0.325165898 0.045845814
0.043242760 0.337790489 0.040071003
0.111191317 0.352665097 0.036489878
0.184008271 0.371116042 0.031341814
0.263354331 0.393999636 0.023684878
0.346412390 0.420236349 0.014524691
0.425870448 0.443065822 0.009484251
0.496613830 0.451452523 0.009380000
0.558986068 0.452455163 0.009380000
0.620863795 0.453139275 0.009380000
0.683576286 0.454187334 0.009380000
0.747523546 0.455723166 0.009380000
0.812535405 0.457864195 0.009380000
0.874336720 0.460425228 0.009380000
0.919857919 0.463540435 0.009380000
0.958204508 0.467432141 0.009417813
1.000419974 0.473237425 0.009720312
0.010941505 0.379513502 0.045436002
0.065084003 0.391388714 0.044699565
0.126173615 0.405855119 0.042143755
0.192755461 0.423805088 0.036751688
0.265993237 0.445472270 0.029343501
0.344960332 0.471973181 0.019867189
0.423217893 0.499591529 0.011352126
0.496868789 0.521633863 0.009380000
0.564496994 0.528056502 0.009380000
0.626108825 0.528598905 0.009380000
0.688125849 0.529300630 0.009380000
0.751423836 0.530448914 0.009380000
0.816295505 0.532287478 0.009431500
0.877819836 0.534825683 0.009550875
0.921908021 0.537810981 0.009675500
0.960207224 0.541726470 0.009711999
1.001915932 0.547821045 0.010028500
0.024306312 0.435795754 0.051123623
0.075859249 0.447394878 0.049960624
0.133824632 0.461352110 0.047024000
0.198944703 0.478327334 0.041647620
0.270057172 0.498196453 0.034197688
0.345491707 0.522432446 0.025034312
0.421617597 0.550578237 0.015272438
0.494596273 0.578308642 0.009656062
0.564324081 0.598653018 0.009380000
0.630453885 0.603502870 0.009380000
0.692486942 0.604232252 0.009423874
0.755541444 0.605265141 0.009591812
0.819626093 0.606702089 0.009808063
0.880227268 0.608839095 0.010041312
0.923416436 0.611539245 0.010252188
0.961703777 0.615258515 0.010272125
1.003066063 0.621324897 0.010058001
0.029723000 0.494320869 0.056119751
0.082804441 0.505297124 0.054815877
0.141326740 0.518483877 0.051403500
0.206191957 0.534324527 0.045727622
0.275930524 0.552664518 0.038067125
0.348152012 0.574127913 0.029340001
0.421714157 0.600540996 0.020128498
0.493518233 0.629367590 0.011973748
0.562982380 0.656454027 0.009403000
0.630961776 0.674173951 0.009657125
0.696098030 0.677702308 0.009857374
0.758889198 0.678600371 0.009872687
0.822639644 0.679842591 0.010069124
0.882038116 0.681482792 0.010329874
0.924220085 0.683667898 0.010240875
0.962319970 0.686943293 0.010179374
1.003402352 0.692749262 0.009792500
0.035647374 0.554113984 0.060466625
0.090139255 0.564491153 0.058645688
0.149316117 0.576855898 0.054899123
0.213966697 0.591599762 0.048840310
0.282739580 0.608660996 0.041156188
0.352737010 0.628124475 0.032855313
0.423279524 0.651884198 0.024575310
0.493588358 0.679792941 0.016483622
0.562201619 0.708540380 0.010591124
0.629703760 0.734082818 0.009704688
0.696748912 0.748365998 0.009921438
0.761367083 0.750597239 0.010255188
0.824625194 0.751387894 0.010128000
0.883305192 0.752605259 0.009816562
0.924457014 0.754192233 0.009609063
0.962396502 0.756840229 0.009443375
1.003484488 0.762584865 0.009475625
0.041691501 0.615068495 0.063771755
0.097490005 0.624716938 0.061440062
0.157488868 0.636217237 0.057384625
0.222009823 0.650022984 0.051342063
0.289891273 0.666043818 0.044102252
0.358517557 0.684365809 0.036488876
0.426505387 0.705933511 0.028865123
0.494453013 0.731772184 0.021366434
0.561938763 0.759989023 0.014305251
0.628778338 0.787720501 0.010282813
0.695330620 0.810797274 0.009796375
0.761951625 0.820889294 0.009582000
0.825944304 0.821626544 0.009740750
0.884266019 0.822097182 0.009745063
0.924819171 0.823208928 0.009819625
0.962703645 0.825333476 0.010041125
1.003715277 0.830918550 0.010184750
0.047416072 0.677017629 0.066763885
0.104917444 0.685937703 0.064253069
0.165930390 0.696647406 0.060117818
0.230508834 0.709516644 0.054310754
0.297471434 0.724420786 0.047343258
0.364794493 0.741540551 0.040308941
0.430788279 0.761276424 0.033399813
0.496415168 0.784728944 0.026526066
0.562466681 0.811391771 0.019043440
0.628627777 0.837994754 0.012203942
0.695137978 0.860894859 0.009527002
0.761878550 0.878394544 0.009818376
0.827887535 0.883660793 0.010577002
0.885663629 0.883168042 0.011080626
0.925968170 0.883899808 0.011149189
0.963453889 0.885527194 0.011621375
1.003902555 0.889830530 0.011768375
0.054688264 0.738901556 0.071137011
0.113659762 0.747133315 0.067970194
0.175243378 0.756784976 0.063743636
0.239691585 0.768375218 0.058131441
0.305851012 0.781747222 0.051508754
0.372049212 0.797159076 0.045014568
0.436680496 0.814920843 0.038662128
0.500329912 0.835602462 0.032195751
0.564796507 0.858468413 0.025111506
0.630349159 0.881404996 0.017501509
0.696719885 0.899925113 0.011604633
0.763603151 0.911258876 0.010565128
0.829363167 0.920015693 0.011378751
0.887743354 0.923018575 0.012062499
0.926630437 0.922764957 0.012169501
0.963967085 0.924396634 0.012484001
1.003905058 0.928205431 0.012056502
0.064342320 0.796952546 0.077874690
0.124248199 0.804468989 0.074114189
0.186342940 0.813124239 0.069510877
0.250582844 0.823608458 0.063872881
0.315916508 0.835749626 0.057404816
0.380892992 0.849949241 0.050810318
0.444272816 0.865934134 0.044324815
0.506109953 0.884270608 0.037917376
0.568717837 0.901961327 0.031660631
0.633387983 0.915986717 0.025488384
0.699321568 0.927703440 0.019170322
0.766067863 0.939332247 0.013655882
0.831923425 0.950183213 0.012152502
0.890028536 0.958410203 0.012298561
0.928512394 0.960724473 0.012017189
0.963973045 0.960405052 0.012948139
1.003904939 0.964524448 0.012428764
0.074412003 0.859480023 0.085069999
0.135717005 0.865979671 0.080755621
0.198603123 0.873805881 0.075288869
0.262706399 0.882785499 0.069285624
0.327295244 0.893618464 0.062732503
0.391240478 0.906442285 0.056121249
0.453580499 0.917027593 0.049818747
0.514456749 0.925870538 0.044032309
0.575644493 0.935309529 0.039007999
0.638986528 0.945897341 0.033883501
0.704391241 0.957258761 0.028020000
0.770857215 0.968958139 0.021439688
0.836771011 0.980283260 0.014849501
0.894182980 0.990669608 0.011853812
0.932143390 0.998570979 0.011319752
0.967999578 1.000020027 0.012330327
1.003903031 1.000020027 0.027515000
0.000000000 0.006402750 0.027755000
0.017240625 0.015501187 0.045794375
0.090540305 0.010667626 0.045186248
0.153754205 0.011218375 0.045228131
0.221500814 0.012572500 0.045301251
0.293037415 0.013775188 0.046002377
0.364166111 0.014514625 0.046969995
0.432322919 0.014719876 0.048316248
0.497025371 0.014346625 0.049785875
0.559298337 0.013157938 0.051014815
0.620397270 0.011654125 0.052087437
0.681227088 0.010700749 0.053166565
0.742568552 0.010049688 0.054059185
0.805060863 0.009382062 0.054682627
0.867984056 0.008512436 0.055381250
0.921901464 0.007664936 0.056171253
0.962600231 0.005694125 0.057164378
0.000000000 0.045269623 0.046870623
0.017871562 0.054823693 0.052188121
0.093136504 0.053232878 0.051683247
0.164173752 0.055222627 0.052843191
0.234608382 0.058901500 0.053707439
0.306703687 0.062213309 0.054965127
0.377686769 0.064770877 0.056343123
0.445438921 0.066720568 0.057819311
0.509828746 0.067783564 0.059328441
0.571855366 0.068133123 0.060717504
0.632775068 0.068178818 0.061980877
0.693513632 0.068198241 0.063083127
0.754547417 0.068171568 0.063884243
0.816546381 0.067938499 0.064501062
0.878384352 0.067527004 0.065026432
0.926695287 0.066946372 0.065435626
0.967254937 0.066334434 0.065943129
0.000000000 0.082446314 0.062986627
0.011338813 0.096577495 0.067045875
0.085825071 0.100313500 0.057127625
0.172780007 0.103236631 0.058167934
0.247129068 0.107696250 0.058767688
0.319756746 0.111409873 0.059309121
0.390379876 0.114341751 0.060068879
0.457554519 0.116411626 0.060931314
0.521597385 0.117912620 0.062039185
0.583641291 0.119045444 0.063126817
0.644698501 0.119985439 0.064052381
0.705459416 0.120901495 0.064829253
0.766467810 0.121633805 0.065321997
0.828416109 0.122114927 0.065672629
0.889017701 0.122576497 0.066060685
0.932005942 0.122962870 0.066341750
0.972591043 0.123685129 0.066616870
0.000000000 0.123649821 0.077015191
0.010872187 0.141256377 0.076025061
0.064914681 0.154832959 0.064890377
0.172085255 0.159293562 0.062868997
0.256212801 0.164711878 0.063136183
0.330147296 0.169429332 0.062927753
0.401051760 0.172727570 0.063039005
0.468635857 0.175140500 0.063332126
0.533218682 0.176788822 0.063738249
0.595823169 0.178180575 0.064427257
0.657286644 0.179446891 0.065042004
0.718405783 0.180646196 0.065459065
0.779888332 0.181843206 0.065786690
0.841416597 0.183029458 0.066005379
0.898821712 0.184166819 0.066038623
0.938210070 0.185387775 0.065900944
0.978951037 0.187404260 0.066374943
0.000000000 0.168924063 0.086409315
0.010872187 0.187904492 0.080735937
0.066314302 0.205148324 0.073421314
0.161853015 0.220337451 0.066612065
0.261259586 0.227600887 0.067137942
0.338977367 0.232778013 0.065441132
0.409133583 0.236637145 0.064954251
0.476607054 0.239239067 0.064815506
0.541683853 0.241210118 0.064888127
0.605259299 0.242932633 0.065001443
0.668160379 0.244565383 0.064981252
0.730694115 0.245989636 0.064861685
0.793221056 0.247278124 0.064883813
0.854271173 0.248573512 0.064827502
0.907413363 0.249986202 0.064649507
0.944804549 0.251892567 0.064513072
0.985669434 0.254911959 0.064744063
0.000000000 0.217514262 0.090957500
0.014125437 0.236764506 0.083622061
0.079016373 0.254088312 0.080450878
0.166237131 0.272923291 0.075056314
0.263170451 0.290588349 0.068225503
0.347389936 0.300159514 0.068934187
0.417551190 0.304814577 0.066740185
0.483442515 0.307694077 0.066113383
0.548093975 0.309487462 0.065602124
0.611767709 0.311121553 0.065240309
0.675125599 0.312912881 0.064838938
0.738781691 0.314700693 0.064160436
0.802872539 0.316361517 0.063539565
0.864329457 0.318022341 0.062988192
0.913828313 0.319851398 0.062460437
0.951222658 0.322260678 0.062240377
0.992488980 0.326114863 0.062466498
0.000000000 0.269070894 0.091520190
0.025614697 0.287264645 0.087006748
0.097488314 0.303524077 0.085867688
0.178144574 0.322711825 0.083148748
0.264518946 0.345308542 0.075488195
0.350514263 0.366534770 0.068125315
0.425691515 0.376228571 0.069503441
0.490770370 0.379385740 0.066808686
0.553884506 0.381069452 0.066049755
0.616883576 0.382289767 0.065340191
0.680204868 0.383707792 0.064414561
0.743977964 0.385423511 0.063373439
0.808585644 0.387327552 0.062298439
0.870479465 0.389461130 0.061457876
0.917623401 0.391953498 0.060832061
0.955759883 0.395034909 0.060316689
0.997846246 0.399872690 0.060363751
0.000000006 0.322490096 0.088324308
0.051953822 0.338694572 0.091857374
0.116649821 0.354364544 0.091444559
0.188672900 0.373668551 0.089368567
0.267277211 0.396732628 0.082959071
0.348983824 0.422634393 0.073665000
0.427239269 0.445136189 0.066979937
0.497153670 0.453249902 0.068947442
0.559648693 0.454689771 0.066003814
0.621511936 0.455534488 0.064767189
0.684121907 0.456573665 0.063735694
0.748032570 0.457994699 0.062371876
0.812882185 0.459916770 0.061182752
0.874566197 0.462258786 0.060212374
0.919968784 0.465106964 0.059487499
0.958345473 0.468717039 0.058938064
1.000454783 0.474324346 0.058875315
0.010941505 0.376699209 0.089584753
0.073306814 0.392123967 0.097159810
0.131440312 0.407424897 0.097021624
0.197449937 0.426085860 0.094517685
0.270156264 0.448011279 0.089138873
0.347929597 0.474107623 0.080096997
0.424760342 0.501279593 0.070649318
0.497395486 0.522996187 0.064882189
0.564473093 0.529322922 0.067208312
0.626123786 0.529985547 0.064539567
0.688197255 0.530727804 0.062757693
0.751512349 0.531861007 0.061587252
0.816386223 0.533591330 0.060337249
0.877859533 0.535940409 0.059355874
0.921915114 0.538775980 0.058334127
0.960239768 0.542529106 0.057807870
1.001893282 0.548500240 0.057610750
0.024046000 0.432711512 0.095996439
0.084304757 0.447898239 0.103018939
0.139348060 0.462595761 0.102061123
0.203947142 0.480202585 0.099049501
0.274574697 0.500261843 0.094076686
0.348836333 0.524376094 0.085983999
0.423409641 0.552148938 0.076022938
0.495243549 0.579487026 0.067304119
0.564372778 0.599566340 0.062860437
0.630186677 0.604384243 0.065479748
0.692264378 0.605062485 0.062935881
0.755382419 0.606053770 0.060756505
0.819523096 0.607418597 0.059603125
0.880180717 0.609435856 0.058567937
0.923399985 0.612090826 0.057351559
0.961684704 0.615748465 0.056495436
1.003012300 0.621697783 0.056114685
0.029140063 0.491112769 0.101815194
0.091484196 0.505461395 0.108234063
0.147061512 0.519232988 0.106632061
0.211328000 0.535675168 0.103002504
0.280615181 0.554216623 0.097830132
0.351779133 0.575717568 0.091034934
0.423767120 0.602034092 0.081857190
0.494251728 0.630592227 0.072339557
0.563078046 0.657277346 0.064584315
0.630830169 0.674768746 0.061325878
0.695809782 0.678252399 0.063859999
0.758739710 0.679075420 0.060871437
0.822484612 0.680264175 0.058276936
0.881984353 0.681784809 0.056953810
0.924181521 0.683911085 0.055789750
0.962338448 0.687254846 0.054648191
1.003375530 0.692963958 0.054311939
0.034873627 0.550860584 0.106841311
0.099016115 0.564299345 0.112628810
0.155283436 0.577145696 0.110456496
0.219347566 0.592429698 0.106325567
0.287620038 0.609789729 0.100817628
0.356601626 0.629370332 0.094969884
0.425647348 0.653182328 0.087578744
0.494513988 0.681042790 0.078458115
0.562299967 0.709478676 0.069333807
0.629583061 0.734543622 0.061525811
0.696593821 0.748623729 0.058552191
0.761202097 0.750858486 0.060438626
0.824581861 0.751616597 0.057028189
0.883217037 0.752879322 0.054280184
0.924549520 0.754337549 0.052805811
0.962397039 0.757013559 0.052232683
1.003485560 0.762809873 0.052507810
0.040529750 0.611723363 0.110992312
0.106638879 0.624251485 0.116202936
0.163694620 0.636216104 0.113498874
0.227733582 0.650560319 0.109153807
0.295077384 0.666931152 0.103727371
0.362616688 0.685331702 0.098429933
0.429136246 0.706981540 0.092632189
0.495615512 0.732896745 0.084689438
0.562130988 0.761004925 0.075319126
0.628604412 0.788358033 0.065425940
0.695258498 0.810948253 0.056781877
0.761910558 0.820942521 0.053683937
0.825982392 0.821732223 0.055115435
0.884209037 0.822219491 0.052257057
0.924814284 0.823347569 0.050313372
0.962705374 0.825432062 0.049887437
1.003722787 0.831183612 0.051389433
0.046100385 0.673545718 0.114577502
0.114487447 0.685253620 0.119326308
0.172551826 0.696477413 0.116544947
0.236646026 0.709940732 0.112243816
0.303055584 0.725252926 0.107021138
0.369201720 0.742448747 0.101957440
0.433679372 0.762160897 0.097255200
0.497776002 0.785736203 0.090850562
0.562741578 0.812315166 0.082050130
0.628398180 0.838664353 0.071606196
0.694860041 0.861210227 0.060647007
0.761891544 0.878342748 0.051890753
0.827919006 0.883638322 0.049712934
0.885643721 0.883196533 0.051471867
0.925965726 0.883931160 0.049830060
0.963455558 0.885619223 0.049060494
1.003902555 0.889822066 0.050551619
0.053641949 0.735542774 0.119164258
0.123473771 0.746318161 0.123325683
0.182235137 0.756562114 0.120207638
0.246200144 0.768681109 0.115832627
0.311802059 0.782444298 0.110811070
0.376743704 0.798061371 0.105963819
0.439809889 0.815773666 0.101826876
0.501869500 0.836498916 0.096855506
0.565133631 0.859315932 0.089271501
0.630084872 0.882026732 0.079582006
0.696287394 0.900283396 0.068871632
0.763284862 0.911411405 0.058310006
0.829368591 0.919997990 0.049376875
0.887836874 0.922989368 0.046793371
0.926564097 0.922759831 0.047667876
0.963966370 0.924422264 0.047393873
1.003905058 0.928233385 0.048755247
0.063230574 0.793930113 0.125646695
0.134134278 0.803910613 0.128794685
0.193587571 0.813170910 0.125215307
0.257421732 0.824248672 0.120646000
0.322121769 0.836645901 0.115668252
0.385806888 0.850821495 0.110869318
0.447684824 0.866780758 0.106600381
0.507984698 0.885036528 0.102557823
0.569267988 0.902434349 0.096654326
0.633148432 0.916299880 0.088426881
0.698824525 0.927987754 0.078729071
0.765572786 0.939450264 0.067609079
0.831605971 0.950209498 0.056141321
0.890039086 0.958461583 0.045770559
0.928515673 0.960692644 0.042780001
0.963952065 0.960369170 0.045146063
1.003904939 0.964452684 0.046659317
0.073669501 0.856537223 0.132760629
0.145565435 0.865648746 0.134699374
0.205869451 0.873836279 0.130600259
0.269681036 0.883650184 0.125678629
0.333534896 0.894561052 0.120467126
0.396207392 0.907323062 0.115706503
0.456980497 0.917625725 0.111510620
0.516380489 0.926364005 0.108072370
0.576326430 0.935710430 0.103995562
0.638772428 0.946210742 0.097747996
0.703786373 0.957495332 0.089213252
0.770294070 0.969092548 0.078864373
0.836405873 0.980472624 0.066606812
0.894048750 0.990791559 0.054022178
0.932141662 0.998478413 0.043486252
0.967987418 1.000020027 0.041987259
1.003903031 1.000020027 0.049940936
0.000000000 0.012033750 0.049478628
0.011463000 0.019951813 0.077778250
0.080005750 0.015150000 0.083677873
0.149062380 0.013185251 0.080075309
0.212139130 0.015774500 0.080580749
0.281201512 0.017487187 0.082398117
0.352719873 0.018033875 0.085155502
0.422104001 0.018108813 0.088421129
0.487998039 0.017701000 0.091836751
0.551138997 0.016497187 0.094992444
0.612758279 0.014901750 0.097901873
0.673863590 0.013766812 0.100758754
0.735308349 0.012817250 0.103394628
0.797758818 0.011611312 0.105683379
0.861080289 0.010372873 0.107957497
0.918007612 0.009168436 0.110176377
0.959438145 0.007112750 0.112668000
0.000000000 0.049320374 0.070359126
0.014102938 0.061565936 0.088015869
0.086470321 0.058313746 0.090504751
0.159721717 0.057266373 0.087822005
0.228667811 0.061673004 0.090425558
0.300736338 0.065950438 0.093254313
0.372664899 0.068953253 0.096264124
0.441218853 0.071071438 0.099387556
0.505937159 0.072135940 0.102359310
0.567984879 0.072304942 0.105027616
0.628704667 0.072042562 0.107479937
0.689058423 0.071678497 0.109814502
0.749791920 0.071227379 0.111887187
0.811634421 0.070631377 0.113636874
0.873541534 0.069800936 0.115385808
0.924222231 0.068982750 0.117057942
0.964737654 0.067956060 0.118993245
0.000000000 0.086690120 0.087438628
0.011338813 0.100537807 0.097835504
0.084727384 0.102777742 0.098371126
0.170756772 0.105256684 0.099316239
0.245822251 0.112789877 0.103803247
0.319504350 0.119226940 0.107411310
0.391245157 0.124028124 0.110367000
0.458979905 0.127599314 0.113080680
0.522939801 0.130202115 0.115785249
0.584527552 0.132004261 0.118373811
0.644955397 0.133244500 0.120674625
0.705043793 0.133992568 0.122618504
0.765405178 0.134349138 0.124161869
0.826765835 0.134407192 0.125427753
0.887152433 0.134276375 0.126529992
0.930823207 0.133912250 0.127479061
0.971089005 0.133606628 0.128428251
0.000000000 0.123806834 0.101236373
0.010872187 0.140921071 0.108610250
0.066364370 0.154269010 0.109329812
0.172797129 0.159751967 0.108140871
0.257009804 0.168562025 0.113638625
0.332658231 0.176132455 0.116482869
0.404264659 0.180872753 0.118288435
0.471786946 0.184056327 0.119934194
0.535822570 0.186382771 0.121680252
0.597664595 0.188223764 0.123458385
0.658360958 0.189675018 0.124980435
0.718644321 0.190798447 0.126235500
0.779254854 0.191685140 0.127229869
0.840234756 0.192360193 0.127998054
0.897676408 0.192904398 0.128621057
0.937330246 0.193485260 0.129212260
0.977798343 0.194689393 0.129937440
0.000000000 0.166650370 0.113881752
0.010872187 0.186572939 0.118069254
0.070557877 0.204582632 0.120847128
0.164441645 0.219647199 0.117525056
0.261284858 0.228711993 0.120019749
0.340787381 0.237577051 0.122131929
0.412326872 0.243470386 0.123263374
0.480072349 0.246946171 0.124330878
0.544811487 0.249344632 0.125500873
0.607812583 0.251225740 0.126574069
0.669859409 0.252697617 0.127557486
0.731383026 0.253821820 0.128281310
0.793012023 0.254793137 0.128759503
0.853551924 0.255722374 0.129082188
0.906903684 0.256720990 0.129281133
0.944122553 0.258072436 0.129526436
