hollywood-luts/Jason Bourne.cube
TITLE "17x17x17 Adobe/IRIDAS cube 3D LUT exported with GrossGrade v0.2.2 (beta) 64 bit"
DOMAIN_MIN 0 0 0
DOMAIN_MAX 1 1 1
LUT_3D_SIZE 5
0.000000000 0.001869000 0.009380000
0.228622258 0.009684250 0.009380000
0.502068043 0.011202500 0.009380000
0.747008026 0.008118500 0.009380000
0.964763999 0.004391000 0.009380000
0.000000000 0.170242012 0.061358750
0.259273022 0.224119008 0.010039499
0.537870467 0.234686255 0.009380000
0.792403817 0.242282242 0.009380000
0.986225784 0.251458764 0.009380000
0.010941505 0.379513502 0.045436002
0.265993237 0.445472270 0.029343501
0.564496994 0.528056502 0.009380000
0.816295505 0.532287478 0.009431500
1.001915932 0.547821045 0.010028500
0.041691501 0.615068495 0.063771755
0.289891273 0.666043818 0.044102252
0.561938763 0.759989023 0.014305251
0.825944304 0.821626544 0.009740750
1.003715277 0.830918550 0.010184750
0.074412003 0.859480023 0.085069999
0.327295244 0.893618464 0.062732503
0.575644493 0.935309529 0.039007999
0.836771011 0.980283260 0.014849501
1.003903031 1.000020027 0.027515000
0.000000000 0.026829751 0.115685999
0.190735996 0.017715501 0.154874250
0.454978764 0.026708752 0.161580756
0.707444012 0.021022750 0.193212256
0.946926236 0.013153001 0.218925759
0.000000000 0.174597010 0.179594263
0.257012516 0.236250743 0.221990243
0.546979785 0.267157525 0.241714492
0.786288798 0.274382502 0.252373010
0.979378045 0.273752004 0.256551743
0.015145007 0.362974524 0.224145263
0.281416982 0.450269550 0.265767246
0.561891794 0.527142465 0.260800511
0.815992296 0.540715039 0.259498000
1.001716256 0.552776515 0.258769512
0.040416501 0.592925251 0.257408738
0.303679019 0.664445043 0.280191004
0.563787282 0.760686994 0.264885008
0.825477779 0.821617544 0.251861513
1.003753662 0.832301319 0.255995244
0.065507248 0.832741737 0.278717011
0.332181007 0.890585065 0.292314768
0.574860096 0.934901476 0.288592517
0.834542751 0.980177999 0.262112498
1.003903031 1.000020027 0.244140252
0.000000000 0.042037498 0.298580527
0.150981754 0.027286749 0.314340502
0.402016997 0.028852999 0.304055035
0.633228779 0.041090999 0.322446227
0.831655979 0.040336002 0.364587009
0.000000000 0.199597001 0.347285002
0.232200012 0.280636489 0.435004294
0.523680568 0.289650261 0.426386774
0.734079778 0.296943247 0.435924768
0.934999526 0.302475750 0.469504774
0.034574006 0.378070027 0.403212517
0.265347987 0.471527517 0.483716786
0.555307031 0.530568957 0.505023479
0.803055048 0.552678943 0.514335513
0.989392519 0.552041054 0.522297025
0.067364752 0.566417754 0.452192515
0.277365476 0.643429041 0.506947756
0.556054294 0.725682974 0.523762524
0.812860012 0.797052026 0.530593514
1.002225280 0.828570545 0.525704503
0.075595006 0.803421497 0.498211503
0.289077997 0.866345525 0.535981059
0.542584062 0.921926022 0.549062490
0.823544264 0.969609737 0.525360763
1.002351522 0.996883988 0.515819550
0.011338251 0.036874749 0.445870519
0.142659500 0.038812250 0.458512247
0.365155280 0.041541249 0.467561483
0.612379551 0.047322251 0.475630522
0.765287995 0.052248500 0.488842785
0.000000000 0.229023501 0.504218042
0.218081251 0.301324755 0.595847011
0.463108510 0.281879485 0.574834764
0.686496496 0.269086480 0.566751957
0.858548999 0.290656745 0.595224023
0.050894756 0.402659267 0.563689530
0.259623259 0.496168256 0.649623990
0.522314787 0.548518777 0.685182333
0.738547504 0.563440442 0.684449792
0.924410999 0.579614460 0.702640712
0.078086749 0.585692763 0.614652276
0.269155502 0.650125504 0.671074986
0.522154510 0.705856740 0.708287776
0.760866523 0.747659504 0.728642464
0.979390264 0.800606489 0.770916998
0.108965501 0.774603248 0.671797276
0.286236525 0.824754000 0.713587761
0.513346255 0.873189569 0.739422500
0.773827255 0.931920528 0.757168770
0.985259235 0.974298775 0.779159486
0.011738000 0.036722999 0.577627003
0.140123755 0.041343749 0.592927992
0.347685516 0.051251002 0.617508531
0.605023265 0.049720999 0.624043763
0.757438004 0.053153999 0.631865978
0.000000000 0.248457506 0.669899702
0.214879513 0.318636000 0.753293991
0.434220761 0.294601500 0.730843008
0.657334030 0.262051255 0.701821566
0.827943265 0.281031013 0.725005746
0.064711504 0.442340016 0.737221479
0.259041011 0.525452733 0.817166984
0.502625465 0.567224026 0.845744491
0.721207738 0.562735796 0.834760785
0.894959509 0.581067979 0.848397970
0.087686755 0.613481998 0.776509762
0.270014763 0.674818993 0.833001971
0.513234496 0.727854788 0.867694974
0.744853020 0.754326820 0.885518014
0.913913012 0.764603019 0.890802503
0.114822000 0.786386013 0.817297995
0.287117511 0.829444230 0.854737759
0.509634495 0.871964455 0.880938530
0.743178010 0.902603984 0.898884773
0.927601993 0.917756021 0.909722984
