hollywood-luts/John Wick.cube
TITLE "17x17x17 Adobe/IRIDAS cube 3D LUT exported with GrossGrade v0.2.2 (beta) 64 bit"
DOMAIN_MIN 0 0 0
DOMAIN_MAX 1 1 1
LUT_3D_SIZE 17
0.000814000 0.007086000 0.005096000
0.053495873 0.008870062 0.004374125
0.126281753 0.013041999 0.004326000
0.202685207 0.012978312 0.006900001
0.273054510 0.009068750 0.013311751
0.335386753 0.007313812 0.017552063
0.392800510 0.007086000 0.018374875
0.448317587 0.007164188 0.017664438
0.503326058 0.008502500 0.016485000
0.558517754 0.011678750 0.014961250
0.614489496 0.015870126 0.013413625
0.671806335 0.020170124 0.012129562
0.731060028 0.024065249 0.010901750
0.792731404 0.027044252 0.009619624
0.857301056 0.029009877 0.008308124
0.924241066 0.029940186 0.006963999
0.989535987 0.029627999 0.005584000
0.000050875 0.039575063 0.010826938
0.040326811 0.042399749 0.010773500
0.104611188 0.048056561 0.007562250
0.180375695 0.049987189 0.009702314
0.255178630 0.047766875 0.014875313
0.324000180 0.045359936 0.018952811
0.386820197 0.047582880 0.019739250
0.446392715 0.052853629 0.018703001
0.504420221 0.059333812 0.017155312
0.561666071 0.065940499 0.015586500
0.618804812 0.071711749 0.014141126
0.676564813 0.076328874 0.012848938
0.735796988 0.079937376 0.011627374
0.797210455 0.082662754 0.010140311
0.861226439 0.084604621 0.008594561
0.927382290 0.085781187 0.007027624
0.990991950 0.086095497 0.005554000
0.000000000 0.076898500 0.021937374
0.029999938 0.080543064 0.020004436
0.087981492 0.087928250 0.022151627
0.164624006 0.095384315 0.018154813
0.241564482 0.096551374 0.019628376
0.314920187 0.095741123 0.022354249
0.381985396 0.099070124 0.022117622
0.444821656 0.105403997 0.020259747
0.505316377 0.112424627 0.018253500
0.564329624 0.119159244 0.016529376
0.622592509 0.125004128 0.015105250
0.680903733 0.129818812 0.013716125
0.740193367 0.133732110 0.012244251
0.801349640 0.136850432 0.010587811
0.865103304 0.139309868 0.008910373
0.930712700 0.141178936 0.007214498
0.992686749 0.142431751 0.005463625
0.000000000 0.121955320 0.033149317
0.024201624 0.125434190 0.030789629
0.071089812 0.131117254 0.028973253
0.147523686 0.142046511 0.036204625
0.231956452 0.150927067 0.027992316
0.307744890 0.152346268 0.026567377
0.378169835 0.154518023 0.025396001
0.443441600 0.160384327 0.022596437
0.505834579 0.167205453 0.019998560
0.566416860 0.173677951 0.018013125
0.625783443 0.179337457 0.016331250
0.684725106 0.184096575 0.014641751
0.744264662 0.188154384 0.012890749
0.805321395 0.191654265 0.011053810
0.868738472 0.194707692 0.009158873
0.933908105 0.197242573 0.007281499
0.994370997 0.199424878 0.005350250
0.000000000 0.170965001 0.044614751
0.021071251 0.174029127 0.043259315
0.062443994 0.179660752 0.040151626
0.127991647 0.187400132 0.039739378
0.214596003 0.201376006 0.047842752
0.301669985 0.211485699 0.034175877
0.375162154 0.213850006 0.030474000
0.442172229 0.218399629 0.026704373
0.505876541 0.224703252 0.023147499
0.567779362 0.230831206 0.020437000
0.628165603 0.236260757 0.018134626
0.687773466 0.240846992 0.015909376
0.747724473 0.244812250 0.013722500
0.808913529 0.248393804 0.011550123
0.872298241 0.251721978 0.009380124
0.937220395 0.254793823 0.007266498
0.996071994 0.257755756 0.005166500
0.000148500 0.221338063 0.056470688
0.019533999 0.223705560 0.055807937
0.057166439 0.229490131 0.053713623
0.118733570 0.237903059 0.049138375
0.195438564 0.246653646 0.053524252
0.286043376 0.262450546 0.060110625
0.370565891 0.274528384 0.039881870
0.440702796 0.279092997 0.032563619
0.505330801 0.284610122 0.027285375
0.568116426 0.290418506 0.023419250
0.629517913 0.295698434 0.020277500
0.689861059 0.300185919 0.017421875
0.750413299 0.304030299 0.014721625
0.812049448 0.307538331 0.012127497
0.875522614 0.310900986 0.009626372
0.940495431 0.314241171 0.007200748
0.997808456 0.317727119 0.004971375
0.000312875 0.272481531 0.068877876
0.019524751 0.274004638 0.068359129
0.054584377 0.279606521 0.067414507
0.112142146 0.289081097 0.063864760
0.187645748 0.299065292 0.058522254
0.268821180 0.307173073 0.073584996
0.359902769 0.323766530 0.072327510
0.438527703 0.338345975 0.045122184
0.504352033 0.346093893 0.032490876
0.567443609 0.351823896 0.026282627
0.629628420 0.356981277 0.022266375
0.690951347 0.361514986 0.018835314
0.752185822 0.365363508 0.015658123
0.814458489 0.368809789 0.012634309
0.878444314 0.372147381 0.009718872
0.943732798 0.375518262 0.006911060
0.999171615 0.379302770 0.004630125
0.001016188 0.324703097 0.081926197
0.020875813 0.325497150 0.081264511
0.054327253 0.330505699 0.081122823
0.107879892 0.340494365 0.079374015
0.180959702 0.352700591 0.074091941
0.264446318 0.362489134 0.071277007
0.345841765 0.368521839 0.098041631
0.434175462 0.385533541 0.083888941
0.504554510 0.402913123 0.048426636
0.565827906 0.414209217 0.029928822
0.628307641 0.419658601 0.023263689
0.690647662 0.424013674 0.019377811
0.752862036 0.427988023 0.015839122
0.815898538 0.431484282 0.012477371
0.880774558 0.434847414 0.009199183
0.946547687 0.438236475 0.006132811
0.999853730 0.442288339 0.004386375
0.002582501 0.378403008 0.095587000
0.023601249 0.378655076 0.094892189
0.056051128 0.383056164 0.095076248
0.106107511 0.392961502 0.094794318
0.176044255 0.406690747 0.091799505
0.260234594 0.419844449 0.085486315
0.346297741 0.427806258 0.090644762
0.424703330 0.431874573 0.123056188
0.506552517 0.448388517 0.094250001
0.568787515 0.467979193 0.050232388
0.625790238 0.482831895 0.025429130
0.688400865 0.487861633 0.018183686
0.751980543 0.491474748 0.014437499
0.816192806 0.494945616 0.010847371
0.882072985 0.498351991 0.007545122
0.948742509 0.501821399 0.005004499
1.000607014 0.506116509 0.004326000
0.005064500 0.433395743 0.109706752
0.027645562 0.433513075 0.109095499
0.059806559 0.437477291 0.109453313
0.107238263 0.446969688 0.110129125
0.174192205 0.461455941 0.109116934
0.257790357 0.477280200 0.104483247
0.347606152 0.489307255 0.099075817
0.430931330 0.494271010 0.115655079
0.503165543 0.496586740 0.145672485
0.575607240 0.512110174 0.103153318
0.632024825 0.532803595 0.051885564
0.686087906 0.550434768 0.020360375
0.749350309 0.555751562 0.011614937
0.814959168 0.559194088 0.007848060
0.882076979 0.562422633 0.005463936
0.950043738 0.565731585 0.004326000
1.001639366 0.569467366 0.004326000
0.008711375 0.488679379 0.123599373
0.033087686 0.489170790 0.123225875
0.065581992 0.493025243 0.123802125
0.111686699 0.502112508 0.125055820
0.176361993 0.516663671 0.125408500
0.258874446 0.534057796 0.122915432
0.350114882 0.549445629 0.116802253
0.438457608 0.558262229 0.115982883
0.514775693 0.559270978 0.142205253
0.578554869 0.560166001 0.164182693
0.641026497 0.575434804 0.111062631
0.694247425 0.596814156 0.053402312
0.748583496 0.615917623 0.016506499
0.812966585 0.622867465 0.005805061
0.881351471 0.626062632 0.004326000
0.950416148 0.628643095 0.004326000
1.002212048 0.631297708 0.004326000
0.013551063 0.542779386 0.136277184
0.039740436 0.543989062 0.136422187
0.073069878 0.548096240 0.137197942
0.118942760 0.557003379 0.138751745
0.182405502 0.571275234 0.139935806
0.263727248 0.589043975 0.138983563
0.354744166 0.606312752 0.135080755
0.444962710 0.618658721 0.129436120
0.525846183 0.622920454 0.136965573
0.593302071 0.619839430 0.166667625
0.648342490 0.620333195 0.178318560
0.703050256 0.636430979 0.119283877
0.756229460 0.658407986 0.056487303
0.813902557 0.678604722 0.016495490
0.881106257 0.686619341 0.006206061
0.950439274 0.689424098 0.004326000
1.002212048 0.692007720 0.004326000
0.019055251 0.594393730 0.147302508
0.046719000 0.596458077 0.147909760
0.081296884 0.600984573 0.148809507
0.127532512 0.609826148 0.150440574
0.190491498 0.623691022 0.152080506
0.270659387 0.641048312 0.152141005
0.360419273 0.658636272 0.149792254
0.450228482 0.672975361 0.144831002
0.533186257 0.680837274 0.141956985
0.604162216 0.680312216 0.159666687
0.663377404 0.674090147 0.187474862
0.711383760 0.675657988 0.189529821
0.762230754 0.693365991 0.129673243
0.818940759 0.715663314 0.064988539
0.881672561 0.736404061 0.021903746
0.949977994 0.747325957 0.007320253
1.002208471 0.752515018 0.004383256
0.024732379 0.643071234 0.156811401
0.053345256 0.645790696 0.157394513
0.089033693 0.650643587 0.158314392
0.135709196 0.659379780 0.159915894
0.198129073 0.672621250 0.161775887
0.276747674 0.688998818 0.162498578
0.364355087 0.705833793 0.161183268
0.452266902 0.720554471 0.157743394
0.535180092 0.730767250 0.151713267
0.609228492 0.733988464 0.153507307
0.671403289 0.729624987 0.179183364
0.724438131 0.722092927 0.203794360
0.768364072 0.726394951 0.198574260
0.818876624 0.746533871 0.141608760
0.880291045 0.770786881 0.075424455
0.946861923 0.793494999 0.028404826
1.001705289 0.809411168 0.009460595
0.029862879 0.689519107 0.165697277
0.059225377 0.692539275 0.165769264
0.095684260 0.697449923 0.166361377
0.142495513 0.705833554 0.167895019
0.203710869 0.718095839 0.169886276
0.279707491 0.732990742 0.170936957
0.363994151 0.748321831 0.170156524
0.448926836 0.762317538 0.167517647
0.530075014 0.773479939 0.163009003
0.605310023 0.779805422 0.158748582
0.671974242 0.779542685 0.166512117
0.728615820 0.773213983 0.193914980
0.777885377 0.766102910 0.215786621
0.821096301 0.774571955 0.204392880
0.873054445 0.798106313 0.151660025
0.938647628 0.825484991 0.086336143
0.998545408 0.850653470 0.038578812
0.034608442 0.735888302 0.175276697
0.064566940 0.738737762 0.174468756
0.101717822 0.743373752 0.174540386
0.148318261 0.750885844 0.175999954
0.207547933 0.761598766 0.177948132
0.279557914 0.774648905 0.179008320
0.358926892 0.787906766 0.178300202
0.439480722 0.800194860 0.175866693
0.517721355 0.811037064 0.172093317
0.592438817 0.819324672 0.166860029
0.662276089 0.823317826 0.165022761
0.724815607 0.821639717 0.177994937
0.779256284 0.814792037 0.205030367
0.826901972 0.808617949 0.224972188
0.871624470 0.821911633 0.206987128
0.924675763 0.848795235 0.161812142
0.990440369 0.879087687 0.098262817
0.039549999 0.784627020 0.186012000
0.069833122 0.786996067 0.184589818
0.107523121 0.791001379 0.184390873
0.154185712 0.797507465 0.185754821
0.211228251 0.806460738 0.187531739
0.278244495 0.816889822 0.188131437
0.351206392 0.827464521 0.186914861
0.425734848 0.837481499 0.184259504
0.499680996 0.847169995 0.180833504
0.572604775 0.856511116 0.176832184
0.644337356 0.864360631 0.171638995
0.713066161 0.868441880 0.171201810
0.775246024 0.866403222 0.187204003
0.829043746 0.858122706 0.215374961
0.874989510 0.850144506 0.235612720
0.920892954 0.868510783 0.209849581
0.976450980 0.897307992 0.168144003
0.000814000 0.008868188 0.052003812
0.052917439 0.009646311 0.046936624
0.127581924 0.012886375 0.042761996
0.203605279 0.016802374 0.041624688
0.274619937 0.012796061 0.045882560
0.337334752 0.008490812 0.049702063
0.394304276 0.007191000 0.051435504
0.448877484 0.007086000 0.051929314
0.502882123 0.007094687 0.051991500
0.557268441 0.007974063 0.052044500
0.612620294 0.010257687 0.052213751
0.669512928 0.013387000 0.052468002
0.728675246 0.016867502 0.052823938
0.790463984 0.020912442 0.053217873
0.855368435 0.024690317 0.053537376
0.922778428 0.027369751 0.053929187
0.988885403 0.028385812 0.054284312
0.000242125 0.048728809 0.046431314
0.038573682 0.047720063 0.054831311
0.102431938 0.053584252 0.050130811
0.177803636 0.058790252 0.047708750
0.253666073 0.058154564 0.050340749
0.323630631 0.055211935 0.054094624
0.387000531 0.055946004 0.055648316
0.446657658 0.059735812 0.055889308
0.504480600 0.064812250 0.056063876
0.561455548 0.070190869 0.056347437
0.618430912 0.075163625 0.056659937
0.676095068 0.079410747 0.057002373
0.735241294 0.082992755 0.057297688
0.796638727 0.086061187 0.057569183
0.860677898 0.088529937 0.057825312
0.927173197 0.090197012 0.058018252
0.991111040 0.090723939 0.058080249
0.000012750 0.088847004 0.056706123
0.026369063 0.090080880 0.060406499
0.084744371 0.095550694 0.059299566
0.161640003 0.103520438 0.056337126
0.239559188 0.105588689 0.056284435
0.313707501 0.105420314 0.058192126
0.381832361 0.107125498 0.059138186
0.445088029 0.111954503 0.058936812
0.505638897 0.117915682 0.058617812
0.564697444 0.123727255 0.058541566
0.622970581 0.128873885 0.058589440
0.681178033 0.133224249 0.058593001
0.740389347 0.136873767 0.058593810
0.801620543 0.139978006 0.058630560
0.865153015 0.142553434 0.058633871
0.930608332 0.144435003 0.058564063
0.992791831 0.145565689 0.058442250
0.000000000 0.133985639 0.075115621
0.023141438 0.135270819 0.074291058
0.069034815 0.138871133 0.069240063
0.144901261 0.149375141 0.069517195
0.229689628 0.158460706 0.065417126
0.306364626 0.160086766 0.064267874
0.377940446 0.161312386 0.064518377
0.443850219 0.165954575 0.063422315
0.506479263 0.171940088 0.062206186
0.567206979 0.177696511 0.061396938
0.626618981 0.182804510 0.060852066
0.685458779 0.187199757 0.060420997
0.744835258 0.191011935 0.060064249
0.805864513 0.194354951 0.059756309
0.869141638 0.197299883 0.059455998
0.934134126 0.199745193 0.059154816
0.994560421 0.201724887 0.058798309
0.000000000 0.183294430 0.088588566
0.020827688 0.184033379 0.086624496
0.060189817 0.187246129 0.081382439
0.125438228 0.193534136 0.075124443
0.211693704 0.207407877 0.081322938
0.299645931 0.217938766 0.073333815
0.374172032 0.219539136 0.071116500
0.442464918 0.222629264 0.069086879
0.506618559 0.227962881 0.066617996
0.568619847 0.233415380 0.064790681
0.629142880 0.238341808 0.063474566
0.688771844 0.242633879 0.062438000
0.748527646 0.246466190 0.061626129
0.809598684 0.249998063 0.060958624
0.872778177 0.253309190 0.060350500
0.937593341 0.256297946 0.059790440
0.996309042 0.259094864 0.059223309
0.000148500 0.234052747 0.099787250
0.019640125 0.233928487 0.098287940
0.054786623 0.236882120 0.094190121
0.114658393 0.243222177 0.087527253
0.192209318 0.251153827 0.084823370
0.283187777 0.266995430 0.093443625
0.369233787 0.279036641 0.080323502
0.440708041 0.282150924 0.075968310
0.506003261 0.286616564 0.071869314
0.568884075 0.291689068 0.068731688
0.630340695 0.296422869 0.066540934
0.690775037 0.300610542 0.064829938
0.751145959 0.304367721 0.063459933
0.812650383 0.307923824 0.062341310
0.876084089 0.311383873 0.061374564
0.940827072 0.314727932 0.060481809
0.997902870 0.318188488 0.059644818
0.000426000 0.285348684 0.110821940
0.019891001 0.284569323 0.109922253
0.052051373 0.287052572 0.106937379
0.107214205 0.293808311 0.102091379
0.182270959 0.302367896 0.094375879
0.265188843 0.310232818 0.100181878
0.357240260 0.326925874 0.105498761
0.437789857 0.341075957 0.086542308
0.504742682 0.347472608 0.078154564
0.568083167 0.352509648 0.073011875
0.630329490 0.357025564 0.069811814
0.691633523 0.361173451 0.067434058
0.752796650 0.364904404 0.065513059
0.814990342 0.368413687 0.063896745
0.878910422 0.371872008 0.062493939
0.943932712 0.375343651 0.061205629
0.999251604 0.379222125 0.060017936
0.001427751 0.337397397 0.122460872
0.021691252 0.336301267 0.122039184
0.051919375 0.338269919 0.119872995
0.102619141 0.345113635 0.116813332
0.174125493 0.355148971 0.110519253
0.258272380 0.364091903 0.102513008
0.341819435 0.370337158 0.120937012
0.432070971 0.387513340 0.116943702
0.504498243 0.404340029 0.091203511
0.566544235 0.414609402 0.078163885
0.629001915 0.419644147 0.072814502
0.691253722 0.423638016 0.069782250
0.753342509 0.427442253 0.067370690
0.816379786 0.430957407 0.065297253
0.881107092 0.434385419 0.063422062
0.946692169 0.437877089 0.061671630
0.999893904 0.442020595 0.060068060
0.003543813 0.390636325 0.134787440
0.025027189 0.389556348 0.134713382
0.054266438 0.391106397 0.133147687
0.101172388 0.397658080 0.131581634
0.168484390 0.408704937 0.127689078
0.251629561 0.420400321 0.119393945
0.339507699 0.428184390 0.116744012
0.420735598 0.432543129 0.144262806
0.505356133 0.449373692 0.127931505
0.569211662 0.468680024 0.094504885
0.626652539 0.482839704 0.076591566
0.689160049 0.487701714 0.071041316
0.752558231 0.491194755 0.068233192
0.816615105 0.494683743 0.065770626
0.882433653 0.498106241 0.063471623
0.948901892 0.501651943 0.061252378
1.000626087 0.506021023 0.059237313
0.006591063 0.444950491 0.147429317
0.029500686 0.444216549 0.147812441
0.058566373 0.445621878 0.146774620
0.102893762 0.451830536 0.146321431
0.166368261 0.463271320 0.144486129
0.247477189 0.477131069 0.138906434
0.337590694 0.488594949 0.130329952
0.424116850 0.493937820 0.137735382
0.499951035 0.496720582 0.166926801
0.575316489 0.512633801 0.137978867
0.632673323 0.533388257 0.097589374
0.686815858 0.550648868 0.074202001
0.750088751 0.555764735 0.067586437
0.815269232 0.559209049 0.064344063
0.882403433 0.562450290 0.061696190
0.950133502 0.565809071 0.059390500
1.001658440 0.569571793 0.057946250
0.010401313 0.499306113 0.159750685
0.034958940 0.499241441 0.160819814
0.064445123 0.500898004 0.160264552
0.107519582 0.506964326 0.160651505
0.168262377 0.518400431 0.160334319
0.247221768 0.533472776 0.157119125
0.337620586 0.547963440 0.149624676
0.428589076 0.557116807 0.142794073
0.508967400 0.559109688 0.162239954
0.576656520 0.560665369 0.186631247
0.641473114 0.576205790 0.147238314
0.695180535 0.597607613 0.100838065
0.749096692 0.616444588 0.071594127
0.813219726 0.623029768 0.062317561
0.881452680 0.626173973 0.059109002
0.950415015 0.628760993 0.057532877
1.002212048 0.631428778 0.057257250
0.015150437 0.552229047 0.170952827
0.041471999 0.553072214 0.172739685
0.071826309 0.555261850 0.172698066
0.114598326 0.561430216 0.173715442
0.173758134 0.572751343 0.174436182
0.250864446 0.588163793 0.172944680
0.340333551 0.604347467 0.167932302
0.432607353 0.617006242 0.159166619
0.517915845 0.622369111 0.159348011
0.589501977 0.620643020 0.186464936
0.648050547 0.621714354 0.202748388
0.704199672 0.637833834 0.157053560
0.757540166 0.659553051 0.105339862
0.814206541 0.679285526 0.071116865
0.881151617 0.686861753 0.059685934
0.950432003 0.689457417 0.057334498
1.002212048 0.692171872 0.057257250
0.020716127 0.602590799 0.180602759
0.048470318 0.604322553 0.182896137
0.079890065 0.607112586 0.183327362
0.122956313 0.613528728 0.184744120
0.181290925 0.624730408 0.186142951
0.256832808 0.639935195 0.185796753
0.344702214 0.656491280 0.182559371
0.436137229 0.671035886 0.176195249
0.523169935 0.680052042 0.169739634
0.599070787 0.681066632 0.180283755
0.661979318 0.676177323 0.207890302
0.712623179 0.678045928 0.215953767
0.764030993 0.695514023 0.168633059
0.820566654 0.717307091 0.114122793
0.882143557 0.737449944 0.076832607
0.950094342 0.747619867 0.061286002
1.002209067 0.752712190 0.057275005
0.026234819 0.650070786 0.189087063
0.054983072 0.652363181 0.191364259
0.087277323 0.655604839 0.191942513
0.130799010 0.662237406 0.193562135
0.188665003 0.673171937 0.195376262
0.262640625 0.687790513 0.195772707
0.348267019 0.703753173 0.193679780
0.437600821 0.718620002 0.189059645
0.524072468 0.729772806 0.181858510
0.602575660 0.734489977 0.179957956
0.669015527 0.731753707 0.200024188
0.724981904 0.725302577 0.225149632
0.770629942 0.729643941 0.226438999
0.820958436 0.749370039 0.181144446
0.881814480 0.772801697 0.124439761
0.947591186 0.794683754 0.084412262
1.001724958 0.809710085 0.062928662
0.031161070 0.695423961 0.197132319
0.060582813 0.697883129 0.198846132
0.093607947 0.701392472 0.199251890
0.137374818 0.707971394 0.200918019
0.194511190 0.718276203 0.202975646
0.266339183 0.731823027 0.203820467
0.348776847 0.746422529 0.202374399
0.434828252 0.760475874 0.198730528
0.518995106 0.772397101 0.193184391
0.597931862 0.779928029 0.186932951
0.668330371 0.781042635 0.190475509
0.727983356 0.776081443 0.215166122
0.779460430 0.769854784 0.237719864
0.823704481 0.778265476 0.232912943
0.875124872 0.801212549 0.191133946
0.939974427 0.827514410 0.134957269
0.998696268 0.851984501 0.093805619
0.035835944 0.740554750 0.205876768
0.065471128 0.742843032 0.206712887
0.099017382 0.746110678 0.206797957
0.142835945 0.752198756 0.208522573
0.198766008 0.761580825 0.210790008
0.267473072 0.773496628 0.211750895
0.345387697 0.786289930 0.210466951
0.426722258 0.798779964 0.207198322
0.507213056 0.810147107 0.202506647
0.584660828 0.819182038 0.196470514
0.657237351 0.824168801 0.192076564
0.722428858 0.823691666 0.200301677
0.778935790 0.818176746 0.226245850
0.828514457 0.812793016 0.246863246
0.873852074 0.825656891 0.235889822
0.926564038 0.851844966 0.199960709
0.991029322 0.881131172 0.146365374
0.040493123 0.788027346 0.216035426
0.070113435 0.789879799 0.215924829
0.104044437 0.792769551 0.215879887
0.147757262 0.798128247 0.217890203
0.202182323 0.805948317 0.220416635
0.266992480 0.815626383 0.221297503
0.339099497 0.825953543 0.219640180
0.414374411 0.836099625 0.216109008
0.489975095 0.846123040 0.211676866
0.564632177 0.855818093 0.206869692
0.637732327 0.864167690 0.201333374
0.707997739 0.869335949 0.198424935
0.772404611 0.868913174 0.209090263
0.828060329 0.861949027 0.235997140
0.875760555 0.854586542 0.256828547
0.922671854 0.872169554 0.238991782
0.977711976 0.899964869 0.205778062
0.000721250 0.014342874 0.099977374
0.048344687 0.012179250 0.091922060
0.124889493 0.013735250 0.085833751
0.204446524 0.018604375 0.081867501
0.273733884 0.021535249 0.081910126
0.336629689 0.016343188 0.085102439
0.394244015 0.010765375 0.087385125
0.448866785 0.008301687 0.088785186
0.502444386 0.007387500 0.090010747
0.556228220 0.007086000 0.091248311
0.611045837 0.007458125 0.092639118
0.667528212 0.008546125 0.094219998
0.726395786 0.010642376 0.095975995
0.788123906 0.014157379 0.097939566
0.853219032 0.018609006 0.099997997
0.921035528 0.023056127 0.102168687
0.987871647 0.025534499 0.104388125
0.000269250 0.058403499 0.098912872
0.035815693 0.054623626 0.100620002
0.098366626 0.055884749 0.093313694
0.175155461 0.062012188 0.088064313
0.249812528 0.067027256 0.086496934
0.320611179 0.065289006 0.088576436
0.385367870 0.063289374 0.090741187
0.445482463 0.064113624 0.092112623
0.503411710 0.066823065 0.093179747
0.560372472 0.070285872 0.094274625
0.617154002 0.073927313 0.095559940
0.674664497 0.077476561 0.097066060
0.733784616 0.080831505 0.098743752
0.795166016 0.084045693 0.100573003
0.859505057 0.087017000 0.102510065
0.926167011 0.089284316 0.104514875
0.990504146 0.090361126 0.106567934
0.000025500 0.104593873 0.092959747
0.022626312 0.101760745 0.097747751
0.078751869 0.100852631 0.101229377
0.154230133 0.109873123 0.097256258
0.232878000 0.115526125 0.095490754
0.308449060 0.116831884 0.096423440
0.378424644 0.117253244 0.098419502
0.442959517 0.120463058 0.099385314
0.504274428 0.125144005 0.099983498
0.563843012 0.129960805 0.100757182
0.622441828 0.134418875 0.101735249
0.680873454 0.138331994 0.102942936
0.740157008 0.141759738 0.104331873
0.801214874 0.144821495 0.105890252
0.864919424 0.147419989 0.107538998
0.930474818 0.149304882 0.109156877
0.992945015 0.150203735 0.110734001
0.000000000 0.149618506 0.110401198
0.013938939 0.148432449 0.109683566
0.062305313 0.148218334 0.109828942
0.138126761 0.155674323 0.108399749
0.222686261 0.166611955 0.106640622
0.300579190 0.169440314 0.105393618
0.373705894 0.170535207 0.105857313
0.441351146 0.173613578 0.105866492
0.505045116 0.178404644 0.105411068
0.566408575 0.183364511 0.105200127
0.626264215 0.187893584 0.105408683
0.685351312 0.191881880 0.105968624
0.744901955 0.195395753 0.106820561
0.806101978 0.198535830 0.107921809
0.869352102 0.201342955 0.109161943
0.934394836 0.203606948 0.110458247
0.994730413 0.205240563 0.111765876
0.000000000 0.197697133 0.131908253
0.015255437 0.195582062 0.128498197
0.056451753 0.196126640 0.124848254
0.119683817 0.200513244 0.116739191
0.204751641 0.213853627 0.119179003
0.293726832 0.225407436 0.116170309
0.369557768 0.227261499 0.114228114
0.439903706 0.228922695 0.113372378
0.505278766 0.233175904 0.111551628
0.567942619 0.238010943 0.110101692
0.628902197 0.242452875 0.109405257
0.688771009 0.246389806 0.109248877
0.748720944 0.249951765 0.109524623
0.810021520 0.253287196 0.110130005
0.873168111 0.256419629 0.110965878
0.937929630 0.259192884 0.111924812
