hollywood-luts/John Wick.cube
TITLE "17x17x17 Adobe/IRIDAS cube 3D LUT exported with GrossGrade v0.2.2 (beta) 64 bit"
DOMAIN_MIN 0 0 0
DOMAIN_MAX 1 1 1
LUT_3D_SIZE 5
0.000814000 0.007086000 0.005096000
0.273054510 0.009068750 0.013311751
0.503326058 0.008502500 0.016485000
0.731060028 0.024065249 0.010901750
0.989535987 0.029627999 0.005584000
0.000000000 0.170965001 0.044614751
0.214596003 0.201376006 0.047842752
0.505876541 0.224703252 0.023147499
0.747724473 0.244812250 0.013722500
0.996071994 0.257755756 0.005166500
0.002582501 0.378403008 0.095587000
0.176044255 0.406690747 0.091799505
0.506552517 0.448388517 0.094250001
0.751980543 0.491474748 0.014437499
1.000607014 0.506116509 0.004326000
0.019055251 0.594393730 0.147302508
0.190491498 0.623691022 0.152080506
0.533186257 0.680837274 0.141956985
0.762230754 0.693365991 0.129673243
1.002208471 0.752515018 0.004383256
0.039549999 0.784627020 0.186012000
0.211228251 0.806460738 0.187531739
0.499680996 0.847169995 0.180833504
0.775246024 0.866403222 0.187204003
0.976450980 0.897307992 0.168144003
0.000443500 0.044044502 0.199263245
0.267060488 0.027921252 0.161320508
0.499597251 0.029162999 0.176293761
0.724047542 0.011227750 0.190596759
0.985878468 0.017803499 0.208719760
0.000000000 0.230891004 0.202620506
0.174972251 0.220948994 0.198013008
0.494751781 0.247076258 0.208489254
0.746815324 0.259642512 0.211332768
0.996515036 0.267846256 0.222818762
0.007642251 0.423348784 0.270179003
0.139640480 0.421392500 0.254418522
0.477657527 0.463706493 0.249137506
0.752386212 0.494171768 0.232704759
1.000746012 0.507743537 0.236359507
0.026260501 0.625383496 0.301957250
0.158456504 0.633333325 0.298293740
0.478504509 0.678721309 0.279066741
0.763278544 0.704539239 0.286979258
1.002211094 0.753247261 0.238885269
0.043260753 0.799676538 0.324413747
0.176121995 0.807008505 0.322681993
0.455570251 0.843686759 0.323062509
0.762084782 0.874317467 0.284352005
0.980402470 0.907343984 0.315793008
0.000776500 0.113284506 0.384393007
0.202239990 0.031309001 0.316024005
0.495390475 0.065436505 0.310001493
0.713677526 0.056608252 0.358453512
0.985177994 0.027818002 0.437244505
0.000029252 0.292418718 0.346551776
0.135537773 0.262275994 0.363430738
0.456284761 0.246273756 0.330208719
0.733003259 0.262210011 0.386920989
0.995021462 0.266684264 0.451724529
0.000000000 0.448886514 0.403772503
0.042254247 0.459594250 0.412887514
0.411582023 0.469231009 0.411620498
0.751174748 0.497593284 0.454697520
1.000980496 0.508152485 0.479699522
0.033816751 0.645372808 0.483664274
0.141339004 0.655224800 0.478636503
0.382593751 0.679232001 0.474075496
0.748775482 0.722084045 0.474991977
1.002212048 0.752707541 0.483810008
0.048123501 0.817144513 0.508184016
0.156549245 0.817902267 0.487122536
0.387583017 0.840129495 0.488334507
0.736374021 0.883047283 0.457712770
0.982474506 0.921018481 0.482846022
0.005773750 0.163690001 0.553445518
0.186590254 0.045602750 0.466547757
0.428305507 0.066766508 0.460087776
0.695398211 0.098990001 0.458162248
0.918603003 0.102256998 0.520985007
0.039304003 0.349151015 0.511525273
0.124868996 0.312071741 0.551334262
0.367315501 0.249744251 0.505753517
0.708212793 0.263059020 0.465229243
0.940898240 0.280365527 0.539084494
0.000000000 0.488560528 0.524190485
0.027008750 0.504934549 0.542316020
0.302549243 0.498820245 0.547745705
0.709036946 0.475844264 0.515967250
0.981418490 0.495651782 0.637464464
0.000000000 0.658814251 0.606067240
0.027008750 0.678710520 0.623492718
0.267766237 0.698079944 0.643925726
0.705141008 0.731308222 0.643304467
0.999245763 0.737706482 0.703708053
0.048922993 0.835881710 0.687916994
0.161272213 0.839249969 0.681236506
0.309664518 0.846164048 0.671607494
0.657387495 0.885307491 0.651941299
0.979206741 0.929865479 0.674805045
0.009600000 0.218573004 0.714883983
0.204085499 0.065268748 0.609472513
0.408346534 0.072155498 0.597977519
0.662599564 0.106902502 0.603182256
0.891134977 0.146507993 0.607128024
0.104414754 0.391912252 0.685142994
0.117935002 0.345109999 0.717699230
0.340660751 0.255790502 0.652285993
0.649633288 0.260491997 0.612764478
0.908531249 0.299401492 0.610618234
0.000000000 0.541936517 0.656610966
0.027008750 0.544294477 0.665551007
0.299571514 0.501007497 0.677573979
0.638616800 0.450846761 0.659254968
0.924911499 0.480362028 0.635498047
0.000000000 0.680656731 0.708910465
0.027008750 0.690418005 0.718592286
0.178114012 0.706604481 0.736078024
0.595721781 0.714677036 0.758894265
0.956130981 0.720787287 0.744790018
0.000000000 0.837749004 0.788469970
0.027008750 0.849203467 0.798598468
0.165170014 0.862193465 0.810891986
0.434304535 0.885561764 0.837965012
0.957488000 0.949154973 0.840112984
