hollywood-luts/Joker.cube
TITLE "17x17x17 Adobe/IRIDAS cube 3D LUT exported with GrossGrade v0.2.2 (beta) 64 bit"
DOMAIN_MIN 0 0 0
DOMAIN_MAX 1 1 1
LUT_3D_SIZE 17
0.000000000 0.007086000 0.004326000
0.040090311 0.010106625 0.007231312
0.086762369 0.012730875 0.009773500
0.136539519 0.014619125 0.011634875
0.187352762 0.015508249 0.012461000
0.240624055 0.015216438 0.012267687
0.296490639 0.013751125 0.010933000
0.353254616 0.012232187 0.009999063
0.416339517 0.012063000 0.010358000
0.487714171 0.012921062 0.011413875
0.564679742 0.013872625 0.012573375
0.644830406 0.014860750 0.013795562
0.719975531 0.015774000 0.014928250
0.781150997 0.016490063 0.015814375
0.827033877 0.016989749 0.016426375
0.843416452 0.017058000 0.016512999
0.855543971 0.017058000 0.016512999
0.000083438 0.069211312 0.004326000
0.038889378 0.069244131 0.004452563
0.088695683 0.068625629 0.008088500
0.148265496 0.065755814 0.014623500
0.206883892 0.063064061 0.018328624
0.262225181 0.061000630 0.019399500
0.315775007 0.059347689 0.019273937
0.369467348 0.057497308 0.018699251
0.427983761 0.055177376 0.018195562
0.494344234 0.052386254 0.017966937
0.567910194 0.049171563 0.018019687
0.646188200 0.046092626 0.018377749
0.721013963 0.044594005 0.019112937
0.783739984 0.046172254 0.020260939
0.832314849 0.048536815 0.021316439
0.851801157 0.048337001 0.021412499
0.863949597 0.048576750 0.021453625
0.000111750 0.122457996 0.004326000
0.035253190 0.120585069 0.004334438
0.081895627 0.121441245 0.004395375
0.135260016 0.122885749 0.005940940
0.193022639 0.119903751 0.012551250
0.259671032 0.114024438 0.021418625
0.328275383 0.108174756 0.027118750
0.395063639 0.103103563 0.029230874
0.461821139 0.098720998 0.029120374
0.530469239 0.095111251 0.028225187
0.602138758 0.092427626 0.027509376
0.676464677 0.090713434 0.027338000
0.747493923 0.090684749 0.027855126
0.809044600 0.093834884 0.029250752
0.858929634 0.098108128 0.030850001
0.880673945 0.098746315 0.031130062
0.893219590 0.099194124 0.031239126
0.000129625 0.172720760 0.004326000
0.030764002 0.166537076 0.004326000
0.077307999 0.171366766 0.004329750
0.124958694 0.168931827 0.004386812
0.184370697 0.174806952 0.005176000
0.242881685 0.173020393 0.009870248
0.312326074 0.166585073 0.020780627
0.390058696 0.158450395 0.031218566
0.470399082 0.150707334 0.037447564
0.551914930 0.144301519 0.039807811
0.634705544 0.139735505 0.040053628
0.716655135 0.137382507 0.039736189
0.790815830 0.137895077 0.040055443
0.853306413 0.142231196 0.041712005
0.904458225 0.147914320 0.043810379
0.928101957 0.149124190 0.044250570
0.941010773 0.149829388 0.044457380
0.000144250 0.221239001 0.004326000
0.027380500 0.217002079 0.004326000
0.069877751 0.215796754 0.004326000
0.123640567 0.225477323 0.004329812
0.170155019 0.218266994 0.004404250
0.237194747 0.228432253 0.004954750
0.299742669 0.227704003 0.008370752
0.369291425 0.221816018 0.018585570
0.454581261 0.212650761 0.032785255
0.548695266 0.203458324 0.043818191
0.645125985 0.196268633 0.050055623
0.739138603 0.191925123 0.052975748
0.822879016 0.191388249 0.054611504
0.891369820 0.195744246 0.056757752
0.943545997 0.202165753 0.059215628
0.963794589 0.204024017 0.059833065
0.976473749 0.205093503 0.060123004
0.000156250 0.268565863 0.004326000
0.022583311 0.266547114 0.004326000
0.063371688 0.264753997 0.004326000
0.114880823 0.273392379 0.004326000
0.172275931 0.283396184 0.004331250
0.218760625 0.271569937 0.004420313
0.293774396 0.285727441 0.004845938
0.361123711 0.285842896 0.007563630
0.434106082 0.280981481 0.016505443
0.526037335 0.272322893 0.032880187
0.632031381 0.263210565 0.048430126
0.738934159 0.256575584 0.059088875
0.833269179 0.254633307 0.065048873
0.908887506 0.258780181 0.069104627
0.963541031 0.265647918 0.072234496
0.981400430 0.268139571 0.072885811
0.993817866 0.269718319 0.073119253
0.000168750 0.319930285 0.004326000
0.017042808 0.319542140 0.004326000
0.056884874 0.319568038 0.004326000
0.105777256 0.323531032 0.004326000
0.163913637 0.338243276 0.004326000
0.224416554 0.345693409 0.004332187
0.272458136 0.330470890 0.004441250
0.354006767 0.347365588 0.004773876
0.428452879 0.348533154 0.007192876
0.507936001 0.345344275 0.015087124
0.604738891 0.338791519 0.031760745
0.715858221 0.331576198 0.050354183
0.820076287 0.328223020 0.063926250
0.904631674 0.331776530 0.072050437
0.966157556 0.338612020 0.077033244
0.987452745 0.341552317 0.078169122
0.999206007 0.343661159 0.078201748
0.000181312 0.377049178 0.004326000
0.011139935 0.377508521 0.004326000
0.049755935 0.379440844 0.004326000
0.097739883 0.382065535 0.004326000
0.153682187 0.392924219 0.004326000
0.217462808 0.408557266 0.004326000
0.281211942 0.412682712 0.004341125
0.333470106 0.397478729 0.004471250
0.420775443 0.414093047 0.004773500
0.503606081 0.416784346 0.007088686
0.590116680 0.415941954 0.014057559
0.687207699 0.412957758 0.028782118
0.787967801 0.410792351 0.045894302
0.875444829 0.414140582 0.058379058
0.943153322 0.420445859 0.066517115
0.969506562 0.423601866 0.068545617
0.980366170 0.426308513 0.068047114
0.000194000 0.439456522 0.004326000
0.007477250 0.441494256 0.004326000
0.042632248 0.445452899 0.004326000
0.090793326 0.449309826 0.004326000
0.145774752 0.456013024 0.004326000
0.208019257 0.469014585 0.004326000
0.277397901 0.483368754 0.004327625
0.344571412 0.485060513 0.004358250
0.407922029 0.475269496 0.004511500
0.498129755 0.487280905 0.004846563
0.587984860 0.490831912 0.007150374
0.677729666 0.492273927 0.013042498
0.764509082 0.494164526 0.023349497
0.843014121 0.499467015 0.034246188
0.908379912 0.506472647 0.042767871
0.935983062 0.510069489 0.044948496
0.947019458 0.513106525 0.044155993
0.000206250 0.506388903 0.004326000
0.006328375 0.509470105 0.004326000
0.037526686 0.516053498 0.004326000
0.085966825 0.523508072 0.004326000
0.142141566 0.530485094 0.004326000
0.203564450 0.538998485 0.004326000
0.271541268 0.550265551 0.004326000
0.344404042 0.560351610 0.004330125
0.417796582 0.561429441 0.004390188
0.494958639 0.558834851 0.004574063
0.586168051 0.564929724 0.004987500
0.677967012 0.568219423 0.007289875
0.760795414 0.572183430 0.011619500
0.831003368 0.579576373 0.016912069
0.889176846 0.588481307 0.021813126
0.915253103 0.592753768 0.023180624
0.927254975 0.595844984 0.022638749
0.000217875 0.576367855 0.004326000
0.006051375 0.579161406 0.004326000
0.034973249 0.587126970 0.004326000
0.083754510 0.597078562 0.004326000
0.141760245 0.607167423 0.004326000
0.204723999 0.616423965 0.004326000
0.271831155 0.623961449 0.004326000
0.343591899 0.631278753 0.004326000
0.420140266 0.636261344 0.004339625
0.500928044 0.637557328 0.004453125
0.588130713 0.638907492 0.004666125
0.679234803 0.642308116 0.005196437
0.762921512 0.646183372 0.007212875
0.832458138 0.653924108 0.009826628
0.888762891 0.663416803 0.012320750
0.914382100 0.667899966 0.013106750
0.926802754 0.671235859 0.012863625
0.000229750 0.648055971 0.004326000
0.006083813 0.650555372 0.004326000
0.035423875 0.658303380 0.004326000
0.084738195 0.667951941 0.004326000
0.143595144 0.678750336 0.004326000
0.207965881 0.689742684 0.004326000
0.275944948 0.697788894 0.004326000
0.347088426 0.703246593 0.004416937
0.423597246 0.707749367 0.004408813
0.505183101 0.709927440 0.004375187
0.592612028 0.711416245 0.004550813
0.682853878 0.713809669 0.004770813
0.766533434 0.718234301 0.005354750
0.836679041 0.725632131 0.007029127
0.893391371 0.734896421 0.009106627
0.919167519 0.739400864 0.010173437
0.931629598 0.743079305 0.010155187
0.000240750 0.720897257 0.004326000
0.006472065 0.723028660 0.004326000
0.039225753 0.730360150 0.004326000
0.089787573 0.739549398 0.004326002
0.148874253 0.749559522 0.004380003
0.213355884 0.760007381 0.004782004
0.281919271 0.768596768 0.005638005
0.352921754 0.773603201 0.006363442
0.429144263 0.777413726 0.006743755
0.511526585 0.780549943 0.006147505
0.599050283 0.782187283 0.005196005
0.689307630 0.784336090 0.004960379
0.772256732 0.788442492 0.005197504
0.841997027 0.795815587 0.006838881
0.899091542 0.804953933 0.009717881
0.925154209 0.809620738 0.012652379
0.937623739 0.813358724 0.012961004
0.000260439 0.794387579 0.004515379
0.009109700 0.796043813 0.004356191
0.047138579 0.802712142 0.004772443
0.099388532 0.811011493 0.005353135
0.158568397 0.819969714 0.006636951
0.222851455 0.829146445 0.008689892
0.291901052 0.837750137 0.011734207
0.363481432 0.843239963 0.014636520
0.439288735 0.846158624 0.016486771
0.521727920 0.848800898 0.016347334
0.609739423 0.850871503 0.013590709
0.699512780 0.852592170 0.010000894
0.781863153 0.856086135 0.008473707
0.850190043 0.862488806 0.009592902
0.906245172 0.870684981 0.015857527
0.931856692 0.874822021 0.019625340
0.944460928 0.878589630 0.020153712
0.001583136 0.869744182 0.007710518
0.020892899 0.870872498 0.007160833
0.064149275 0.876170039 0.009517899
0.117633857 0.882449210 0.012763714
0.176369533 0.889552355 0.018042028
0.240071476 0.897072315 0.023914965
0.309143186 0.904662609 0.029313779
0.381627411 0.910297096 0.033370465
0.457639039 0.913187742 0.035874277
0.539477706 0.914865494 0.036670089
0.627388000 0.916435421 0.034425899
0.716307044 0.917493522 0.029200461
0.796470284 0.919244289 0.023588404
0.862457395 0.923424244 0.024491612
0.915044785 0.928606927 0.033421077
0.939856291 0.932060540 0.039382823
0.952530742 0.935425758 0.041431572
0.011670016 0.943505645 0.025542142
0.046019588 0.944846213 0.027013959
0.093395025 0.949111700 0.032434523
0.147537470 0.954142153 0.038685340
0.205594480 0.959173977 0.044859089
0.267829031 0.964109778 0.050471589
0.335134238 0.968942463 0.055270582
0.406983763 0.972590923 0.058816083
0.482793838 0.974291086 0.060576957
0.563082159 0.974670172 0.060656138
0.648693562 0.974673748 0.058382083
0.735182285 0.974246204 0.051969331
0.812427282 0.973712206 0.043548845
0.875391245 0.975648284 0.044646893
0.924965203 0.977768779 0.068931185
0.947180748 0.978495002 0.105178028
0.959768534 0.981448114 0.110630520
0.029294999 1.000020027 0.043694001
0.072773442 1.000020027 0.051058061
0.124246746 1.000020027 0.058649626
0.179306328 1.000020027 0.065786183
0.237411261 1.000020027 0.071845248
0.299044937 1.000020027 0.076409377
0.364265889 1.000020027 0.079241872
0.432597280 1.000020027 0.080292247
0.505434990 1.000020027 0.079533994
0.583788753 1.000020027 0.078175940
0.667326331 1.000020027 0.077909879
0.751471996 1.000020027 0.075581126
0.825991273 1.000020027 0.064840764
0.886215210 1.000020027 0.062749438
0.932977259 1.000020027 0.121476576
0.951271057 1.000020027 0.195582002
0.962626994 1.000020027 0.195582002
0.000165000 0.008920687 0.057576001
0.041450623 0.009469125 0.065022558
0.088729061 0.011466000 0.065440252
0.137806892 0.013281001 0.065479368
0.188238874 0.014236251 0.065265499
0.241163626 0.013975813 0.064217813
0.294335335 0.012729250 0.062057376
0.350221783 0.011709251 0.059337433
0.413685054 0.011868937 0.056231122
0.485074192 0.012811875 0.052679252
0.562083244 0.013798187 0.048896626
0.642736316 0.014793875 0.045518689
0.718781054 0.015704500 0.043757748
0.780851007 0.016410749 0.044138126
0.827345669 0.016891938 0.044064876
0.843957663 0.016952127 0.043444000
0.856180549 0.016952999 0.043685500
0.000000000 0.068053499 0.060192563
0.035541564 0.069381945 0.059332877
0.086146742 0.068136938 0.057809811
0.134221509 0.068527631 0.059999932
0.182441384 0.068938620 0.061918810
0.232587248 0.068416819 0.061972130
0.284375340 0.066682376 0.060678940
0.341336161 0.064378001 0.058744185
0.405381292 0.061509818 0.056304749
0.476140440 0.058023501 0.053274818
0.553014278 0.054212689 0.049951687
0.634459734 0.050819501 0.047013059
0.712137878 0.049115501 0.045608997
0.777462482 0.048031118 0.044785555
0.828556240 0.039847925 0.037405558
0.850694835 0.031379249 0.029599562
0.862881839 0.031379249 0.029599562
0.000051063 0.122703686 0.057685684
0.035573374 0.119649246 0.057745624
0.080422930 0.116622187 0.053494561
0.136314377 0.118924618 0.053360250
0.195401132 0.116198063 0.056698065
0.252218485 0.112732500 0.060198750
0.307532430 0.110233940 0.062038250
0.363520473 0.108290628 0.062286749
0.423867702 0.106151693 0.061265685
0.490404010 0.103454001 0.059243374
0.564449430 0.100506499 0.056763627
0.644300342 0.097975247 0.054580875
0.720923841 0.097228624 0.053962313
0.786926746 0.098537810 0.054779869
0.841571033 0.094583243 0.050104488
0.869041383 0.083115935 0.038877375
0.881376207 0.083562866 0.038995687
0.000091688 0.174408123 0.054148562
0.033723563 0.171118632 0.055731811
0.072874941 0.163151950 0.052807253
0.121093884 0.162585437 0.051063754
0.182297379 0.171423197 0.053838938
0.245633557 0.169364199 0.056475125
0.317564458 0.162901506 0.058058873
0.388915390 0.156598195 0.059314936
0.459435731 0.151419625 0.060217559
0.530886948 0.147665381 0.061043248
0.604575455 0.145447403 0.061636187
0.680560708 0.144685581 0.061991937
0.752930164 0.145998403 0.063377813
0.817099094 0.149950147 0.066429064
0.874103129 0.150932878 0.065330938
0.907209218 0.143697441 0.056145005
0.919893146 0.144471139 0.056385942
0.000117063 0.222721010 0.048903938
0.030390061 0.220544502 0.051876187
0.070148945 0.215517938 0.051449809
0.116668507 0.213779077 0.050863501
0.167577818 0.214507625 0.050339315
0.234837741 0.226149499 0.052637812
0.299582988 0.225344062 0.054809123
0.376409650 0.218348563 0.056242127
0.462788701 0.209394321 0.057353001
0.550963700 0.201828063 0.061109625
0.638618410 0.196863741 0.065615691
0.724190891 0.194677889 0.068697557
0.801273108 0.195998549 0.071485624
0.866500676 0.201412186 0.075423382
0.921986103 0.206240565 0.077782929
0.952323794 0.203787774 0.073895499
0.965142548 0.204816014 0.074139193
0.000137125 0.270667493 0.042891562
0.025789622 0.268734634 0.046731122
0.064922936 0.266432643 0.047319312
0.111417510 0.265220761 0.048158623
0.166390747 0.273462772 0.049467999
0.217443302 0.269632012 0.048382688
0.292013198 0.284105361 0.049680684
0.359714210 0.284444064 0.051464375
0.438923568 0.278633058 0.053965315
0.536996126 0.269226253 0.057003874
0.641385198 0.260761410 0.064468563
0.742345095 0.255605817 0.072145432
0.830932140 0.255266070 0.077875942
0.902889192 0.260435641 0.082782567
0.957137465 0.266879350 0.086447440
0.978829145 0.267287999 0.085247502
0.991325498 0.268793255 0.085437439
0.000155000 0.322972745 0.036391310
0.020824371 0.321260899 0.041047249
0.058627557 0.320849657 0.042054497
0.105540574 0.320898890 0.044014122
0.159678444 0.328472018 0.045993872
0.220458761 0.338831067 0.047242559
0.272084087 0.329768091 0.045648124
0.352894336 0.346292466 0.046084933
0.427366614 0.347793579 0.047712747
0.510596871 0.344288528 0.051592126
0.615370095 0.336454391 0.056880809
0.729251683 0.328941226 0.067191377
0.831829488 0.326318264 0.077413686
0.912515521 0.330613852 0.084986687
0.969431341 0.337453574 0.089813553
0.987351835 0.339321643 0.090069190
0.999110401 0.341417670 0.090115808
0.000172500 0.380121350 0.029508747
0.015632624 0.379089355 0.034833748
0.051629435 0.379922986 0.035900999
0.098944075 0.381976783 0.038808994
0.152205646 0.386891037 0.041539121
0.213776499 0.400277108 0.043746874
0.278846711 0.408491969 0.044465620
0.332992911 0.396738648 0.042720687
0.420472383 0.413781196 0.042823683
0.503286600 0.416641951 0.044618435
0.591614604 0.415747732 0.049579434
0.695727468 0.411568224 0.056605935
0.802297115 0.408704519 0.067898370
0.891543210 0.411757678 0.077826373
0.957753301 0.417807281 0.084017694
0.981172979 0.420344085 0.084561311
0.992353618 0.423051298 0.084243558
0.000189438 0.441866964 0.022576123
0.010923687 0.441779703 0.028448373
0.044758681 0.444844335 0.029549623
0.092453890 0.449562073 0.033327620
0.146440819 0.454239130 0.036990371
0.206409678 0.463446528 0.040063120
0.274726719 0.477691323 0.042187497
0.343966097 0.483492464 0.042468935
0.407230109 0.474371344 0.040826809
0.498414308 0.487608135 0.040812310
0.588345170 0.491274148 0.043062624
0.679033697 0.492734432 0.048543748
0.770060122 0.493899584 0.056938440
0.853489399 0.498206139 0.068529949
0.921886623 0.504560471 0.078050561
0.950059295 0.507777333 0.078798369
0.961201072 0.510877848 0.078375563
0.000204750 0.508122146 0.017633252
0.008313562 0.508883178 0.023280624
0.039562624 0.513990462 0.024334123
0.087590761 0.522034526 0.029095439
0.143538371 0.530051947 0.033861373
0.204088002 0.537289798 0.037857685
0.270746619 0.547256589 0.040863626
0.343593657 0.558103859 0.042395748
0.418284565 0.561474502 0.042126499
0.495077372 0.558831811 0.040925253
0.586902678 0.565669835 0.040752191
0.678966582 0.569192231 0.043671623
0.762204885 0.573029101 0.049364626
0.833662570 0.579836249 0.058848828
0.894336462 0.588279605 0.070503756
0.921623468 0.592459738 0.073216304
0.933373451 0.595645368 0.073030941
0.000217875 0.577542603 0.015843000
0.007686187 0.578960240 0.020836875
0.036972065 0.584646344 0.021721873
0.085224070 0.594369113 0.027330566
0.142830685 0.605325401 0.033135563
0.205637306 0.615287602 0.038271815
0.272477090 0.623120844 0.042113937
0.343685269 0.630368173 0.044271000
0.420676023 0.636216402 0.044829998
0.501698434 0.638087034 0.044007439
0.589064538 0.639719963 0.043157063
0.680336297 0.643234670 0.043277249
0.764171243 0.647239387 0.047410376
0.833866358 0.654766500 0.054390699
0.890809059 0.664083362 0.063440636
0.917008758 0.668811083 0.068724498
0.929330468 0.672127247 0.068731688
0.000229438 0.648736000 0.016065063
0.007825062 0.650565684 0.021650687
0.037525810 0.656310976 0.022669937
0.086259700 0.665718079 0.028840125
0.144469187 0.676475167 0.035313435
0.208457500 0.687743068 0.041201249
0.276683062 0.697087407 0.045848496
0.347585887 0.702811658 0.048645183
0.423901260 0.707470238 0.049606938
0.506132066 0.710519731 0.049194440
0.593444467 0.712152064 0.047907501
0.683818281 0.714596510 0.047377065
0.767830491 0.719129562 0.049302250
0.838153899 0.726584733 0.056097385
0.895262897 0.735846043 0.064735509
0.921500087 0.740647376 0.070111185
0.933969975 0.744230628 0.070310816
0.000239313 0.721272886 0.018630940
0.009332065 0.723138928 0.025723066
0.041422378 0.728720248 0.027178068
0.091334701 0.737587810 0.033746753
0.149806246 0.747532010 0.040553626
0.213695630 0.757870018 0.046653003
0.282389909 0.767486930 0.051583879
0.353586853 0.773464084 0.054778188
0.429443061 0.777231812 0.056243625
0.511961162 0.780670285 0.056230251
0.599972606 0.782951295 0.055100251
0.690122783 0.785171270 0.053918503
0.773344636 0.789304554 0.054947875
0.843451560 0.796574712 0.060309447
0.900864840 0.805769145 0.069247380
0.927319050 0.810572147 0.074452125
0.939916313 0.814257801 0.074779131
0.000249002 0.794713020 0.027233643
0.014629889 0.796504617 0.034392014
0.049498517 0.801719904 0.035965897
0.100805409 0.809584200 0.042496327
0.159308270 0.818327725 0.049278952
0.222933456 0.827417076 0.055467829
0.291762710 0.836373806 0.060770206
0.363773197 0.842826545 0.064584456
0.439526469 0.846189141 0.066613577
0.521811783 0.848927617 0.067222893
0.610260904 0.851404130 0.066468142
0.700256467 0.853394032 0.064870954
0.782538950 0.856700778 0.064820647
0.850964367 0.863027692 0.068436399
0.907432199 0.871141851 0.075778514
0.933465123 0.875332832 0.080362700
0.946009338 0.879044175 0.080739833
0.001560323 0.870234191 0.044016026
0.028203083 0.871935785 0.051016521
0.066922337 0.876098037 0.053229339
0.119129606 0.882061243 0.059319273
0.176990286 0.888704658 0.065725587
0.239957094 0.895946681 0.072012022
0.308456808 0.903459728 0.077733085
0.381369323 0.909828901 0.082270026
0.457835376 0.913306594 0.084889963
0.539362788 0.914967716 0.085764900
0.627138615 0.916561246 0.084929466
0.716361761 0.917823851 0.082550392
0.796652913 0.919494390 0.080224335
0.862733543 0.923602641 0.082740352
0.915311992 0.928588927 0.089545801
0.940465748 0.931974590 0.093629919
0.953100502 0.935254037 0.094813421
0.011565950 0.943841696 0.068911456
0.050065447 0.945407033 0.075119071
0.095201939 0.949220777 0.079565510
0.148526922 0.954099596 0.085718945
0.206021532 0.959248662 0.091819078
0.267872959 0.963969231 0.097317696
0.334490180 0.968402863 0.101960197
0.406094611 0.972263157 0.106067702
0.482279837 0.974358916 0.108502015
0.562678039 0.974802017 0.108320326
0.648015261 0.974672019 0.106239326
0.734453678 0.974113047 0.101802394
0.811841369 0.973483026 0.096676588
0.874869227 0.975162029 0.098756567
0.924531758 0.977450192 0.116189599
0.947099805 0.978152871 0.138498828
0.959552884 0.981201410 0.142530322
0.025949063 1.000020027 0.088541187
0.057008438 1.000020027 0.078086182
0.113206752 1.000020027 0.086122245
0.171277761 1.000020027 0.093908057
0.230957314 1.000020027 0.100493379
0.293477863 1.000020027 0.105328247
0.359414309 1.000020027 0.108727507
0.429046422 1.000020027 0.114432633
0.503591001 1.000020027 0.121468373
0.582764626 1.000020027 0.124138370
0.666123033 1.000020027 0.122850440
0.750173867 1.000020027 0.120107070
0.824866652 1.000020027 0.112485319
0.885256529 1.000020027 0.111802988
0.932389975 1.000020027 0.156244129
0.951094687 1.000020027 0.218956679
0.962527633 1.000020027 0.218956679
0.000233750 0.011533250 0.108130127
0.039984625 0.010238062 0.117426440
0.089772627 0.011454999 0.119991377
0.141174451 0.012480125 0.120145246
0.187833011 0.013115625 0.116239130
0.236544877 0.013168312 0.112991564
0.288606405 0.012472999 0.110095754
0.345177710 0.011201062 0.107392438
0.409424007 0.011217500 0.104508996
0.480699509 0.012270875 0.100982249
0.557857573 0.013383499 0.097018257
0.639489233 0.014522000 0.093359128
0.716768980 0.015541749 0.091463253
0.780257761 0.016311686 0.092442438
0.827484369 0.016827375 0.093561999
0.844207108 0.016900126 0.093472064
0.856327116 0.016897000 0.093928248
0.000011000 0.069757812 0.100546815
0.027397564 0.070464119 0.104623869
0.083163559 0.069837436 0.114604428
0.133932814 0.068893068 0.112495005
0.178338766 0.067452870 0.108978063
0.225064620 0.066319436 0.106508821
0.276635021 0.065125503 0.104644820
0.334531963 0.063456565 0.102914691
0.399520636 0.060925998 0.100439131
0.470690370 0.057520565 0.096987560
0.548319697 0.053656504 0.093152180
0.631054878 0.050072316 0.089685693
0.709857881 0.048113372 0.087910004
0.776211441 0.046795558 0.087601498
0.828206003 0.038169116 0.081635930
0.850893259 0.029231064 0.072422564
0.863065124 0.029231124 0.072837934
0.000000000 0.117760621 0.107659124
0.030109560 0.116296932 0.104766816
0.076907128 0.122414254 0.108832493
0.133072570 0.118179254 0.103745565
0.180458859 0.115064248 0.101601623
0.225349426 0.114261188 0.103229120
0.274616778 0.114040628 0.104785994
0.331120461 0.113371313 0.104914933
0.395285666 0.111632876 0.103577629
0.466452301 0.108904868 0.101251557
0.545315027 0.105889618 0.098694876
0.629682958 0.103263684 0.096570939
0.710091889 0.102331251 0.096017122
0.778752625 0.103388555 0.097340807
0.833329201 0.098400243 0.093261987
0.858920038 0.085349374 0.081677869
0.871123493 0.085349374 0.081677869
0.000006500 0.168435141 0.102597445
0.033020187 0.171292886 0.105671190
0.074279197 0.164114207 0.102581874
0.124821380 0.163050130 0.098883435
0.181526810 0.163726136 0.094104126
0.244411558 0.162415951 0.095165446
0.305236161 0.159868896 0.099731192
0.361578494 0.158066511 0.104929939
0.420274019 0.156783327 0.107907742
0.487163365 0.155569822 0.108231813
0.562979519 0.154396698 0.107308000
0.644655228 0.153630883 0.106501751
0.723337770 0.154528573 0.107160941
0.791638672 0.158281013 0.110242881
0.847784638 0.159578815 0.110033438
0.876357794 0.152680382 0.101524755
0.888831258 0.153230250 0.101724006
0.000070500 0.225410998 0.100062996
0.030697875 0.224276006 0.101948500
0.072279632 0.217110381 0.101331875
0.113655202 0.206480563 0.096419066
0.165605366 0.207396984 0.093824878
0.233817875 0.219969004 0.095103621
0.302093357 0.220093995 0.097221375
0.379417330 0.214010939 0.098486245
0.456072390 0.208020627 0.101701252
0.531512856 0.204005256 0.106321253
0.609031677 0.202337265 0.110257253
0.688192427 0.202793643 0.113184184
0.762772143 0.205747887 0.116871879
0.828010857 0.212155953 0.122760244
0.883710325 0.218194991 0.126874506
0.914160550 0.216864139 0.123046875
