hollywood-luts/Joker.cube
TITLE "17x17x17 Adobe/IRIDAS cube 3D LUT exported with GrossGrade v0.2.2 (beta) 64 bit"
DOMAIN_MIN 0 0 0
DOMAIN_MAX 1 1 1
LUT_3D_SIZE 5
0.000000000 0.007086000 0.004326000
0.187352762 0.015508249 0.012461000
0.416339517 0.012063000 0.010358000
0.719975531 0.015774000 0.014928250
0.855543971 0.017058000 0.016512999
0.000144250 0.221239001 0.004326000
0.170155019 0.218266994 0.004404250
0.454581261 0.212650761 0.032785255
0.822879016 0.191388249 0.054611504
0.976473749 0.205093503 0.060123004
0.000194000 0.439456522 0.004326000
0.145774752 0.456013024 0.004326000
0.407922029 0.475269496 0.004511500
0.764509082 0.494164526 0.023349497
0.947019458 0.513106525 0.044155993
0.000240750 0.720897257 0.004326000
0.148874253 0.749559522 0.004380003
0.429144263 0.777413726 0.006743755
0.772256732 0.788442492 0.005197504
0.937623739 0.813358724 0.012961004
0.029294999 1.000020027 0.043694001
0.237411261 1.000020027 0.071845248
0.505434990 1.000020027 0.079533994
0.825991273 1.000020027 0.064840764
0.962626994 1.000020027 0.195582002
0.000170500 0.017700501 0.213272259
0.191238508 0.012359750 0.227452993
0.400782257 0.008965250 0.202579007
0.711772025 0.014251000 0.192200497
0.856539249 0.015771249 0.200808764
0.000000000 0.210992008 0.198255494
0.163517758 0.227850765 0.208366260
0.397018760 0.208732516 0.189938486
0.709280550 0.215668753 0.203936011
0.892404318 0.227141008 0.218384743
0.000132250 0.467424750 0.173126742
0.155960023 0.461056232 0.191786006
0.407173276 0.462546527 0.188015491
0.803242028 0.490374029 0.206978500
0.996418476 0.508961737 0.239258751
0.000200750 0.737655520 0.166940510
0.162185758 0.747477055 0.198664248
0.429634780 0.773408473 0.216032505
0.777923286 0.792154193 0.219955504
0.944607019 0.818315029 0.245834753
0.029320000 1.000020027 0.255576253
0.210789502 1.000020027 0.244779259
0.500135481 1.000020027 0.274457276
0.822870731 1.000020027 0.267866790
0.960285246 1.000020027 0.333806753
0.000000000 0.035962000 0.453707993
0.178844258 0.014132749 0.487362504
0.423429489 0.007228000 0.477144033
0.711313009 0.008828250 0.444742024
0.865301967 0.010025499 0.468335509
0.000000000 0.216824263 0.349907517
0.117953762 0.215895742 0.375758290
0.419531286 0.223610014 0.476686031
0.715292215 0.211177006 0.450885773
0.905668020 0.206292763 0.484893769
0.000000000 0.452257037 0.434851527
0.140116751 0.437355042 0.422318280
0.381358027 0.499345034 0.467795521
0.768859565 0.481860042 0.442266047
0.920716047 0.529858530 0.518451989
0.000031500 0.741875529 0.441410512
0.170236766 0.766823053 0.473198533
0.434659302 0.770973444 0.481711745
0.796685517 0.780425310 0.452005029
0.945092559 0.816533327 0.522598982
0.029681500 1.000014544 0.544170022
0.230730504 1.000013232 0.553243756
0.476378500 1.000024080 0.533317506
0.813260257 1.000020027 0.532744765
0.952980518 1.000020027 0.569479525
0.000210000 0.052158501 0.707332015
0.169842243 0.019319000 0.762693465
0.401159525 0.008032750 0.724871278
0.746533275 0.007262750 0.753664494
0.866204262 0.007343000 0.746100307
0.000015750 0.238305509 0.586598814
0.131464005 0.243558019 0.656459987
0.367877245 0.203009754 0.684852064
0.751606286 0.216928005 0.755230486
0.907999039 0.146877766 0.765765071
0.000000000 0.451015770 0.684943318
0.087276757 0.467654049 0.664819956
0.285752296 0.476492763 0.627990544
0.759536207 0.497527510 0.757619798
0.935698271 0.497762740 0.788997293
0.000000002 0.730086982 0.707957029
0.150072753 0.717436194 0.695520759
0.403357029 0.773297787 0.760095000
0.768602490 0.785840511 0.743819952
0.946466804 0.805902004 0.795015514
0.033938501 1.000020027 0.815371037
0.201952249 1.000027180 0.821081042
0.474314779 1.000011683 0.821768045
0.794240534 0.999921024 0.796064973
0.945295215 1.000020027 0.812288046
0.002318000 0.070566997 0.923520029
0.167688504 0.031298250 0.960848212
0.426647514 0.016081000 0.950789452
0.695979774 0.007382500 0.905821741
0.879332006 0.007338000 0.950115979
0.000885250 0.255280256 0.844959974
0.138319746 0.257631242 0.888043761
0.406938016 0.226162016 0.952108979
0.705695748 0.196765497 0.916940212
0.921508968 0.206375256 0.975182533
0.000000000 0.488641024 0.797521532
0.056648999 0.502780497 0.829070747
0.326781511 0.508103013 0.954800487
0.763486743 0.436415017 0.968766510
0.942910552 0.516568542 0.989603996
0.000144503 0.766770244 0.931943536
0.149070263 0.781345010 0.946987748
0.283824027 0.804119289 0.967205286
0.738980532 0.766707778 0.971168995
0.944760025 0.806236506 0.989953279
0.052926000 1.000044942 0.998248994
0.186837256 1.000074267 0.998774230
0.434935004 1.000014067 0.999399006
0.775422275 0.999822736 0.988072276
0.943686008 0.999939024 0.990518987
