hollywood-luts/La la land.cube
TITLE "17x17x17 Adobe/IRIDAS cube 3D LUT exported with GrossGrade v0.2.2 (beta) 64 bit"
DOMAIN_MIN 0 0 0
DOMAIN_MAX 1 1 1
LUT_3D_SIZE 5
0.001663000 0.001679000 0.000000000
0.202949256 0.013373751 0.005055500
0.413443029 0.042579502 0.000465000
0.626302540 0.070795253 0.000000000
0.816151977 0.126728997 0.000930000
0.000000000 0.092615753 0.001234250
0.195803016 0.139581501 0.007462000
0.449157268 0.175395012 0.000000000
0.658285737 0.227012515 0.000000000
0.817448497 0.285421997 0.000000000
0.038322005 0.243587524 0.000000000
0.186479002 0.329075515 0.000000000
0.468535483 0.337639034 0.000427500
0.661800504 0.408818543 0.000000000
0.809839487 0.470999509 0.000000000
0.139745504 0.459158003 0.000000000
0.268493265 0.537953556 0.000000000
0.503762007 0.633391023 0.000000000
0.653604209 0.610175252 0.000000000
0.815137267 0.639717042 0.000857750
0.370736986 0.689243019 0.000000000
0.489476502 0.751616716 0.000000000
0.553240001 0.804215550 0.000000000
0.689897001 0.845869780 0.000000000
0.812942028 0.821192980 0.000000000
0.037653752 0.047394753 0.128692493
0.089700252 0.048958749 0.151981264
0.378267050 0.000893250 0.116345257
0.622587740 0.033098005 0.082964748
0.829162538 0.134547994 0.010162501
0.067130253 0.123489246 0.176937014
0.114747755 0.173770249 0.217561260
0.456502259 0.229467005 0.185786739
0.669931054 0.253624260 0.102842748
0.837983489 0.302278996 0.004686000
0.051190253 0.342277527 0.260417759
0.113417760 0.350225508 0.170034230
0.438122004 0.391475976 0.142824516
0.671944499 0.448019028 0.105526246
0.836094975 0.501995504 0.000335250
0.184295252 0.534695745 0.182648003
0.211666018 0.548535347 0.109742984
0.464251757 0.645860016 0.063800745
0.662950516 0.659534276 0.075349495
0.836399257 0.678941548 0.041384995
0.383818746 0.727591217 0.000570750
0.478637487 0.769451737 0.000000000
0.563313246 0.824196458 0.000000000
0.707704306 0.868947208 0.000000000
0.845688522 0.849090278 0.000000000
0.047256000 0.121881515 0.270537496
0.046422496 0.128166258 0.258577257
0.217266500 0.081690997 0.285418510
0.601652503 0.001979002 0.239385009
0.811129510 0.069794498 0.222900510
0.034296498 0.199449256 0.352277756
0.051609248 0.248609513 0.418296516
0.279543757 0.249187768 0.386964262
0.670034051 0.265735507 0.323572248
0.854391992 0.317995250 0.325635761
0.154114500 0.292895526 0.376187503
0.178562999 0.352520734 0.440455735
0.359975040 0.428945541 0.461704969
0.707742751 0.506660998 0.446568519
0.868577480 0.514429510 0.388803005
0.057139538 0.575719476 0.538381934
0.129236013 0.615170300 0.561569989
0.451605529 0.652500808 0.384081274
0.687334776 0.693977833 0.359874487
0.865354955 0.707897007 0.400223017
0.495869517 0.781950474 0.355020523
0.540086508 0.797543764 0.271670789
0.596834481 0.839663506 0.207379535
0.720971763 0.881810188 0.300185263
0.857471466 0.870929480 0.254446507
0.021155499 0.236444265 0.471740246
0.025043247 0.236473769 0.445776522
0.052272752 0.233115748 0.464192271
0.520612001 0.127577499 0.358494252
0.802841783 0.095512509 0.380138516
0.008324752 0.309362769 0.554198503
0.032877255 0.359587252 0.617897749
0.106261760 0.369585007 0.629857540
0.617116451 0.317230523 0.491868019
0.846260250 0.314474255 0.499831289
0.055007502 0.393653005 0.609263003
0.079863757 0.442475766 0.659992516
0.231663287 0.493506014 0.686179519
0.673785746 0.503162265 0.586576104
0.875133216 0.508560061 0.577202797
0.029846251 0.536952257 0.643242478
0.011990757 0.581592798 0.681159735
0.298619539 0.622708261 0.691913247
0.704834998 0.714548528 0.655825257
0.908215284 0.728476524 0.659540534
0.000000000 0.750342727 0.707495987
0.019028261 0.774201274 0.725969255
0.325020522 0.809957266 0.718568027
0.754704237 0.881867230 0.545104265
0.882028759 0.886071980 0.538432240
0.020842001 0.375445992 0.675423980
0.026044000 0.377871484 0.659394741
0.037285499 0.376127988 0.646685958
0.227872312 0.386919260 0.683946013
0.776575983 0.250613004 0.541199982
0.050006252 0.428696007 0.742500484
0.098375499 0.466435760 0.780983448
0.138952255 0.478962481 0.783442020
0.427972049 0.495785743 0.761317730
0.835432768 0.385918498 0.643970728
0.080289498 0.498699486 0.784877479
0.136626750 0.532634974 0.813313246
0.236645997 0.566682994 0.828364015
0.583077550 0.606200039 0.790244758
0.860252023 0.530791521 0.714051485
0.056277499 0.607217491 0.817546487
0.139935762 0.635252297 0.836436987
0.265846491 0.667400241 0.843891203
0.674958766 0.726127565 0.796464443
0.872904003 0.703712761 0.771151245
0.016295001 0.737149000 0.825915992
0.126387745 0.754477501 0.838972509
0.271313518 0.776935458 0.839554489
0.685146511 0.816204488 0.798550725
0.890048981 0.885572016 0.779263973
