hollywood-luts/La la land.cube
TITLE "17x17x17 Adobe/IRIDAS cube 3D LUT exported with GrossGrade v0.2.2 (beta) 64 bit"
DOMAIN_MIN 0 0 0
DOMAIN_MAX 1 1 1
LUT_3D_SIZE 17
0.001663000 0.001679000 0.000000000
0.019003939 0.000104937 0.000000000
0.069755003 0.000000000 0.000487375
0.136984512 0.005108189 0.004093813
0.202949256 0.013373751 0.005055500
0.260987639 0.021643002 0.002294188
0.313842624 0.027734254 0.000962625
0.363233894 0.034761190 0.000930000
0.413443029 0.042579502 0.000465000
0.466546625 0.049468126 0.000000000
0.520085394 0.056090627 0.000000000
0.572947562 0.062945940 0.000000000
0.626302540 0.070795253 0.000000000
0.679059088 0.083089456 0.000000000
0.728982568 0.097335264 0.000116251
0.775318325 0.112738699 0.000930000
0.816151977 0.126728997 0.000930000
0.000103937 0.012706812 0.004936875
0.013767063 0.023203064 0.000000000
0.064931124 0.025550751 0.001044750
0.136649951 0.032295816 0.009818688
0.209017321 0.044655502 0.015413000
0.269840568 0.053820565 0.011285438
0.323954821 0.060206436 0.003742000
0.372969836 0.066699006 0.000938812
0.423567206 0.074175686 0.000441812
0.477299511 0.083018184 0.000000000
0.530859470 0.093152061 0.000000000
0.584150612 0.104039684 0.000000000
0.637406647 0.116121501 0.000000000
0.688854456 0.129626945 0.000068625
0.737214208 0.144412383 0.000413626
0.781137526 0.158036143 0.000930000
0.819729507 0.171032444 0.000930000
0.000000000 0.036139499 0.008569125
0.004145749 0.046578873 0.005776000
0.054613128 0.054290876 0.000000000
0.132592514 0.063146509 0.013579878
0.213689506 0.076781496 0.024949001
0.279888213 0.086331442 0.019265186
0.334869891 0.092458621 0.007376123
0.383593470 0.098576754 0.001070999
0.434119642 0.106334507 0.000109625
0.488266319 0.115614943 0.000000000
0.541882217 0.126633123 0.000000000
0.594816506 0.139367998 0.000000000
0.647155881 0.153751016 0.000000000
0.696689725 0.168424711 0.000000000
0.742266059 0.183253154 0.000045750
0.783356965 0.197463393 0.000116250
0.819773793 0.210537374 0.000116250
0.000000000 0.061742004 0.005706499
0.003296938 0.075361505 0.002792687
0.052647375 0.090273887 0.000778125
0.118430033 0.094730385 0.005239001
0.210432887 0.109287135 0.026363123
0.281130314 0.117801324 0.016427811
0.338317662 0.123690628 0.005735874
0.389922500 0.130574316 0.000782875
0.442496538 0.139635831 0.000000000
0.496707737 0.150421768 0.000000000
0.550407946 0.162387073 0.000000000
0.603407621 0.175666332 0.000000000
0.654150724 0.190224454 0.000000000
0.701418936 0.204740331 0.000000000
0.744591653 0.219268158 0.000000000
0.783743382 0.233935833 0.000000000
0.818419218 0.247965693 0.000000000
0.000000000 0.092615753 0.001234250
0.003586688 0.106737137 0.000643063
0.053240746 0.126048625 0.000223000
0.113385126 0.136934757 0.000403001
0.195803016 0.139581501 0.007462000
0.276198417 0.152163550 0.011765936
0.337713391 0.158448875 0.003504125
0.393969357 0.166328490 0.000276625
0.449157268 0.175395012 0.000000000
0.504007518 0.186443269 0.000000000
0.557356894 0.198934004 0.000000000
0.609667182 0.212543502 0.000000000
0.658285737 0.227012515 0.000000000
0.703297317 0.241173461 0.000000000
0.744458199 0.256058782 0.000000000
0.782677352 0.271022767 0.000000000
0.817448497 0.285421997 0.000000000
0.002177313 0.126139134 0.000000000
0.007376750 0.138982683 0.000000000
0.055875938 0.159857690 0.000000000
0.114233255 0.180262744 0.000000000
0.184725881 0.181951120 0.000809938
0.266065359 0.183185011 0.002685000
0.335445076 0.196182817 0.001685312
0.396783292 0.205697000 0.000098125
0.455150723 0.215906367 0.000000000
0.511006057 0.226846680 0.000000000
0.563610911 0.239595562 0.000000000
0.614116251 0.252983987 0.000000000
0.660260797 0.267017245 0.000000000
0.703176200 0.280806065 0.000000000
0.743189096 0.295452923 0.000000000
0.780315518 0.310936272 0.000000000
0.815418899 0.326106250 0.000000000
0.005802631 0.162112892 0.000000000
0.017987944 0.174213201 0.000000000
0.062599130 0.193066746 0.000000000
0.114915580 0.218370333 0.000000000
0.188178375 0.237529650 0.000058625
0.259462237 0.226914406 0.000169062
0.334191024 0.229634404 0.000135000
0.398233175 0.245264202 0.000000000
0.459667027 0.259642273 0.000000000
0.516298652 0.272866786 0.000000000
0.568229735 0.286054045 0.000000000
0.616514683 0.299465269 0.000000000
0.660628378 0.313087404 0.000000000
0.701704443 0.327231497 0.000000000
0.741022170 0.341971308 0.000000000
0.777891278 0.357546657 0.000000000
0.812157035 0.372130007 0.000000000
0.019376511 0.201111585 0.000000000
0.037029255 0.213369027 0.000000000
0.073552378 0.229860842 0.000000000
0.121114887 0.255929202 0.000000000
0.188211933 0.284566849 0.000000000
0.265294015 0.295611501 0.000000000
0.333093405 0.275399029 0.000000000
0.402593106 0.281219214 0.000000000
0.463465601 0.299931526 0.000000000
0.519993663 0.317393869 0.000349125
0.571053684 0.333253384 0.000149625
0.617685378 0.347985804 0.000000000
0.660510123 0.362608165 0.000000000
0.700592220 0.377655655 0.000000000
0.738881946 0.392943740 0.000000000
0.775282204 0.408683717 0.000000000
0.809254706 0.422338575 0.000000000
0.038322005 0.243587524 0.000000000
0.049499501 0.256771713 0.000000000
0.083958372 0.272641897 0.000000000
0.127548143 0.296831012 0.000000000
0.186479002 0.329075515 0.000000000
0.270995319 0.355719984 0.000000000
0.337998152 0.357861370 0.000000000
0.402209967 0.332524598 0.000000000
0.468535483 0.337639034 0.000427500
0.523627341 0.356406003 0.000053438
0.573697686 0.374218524 0.000399000
0.619579792 0.391731948 0.000000000
0.661800504 0.408818543 0.000000000
0.701533020 0.426051557 0.000000000
0.739529431 0.442292660 0.000000000
0.775751472 0.457968950 0.000000000
0.809839487 0.470999509 0.000000000
0.046715874 0.290543884 0.000000000
0.058793314 0.304694951 0.000000000
0.093868814 0.321474910 0.000000000
0.135056898 0.344806194 0.000000000
0.185503572 0.376034826 0.000000000
0.273006439 0.408224434 0.000000000
0.349804580 0.428635001 0.000000000
0.405006170 0.426667750 0.000000000
0.461728573 0.400156200 0.000053438
0.526712775 0.397247314 0.000480937
0.576368988 0.412994325 0.000000000
0.622634172 0.430577993 0.000000000
0.664803147 0.449451566 0.000000000
0.704539120 0.468432575 0.000000000
0.742530525 0.486585557 0.000000000
0.779607832 0.502588391 0.000000000
0.813099205 0.515541792 0.000000000
0.059148625 0.342446864 0.000000000
0.081048816 0.358038813 0.000000000
0.115024254 0.376454234 0.000000000
0.149714321 0.399097353 0.000000000
0.195187762 0.427501768 0.000000000
0.278570741 0.459043622 0.000000000
0.360092133 0.485648870 0.000000000
0.420473725 0.501806498 0.000000000
0.466914117 0.499285996 0.000000000
0.513216674 0.474364400 0.000000000
0.574353516 0.461392760 0.000000000
0.623914719 0.472929955 0.000000000
0.667951643 0.489640772 0.000000000
0.708531380 0.508132160 0.000000000
0.747142196 0.526838779 0.000000000
0.784381568 0.543889821 0.000035625
0.816860616 0.557345510 0.000213750
0.097002372 0.399093747 0.000000000
0.119166121 0.416721255 0.000000000
0.146930441 0.435606569 0.000000000
0.173245385 0.456818253 0.000000000
0.222049430 0.481802613 0.000000000
0.296439797 0.510767996 0.000000000
0.374023914 0.538478911 0.000000000
0.436636895 0.560815573 0.000000000
0.485947937 0.574839413 0.000000000
0.527116835 0.572528958 0.000000000
0.564968824 0.551417470 0.000000000
0.614521325 0.533659041 0.000000000
0.664110839 0.538197339 0.000000000
0.708536923 0.551811695 0.000000000
0.749444187 0.568473101 0.000114375
0.787483633 0.584873855 0.000286875
0.819190025 0.598028004 0.000682500
0.139745504 0.459158003 0.000000000
0.158898130 0.477911532 0.000000000
0.178184152 0.494728863 0.000000000
0.209297583 0.514955938 0.000000000
0.268493265 0.537953556 0.000000000
0.332997769 0.564506888 0.000000000
0.395596027 0.591303766 0.000000000
0.453903794 0.614741564 0.000000000
0.503762007 0.633391023 0.000000000
0.546836317 0.645240664 0.000000000
0.585003316 0.643729687 0.000000000
0.617875993 0.627391636 0.000000000
0.653604209 0.610175252 0.000000000
0.698744535 0.607475877 0.000000000
0.742495477 0.615936637 0.000000001
0.782853961 0.628156543 0.000726312
0.815137267 0.639717042 0.000857750
0.179329604 0.518574715 0.000000000
0.196627975 0.538303137 0.000000000
0.215990752 0.554443061 0.000000000
0.266971707 0.574689209 0.000000000
0.333118856 0.596579075 0.000000000
0.385227919 0.620184124 0.000000000
0.426410943 0.644232988 0.000000000
0.470381737 0.665628076 0.000000000
0.515903473 0.683393419 0.000000000
0.559103131 0.697779536 0.000000000
0.599498689 0.707231343 0.000000000
0.635603905 0.706559658 0.000000000
0.667837739 0.694610298 0.000000000
0.698909938 0.680778623 0.000000000
0.736012220 0.674182296 0.000000000
0.772669852 0.676622927 0.000000000
0.806575477 0.683398545 0.000520812
0.216575429 0.577517271 0.000000000
0.244109333 0.598948836 0.000000000
0.292568982 0.617362440 0.000000000
0.349632770 0.636702180 0.000000000
0.398338079 0.655978799 0.000000000
0.433775604 0.674898267 0.000000000
0.460516661 0.694343567 0.000000000
0.489511818 0.712487400 0.000000000
0.525311768 0.727960289 0.000000000
0.564651728 0.742026567 0.000000000
0.605608404 0.754181981 0.000000000
0.643943906 0.762180865 0.000000000
0.679724634 0.762168586 0.000000000
0.713593662 0.753885627 0.000000000
0.742960691 0.742649674 0.000000000
0.774239540 0.735872090 0.000000000
0.805471003 0.732056320 0.000000000
0.268258929 0.631718993 0.000000000
0.331726819 0.656797111 0.000000000
0.381461412 0.674384058 0.000000000
0.418902844 0.691356182 0.000000000
0.449952483 0.706898868 0.000000000
0.474793196 0.721833527 0.000000000
0.493171096 0.737943351 0.000000000
0.510728776 0.754237175 0.000000000
0.536046743 0.768518567 0.000000000
0.570276976 0.781450212 0.000000000
0.608687520 0.794338822 0.000000000
0.648425937 0.804693043 0.000000000
0.685597837 0.811141253 0.000000000
0.720669985 0.811095536 0.000000000
0.754636586 0.804012835 0.000000000
0.783071399 0.792784929 0.000000000
0.809967279 0.784071803 0.000000000
0.370736986 0.689243019 0.000000000
0.419991374 0.713993967 0.000000000
0.443987995 0.725173652 0.000000000
0.466771185 0.738243103 0.000000000
0.489476502 0.751616716 0.000000000
0.510016620 0.764336288 0.000000000
0.523499727 0.778012276 0.000000000
0.535266280 0.791723967 0.000000000
0.553240001 0.804215550 0.000000000
0.580412149 0.814763665 0.000000000
0.614605010 0.825137496 0.000000000
0.651852489 0.836674690 0.000000000
0.689897001 0.845869780 0.000000000
0.727135301 0.850522578 0.000000000
0.760602355 0.847316861 0.000000000
0.788925111 0.834015191 0.000000000
0.812942028 0.821192980 0.000000000
0.009146125 0.009717125 0.023093438
0.016708938 0.013991187 0.034958437
0.055955499 0.005887875 0.039200436
0.112757064 0.000708875 0.036380060
0.179863676 0.000392938 0.033046253
0.241236895 0.000983500 0.022968937
0.298397034 0.008463629 0.009164498
0.354909271 0.020762822 0.002934186
0.411534011 0.034474004 0.001231687
0.467677385 0.045189001 0.000187000
0.521877825 0.054062624 0.000000000
0.575041950 0.063237496 0.000000000
0.628912926 0.072528817 0.000000000
0.681217015 0.088160008 0.000000000
0.731401503 0.103657573 0.000116251
0.777660310 0.119644955 0.000930000
0.818167627 0.133210883 0.000930000
0.012306437 0.015990876 0.033288751
0.018711438 0.027989000 0.046769064
0.057335004 0.031879313 0.047118187
0.129149333 0.027665878 0.036050744
0.202551186 0.038729940 0.022699438
0.265275180 0.051569752 0.013066312
0.322603583 0.060762376 0.004290749
0.375682056 0.069090374 0.000752625
0.430604666 0.076189190 0.000231375
0.486097872 0.083595373 0.000000000
0.539514482 0.092458129 0.000000000
0.593104482 0.102559067 0.000000000
0.645599723 0.115592383 0.000000000
0.695863962 0.129913077 0.000158626
0.743434489 0.144209519 0.000803625
0.786178350 0.157676443 0.000930000
0.823351979 0.170388386 0.000930000
0.015605375 0.047453437 0.056951500
0.014583375 0.054567315 0.054376438
0.047513999 0.065831810 0.045911562
0.128348127 0.070840746 0.043036561
0.209357634 0.081144184 0.034364559
0.275050491 0.091009632 0.021424312
0.331882536 0.097468562 0.007492873
0.383799225 0.102894261 0.000944750
0.436668813 0.110988259 0.000079562
0.491687357 0.120565385 0.000000000
0.545987606 0.130899429 0.000000000
0.600526333 0.142453119 0.000000000
0.653459907 0.156477615 0.000000000
0.701959968 0.171601564 0.000000000
0.746195793 0.186631635 0.000075750
0.786139607 0.201525569 0.000116250
0.821071386 0.215345442 0.000116250
0.004381623 0.082074627 0.055983558
0.003338561 0.083880946 0.047666997
0.030169185 0.103098199 0.026567306
0.110678636 0.106636815 0.012307063
0.205562502 0.116960831 0.032437306
0.276699007 0.124166198 0.018271809
0.335312694 0.129455507 0.006066250
0.388641536 0.135736763 0.000716250
0.442838192 0.144109637 0.000000000
0.498782367 0.154413447 0.000000000
0.553456426 0.166415513 0.000000000
0.606795609 0.180203319 0.000000000
0.657356858 0.195428208 0.000000000
0.703291595 0.211304903 0.000000000
0.744845331 0.226959959 0.000000000
0.782705486 0.242919371 0.000000000
0.817361891 0.257338613 0.000000000
0.000523500 0.115715377 0.043314692
0.000330562 0.115398310 0.033653002
0.019833501 0.137856081 0.012998309
0.096964397 0.152268931 0.004126439
0.185840383 0.148542687 0.006232562
0.272183955 0.158862993 0.011101873
0.334852695 0.164022505 0.003494500
0.392446667 0.170645505 0.000268750
0.448461026 0.179397702 0.000000000
0.504766524 0.190136865 0.000000000
0.559144437 0.203127056 0.000000000
0.611330390 0.218083009 0.000000000
0.659642279 0.233565256 0.000000000
0.703391790 0.249357462 0.000000000
0.743105531 0.265617102 0.000000000
0.779946685 0.282018602 0.000000000
0.814718664 0.297705293 0.000000000
0.000000000 0.150170133 0.029280877
0.000000000 0.150004506 0.019695438
0.015645439 0.171012491 0.005974250
0.084873825 0.193225756 0.002329187
0.172937140 0.199612930 0.000529813
0.259898633 0.192056492 0.001954251
0.333225578 0.202177569 0.001246063
0.395570725 0.210159063 0.000098125
0.454167515 0.219598308 0.000000000
0.510444760 0.230918184 0.000000000
0.563871801 0.244242564 0.000000000
0.614346027 0.259101063 0.000000000
0.660464764 0.274399966 0.000000000
0.702290416 0.290073365 0.000000000
0.740727842 0.306929290 0.000000000
0.777706087 0.323841542 0.000000000
0.813038528 0.339406848 0.000000000
0.000197937 0.186051637 0.018557496
0.000641064 0.186979756 0.009633437
0.020715877 0.205399185 0.003092938
0.080024764 0.230423704 0.001404062
0.161000669 0.249669522 0.000669687
0.248020872 0.246238530 0.000029313
0.331326038 0.238518775 0.000380000
0.397371888 0.251219153 0.000035750
0.459583968 0.264353812 0.000000000
0.515953183 0.277371407 0.000000000
0.568068027 0.291379511 0.000000000
0.616299987 0.306244314 0.000000000
0.660270333 0.321428329 0.000000000
0.700690091 0.337234437 0.000000000
0.738836706 0.354196161 0.000000000
0.775983989 0.370730847 0.000000000
0.811240792 0.385538787 0.000000000
0.000461504 0.224152893 0.009451309
0.004974258 0.225897402 0.003725999
0.029272135 0.242689595 0.001889500
0.083308905 0.267896563 0.000965062
0.148206919 0.292590916 0.000564937
0.246557295 0.309867203 0.000149750
0.320577145 0.296247661 0.000323187
0.402057201 0.290348232 0.000418688
0.463876456 0.306410670 0.000209688
0.520835459 0.323253542 0.000046750
0.571365297 0.339490384 0.000000000
0.617610812 0.355585784 0.000000000
0.660268068 0.371743053 0.000000000
0.700292766 0.388013780 0.000000000
0.738856673 0.404844910 0.000000000
0.776206970 0.420358717 0.000000000
0.811239541 0.434003323 0.000000000
0.008076005 0.265257180 0.004268062
0.019783631 0.267701447 0.001800875
0.047419380 0.284438282 0.001312125
0.094059512 0.308259249 0.000434437
0.146047756 0.334933639 0.000255562
0.240070879 0.362616897 0.000108000
0.327233970 0.373925775 0.000063875
0.388692975 0.354266196 0.000214313
0.468542367 0.347385138 0.001303313
0.525170267 0.363955885 0.000306688
0.575324774 0.381894290 0.000049875
0.620658100 0.400340199 0.000000000
0.662647069 0.418840021 0.000000000
0.702564418 0.436678499 0.000000000
0.741266131 0.453606069 0.000000000
0.778642952 0.468826920 0.000000000
0.813691258 0.481831670 0.000000000
0.030722752 0.310075521 0.003214563
0.046471126 0.313463002 0.001614063
0.074054003 0.332163632 0.001095625
0.114170954 0.354885578 0.000155500
0.153430253 0.380549461 0.000000000
0.236090675 0.411064327 0.000000000
0.331586987 0.436375201 0.000000000
0.398650110 0.442799807 0.000000000
0.451707482 0.421020061 0.000143063
0.525419354 0.408787191 0.002337188
0.578559995 0.422438681 0.000162750
0.625103831 0.440389156 0.000000000
0.667426586 0.460145473 0.000000000
0.707407832 0.479895860 0.000000000
0.745891094 0.497850835 0.000000000
0.783140302 0.513735116 0.000000000
0.817358255 0.526682794 0.000000000
0.064815253 0.359896004 0.004023938
0.080281749 0.364596635 0.001598438
0.107552312 0.386293441 0.000947563
0.140534759 0.407491654 0.000124375
0.170412809 0.430711746 0.000000000
0.242307767 0.459974021 0.000000000
0.334875137 0.489000261 0.000000000
0.410465896 0.509794176 0.000000000
0.463887215 0.514093876 0.000000000
0.509050131 0.493852735 0.000162750
0.570928633 0.476014763 0.001464750
0.625063956 0.484773606 0.000000000
0.670741379 0.501254857 0.000000000
0.712126136 0.520021677 0.000000000
0.751596451 0.538761377 0.000029875
0.788692355 0.555572510 0.000131813
0.821291089 0.568675399 0.000342750
0.104838625 0.414634049 0.005446875
0.119242065 0.420995325 0.002036563
0.144239753 0.444626302 0.000912688
0.168740690 0.463403225 0.000117375
0.199421123 0.483928829 0.000000000
0.264735132 0.510768652 0.000000000
0.349030763 0.539497674 0.000000000
0.422378272 0.564827561 0.000000000
0.480070889 0.582023859 0.000000000
0.525445938 0.585412860 0.000000000
0.564116895 0.569126010 0.000000000
0.612230420 0.550174654 0.000000000
0.664298177 0.551906526 0.000000000
0.710856259 0.564377189 0.000051750
0.752683282 0.580527663 0.000205375
0.790931463 0.596536696 0.000514750
0.822667778 0.609225750 0.000897500
0.145210266 0.471405178 0.006254624
0.157735452 0.479640812 0.002314187
0.178069085 0.503487229 0.000842562
0.201800033 0.520527840 0.000106000
0.246841818 0.539735794 0.000000000
0.307728201 0.564541399 0.000000000
0.376330048 0.591559947 0.000000000
0.441166133 0.617175043 0.000000000
0.496010840 0.637966812 0.000000000
0.544128776 0.651948035 0.000000000
0.585036814 0.654378772 0.000000000
0.620654464 0.642140567 0.000000000
0.657727480 0.625724792 0.000000000
0.700830698 0.621435285 0.000000000
0.745031297 0.628220022 0.000189751
0.784932315 0.639317453 0.000902125
0.817542911 0.649983048 0.000697500
0.182910472 0.527211368 0.004783871
0.194121286 0.538130403 0.001441686
0.217867255 0.563799441 0.000512375
0.256019741 0.580936134 0.000072125
0.317345470 0.599066257 0.000000000
0.370317906 0.620926261 0.000000000
0.415189445 0.644713938 0.000000000
0.462725341 0.667494953 0.000000000
0.511532962 0.687219441 0.000000000
0.557653487 0.702988565 0.000000000
0.600950480 0.714108109 0.000000000
0.639300168 0.716146767 0.000000000
0.674118161 0.707385123 0.000000000
0.705615640 0.694203794 0.000000000
0.741647899 0.686399817 0.000000000
0.777924061 0.687429965 0.000000000
0.811700761 0.692952216 0.000040062
0.217887297 0.581978917 0.000534625
0.236445650 0.598441362 0.000231562
0.292819262 0.628696203 0.000017812
0.344967514 0.645205617 0.000000000
0.392612934 0.660040379 0.000000000
0.427102089 0.676738679 0.000000000
0.453575134 0.695574701 0.000000000
0.483874857 0.714005589 0.000000000
0.521648526 0.730816483 0.000000000
0.563162923 0.746325672 0.000000000
0.606209159 0.759342492 0.000000000
0.646578908 0.768439591 0.000000000
0.683402538 0.770292461 0.000000000
0.719048858 0.763694942 0.000000000
0.749891162 0.752792835 0.000000000
0.780205667 0.745086610 0.000000000
0.810832858 0.740883350 0.000000000
0.259503305 0.630219936 0.000000000
0.320279390 0.659542084 0.000000000
0.387048304 0.688484848 0.000000000
0.420818180 0.701109290 0.000000000
0.448110402 0.712145090 0.000000000
0.471734881 0.724128425 0.000000000
0.488403767 0.739286304 0.000000000
0.506909311 0.755473435 0.000000000
0.534216046 0.770533979 0.000000000
0.569280207 0.784836948 0.000000000
0.608317673 0.798426688 0.000000000
0.649690032 0.809001684 0.000000000
0.688276947 0.816233695 0.000000000
0.724679708 0.817325175 0.000000000
0.759313703 0.811464727 0.000000000
0.788535535 0.799864411 0.000000000
0.815217078 0.790515125 0.000000000
0.348891377 0.680984557 0.000000000
0.417474210 0.722026408 0.000000000
0.450904191 0.737921476 0.000000000
0.470388889 0.747747898 0.000000000
0.489074290 0.757009804 0.000000000
0.506873727 0.766852260 0.000000000
0.518446267 0.779449463 0.000000000
0.531495512 0.793257535 0.000000000
0.551571190 0.806034029 0.000000000
0.579789817 0.817072213 0.000000000
0.614053190 0.828091979 0.000000000
0.651653171 0.840184987 0.000000000
0.691535532 0.850115180 0.000000000
0.730145216 0.855597258 0.000000000
0.766128778 0.853668332 0.000000000
0.794747174 0.840419173 0.000000000
0.819331050 0.826808631 0.000000000
0.020067126 0.021286750 0.056877628
0.020795312 0.022697814 0.058599625
0.037590250 0.027063750 0.075150251
0.100596569 0.008518187 0.078442380
0.163419515 0.000924375 0.071509868
0.224990129 0.000000000 0.065101504
0.279759526 0.000460625 0.055375997
0.337259978 0.002122376 0.045808371
0.398086786 0.003850751 0.034406245
0.460215181 0.012695063 0.017810561
0.520735860 0.029964875 0.005647125
0.577714801 0.050526246 0.001830938
0.632816732 0.069948509 0.000000000
0.686189890 0.090736397 0.000000000
0.736650467 0.109536514 0.000116251
0.781998873 0.126753628 0.000930000
0.820948839 0.140354246 0.000930000
0.023351688 0.028550126 0.069087192
0.025570687 0.035641249 0.079984501
0.038948752 0.044502065 0.092746377
0.098188519 0.040831245 0.090254128
0.175037622 0.033535123 0.081211060
0.245211065 0.036528874 0.068989187
0.305593193 0.046819754 0.053286366
0.363297969 0.056826569 0.034226865
0.423220754 0.068761311 0.018275183
0.484189749 0.081150696 0.010211000
0.542023718 0.091425247 0.006025875
0.596983731 0.102421060 0.001526062
0.650057673 0.116625942 0.000000000
0.700490892 0.131961197 0.000158626
0.747345984 0.147079319 0.000803625
0.789640665 0.161340132 0.000930000
0.825694859 0.173812121 0.000930000
0.024859998 0.046092123 0.083194628
0.028620750 0.056438249 0.094241560
0.042892002 0.071960002 0.103381872
0.100004837 0.081213124 0.102307253
0.192665994 0.088268124 0.096503124
0.267281055 0.098152243 0.085742563
0.329348773 0.104122743 0.067040987
0.385912329 0.107003063 0.040798798
0.441562384 0.113033623 0.019480994
0.499412984 0.120691940 0.008722875
0.555463731 0.130059123 0.003452500
0.609049320 0.142032683 0.000000000
0.660259843 0.156565756 0.000000000
0.708042502 0.171772137 0.000000000
0.751747429 0.186858758 0.000105750
0.791215360 0.201403826 0.000116250
0.825160265 0.214665502 0.000116250
0.045899935 0.086819202 0.106240883
0.048400555 0.097206458 0.110754937
0.045624811 0.109427512 0.109189376
0.088313460 0.119015440 0.099269174
0.193126246 0.129852578 0.101969555
0.274251044 0.139076263 0.092073560
0.337137759 0.143409893 0.070480607
0.391657531 0.144824326 0.039727487
0.445522606 0.150070637 0.017941561
0.502225637 0.159248695 0.007339000
0.558177769 0.170672521 0.002427875
0.611331105 0.184528574 0.000000000
0.661088526 0.199835032 0.000000000
0.706285179 0.215904847 0.000000000
0.747051120 0.232064843 0.000000000
0.784353912 0.247825369 0.000000000
0.818932474 0.261962950 0.000000000
0.033410124 0.135529384 0.123874873
0.026647810 0.141005933 0.117169932
0.029680997 0.145903006 0.099868871
0.070779763 0.160664558 0.075835049
0.166157752 0.164223254 0.060447745
0.269468129 0.174357116 0.083617240
0.337013602 0.177380145 0.060057361
0.393353015 0.179843694 0.029276371
0.448813856 0.185925141 0.013395872
0.505434930 0.196504757 0.006126813
0.560449362 0.209660754 0.001784250
0.612248361 0.225201309 0.000000000
0.659659743 0.241634130 0.000000000
0.702417612 0.258340329 0.000000000
0.741812825 0.275086641 0.000000000
0.778733134 0.291563630 0.000000000
