hollywood-luts/Oblivion.cube
TITLE "17x17x17 Adobe/IRIDAS cube 3D LUT exported with GrossGrade v0.2.2 (beta) 64 bit"
DOMAIN_MIN 0 0 0
DOMAIN_MAX 1 1 1
LUT_3D_SIZE 5
0.000000000 0.000476000 0.009380000
0.171184748 0.033591002 0.009380000
0.383490026 0.048783500 0.055702999
0.634642780 0.032820746 0.067639999
0.942923009 0.000686000 0.053013999
0.006504750 0.189709261 0.080036998
0.171593755 0.217006743 0.065664500
0.419711530 0.243798003 0.052635498
0.664342225 0.254834265 0.054075997
0.967801750 0.261322498 0.033907000
0.001007500 0.365900993 0.222246006
0.099608496 0.368585497 0.193618000
0.395286500 0.443235517 0.152574003
0.716990292 0.486257255 0.029942244
0.993933976 0.504819512 0.009380000
0.004177500 0.549791276 0.358371496
0.014811249 0.545628011 0.322400987
0.290904254 0.581918538 0.325599253
0.643742085 0.681022465 0.196788505
1.003310442 0.769003749 0.009395757
0.006820000 0.765061975 0.485276014
0.007365250 0.775532961 0.466683000
0.232213497 0.779519498 0.456193507
0.556441009 0.837643981 0.467691749
0.901871979 0.944730997 0.285093993
0.000564500 0.024514750 0.183076262
0.127677247 0.073391750 0.220375746
0.366556287 0.061653748 0.225366250
0.626000047 0.036061749 0.243679762
0.941880524 0.000743750 0.261011004
0.028312251 0.223171249 0.282235503
0.154974759 0.229060009 0.269415498
0.422278255 0.253019750 0.262900263
0.670761526 0.261773765 0.264914781
0.974174023 0.265882254 0.268853009
0.048891753 0.390177250 0.361833274
0.093581744 0.398813784 0.363247991
0.373267978 0.451640785 0.327128261
0.724283516 0.492508233 0.269178003
0.995541990 0.507459998 0.259138495
0.006329500 0.574065268 0.476513773
0.006968500 0.578696728 0.462259531
0.230005264 0.593893290 0.447486013
0.637214303 0.694164753 0.372456253
1.003544807 0.770944536 0.245360762
0.009010500 0.790182769 0.592797518
0.008853501 0.813427925 0.590245724
0.218431026 0.818798006 0.578378320
0.553817749 0.872909009 0.589344025
0.904030025 0.964115739 0.458491504
0.000102000 0.063563004 0.348807037
0.103637502 0.081680000 0.340644777
0.263862014 0.135901511 0.379453003
0.546232581 0.109313756 0.427476287
0.933696985 0.018432504 0.479640007
0.004827749 0.239072263 0.406247020
0.092195749 0.251228988 0.411056995
0.275032043 0.282601774 0.449996233
0.611180007 0.274861753 0.467889726
0.973948002 0.268377990 0.495323002
0.146831006 0.405235499 0.454169989
0.213657498 0.410461485 0.456629276
0.372840047 0.438223004 0.463787496
0.693994284 0.491101742 0.501367509
0.995961547 0.504091024 0.500832021
0.174084514 0.586301744 0.555968285
0.185021013 0.592381597 0.560461283
0.313640296 0.610986531 0.570596755
0.620198786 0.699976325 0.565642476
1.003340006 0.769846022 0.499984980
0.011231500 0.810352504 0.691462517
0.026133506 0.831937432 0.702272534
0.268645018 0.850548506 0.709635019
0.561082006 0.893175006 0.718703032
0.903600454 0.973111510 0.633717000
0.000000000 0.106397748 0.534421742
0.044713501 0.109269999 0.499563754
0.243387520 0.134789765 0.503014982
0.419357538 0.195578992 0.541639268
0.708204508 0.190366253 0.624017239
0.000139500 0.259008020 0.544526041
0.016408499 0.269620746 0.560601771
0.217175528 0.285659760 0.573456466
0.426068246 0.312902272 0.604626060
0.753899455 0.321254015 0.671022236
0.134228498 0.421448767 0.574002981
0.178850502 0.425577492 0.584171295
0.275526524 0.451442510 0.618199289
0.475472271 0.493403286 0.681860507
0.897907436 0.507863998 0.735693514
0.302669019 0.594802737 0.622800708
0.359264523 0.602919221 0.627944469
0.466614544 0.625618219 0.636856973
0.660003304 0.686789751 0.685157478
0.978616238 0.753748775 0.767207801
0.263395756 0.821895003 0.770577729
0.337527007 0.843172312 0.792104006
0.466622770 0.873098254 0.823086739
0.615385771 0.902012765 0.851968765
0.864960790 0.967332482 0.836833000
0.000000000 0.163791001 0.740472972
0.000363000 0.153506249 0.690155029
0.180133015 0.163461000 0.681125998
0.411989033 0.206735000 0.699208260
0.583489001 0.264571011 0.740646005
0.000000000 0.295738012 0.712324262
0.000000000 0.298491508 0.737570524
0.124429777 0.300615758 0.747821212
0.407165259 0.316554010 0.760104001
0.597312510 0.360657007 0.792474270
0.010923004 0.453903496 0.766714513
0.063016765 0.456108004 0.780369520
0.182272524 0.472952008 0.808498025
0.429666519 0.491577238 0.847432733
0.663361549 0.553053021 0.896041989
0.336465269 0.627115548 0.761670709
0.379985750 0.641250014 0.779701710
0.463358521 0.671991289 0.806699753
0.591387272 0.730789781 0.891962469
0.747715771 0.783650517 0.979081750
0.462586999 0.823137999 0.840139985
0.531800270 0.849950492 0.865122736
0.644274950 0.877770543 0.886413515
0.801754475 0.903372526 0.902069271
0.943333983 0.930621982 0.931971014
