hollywood-luts/Oblivion.cube
TITLE "17x17x17 Adobe/IRIDAS cube 3D LUT exported with GrossGrade v0.2.2 (beta) 64 bit"
DOMAIN_MIN 0 0 0
DOMAIN_MAX 1 1 1
LUT_3D_SIZE 17
0.000000000 0.000476000 0.009380000
0.020446876 0.004420063 0.012951875
0.068436123 0.012454750 0.009957749
0.120066449 0.023615627 0.009401750
0.171184748 0.033591002 0.009380000
0.222323820 0.041425064 0.018866813
0.274442255 0.046536624 0.034963377
0.327983081 0.048680499 0.048021253
0.383490026 0.048783500 0.055702999
0.441670060 0.047051627 0.060714684
0.502927661 0.043572750 0.064413875
0.567247629 0.038906813 0.066767313
0.634642780 0.032820746 0.067639999
0.705496788 0.025799617 0.066847250
0.779995918 0.017811866 0.064197868
0.858296812 0.008353805 0.059527744
0.942923009 0.000686000 0.053013999
0.002010000 0.033640999 0.009430625
0.024094688 0.043411627 0.009409063
0.071751438 0.053492941 0.009620063
0.126517817 0.063625127 0.009387250
0.179006502 0.072801754 0.009458750
0.230148003 0.080266818 0.020396626
0.281399459 0.085519128 0.034449939
0.333606035 0.089052625 0.044974942
0.387559921 0.090893127 0.051366191
0.444114238 0.091552190 0.055450372
0.503746033 0.091375314 0.058337942
0.566694498 0.090335250 0.060227316
0.633264244 0.088535689 0.060760498
0.703636825 0.086309627 0.059902620
0.778100908 0.082893372 0.057467494
0.857052743 0.078427434 0.053338744
0.942374527 0.073400378 0.046987750
0.010651626 0.086546868 0.009386750
0.026909687 0.089666627 0.009589188
0.068954006 0.098655865 0.009383875
0.128310814 0.110017315 0.010243689
0.185320765 0.119234130 0.016117375
0.238585442 0.126340687 0.026644999
0.290897042 0.131895125 0.037675004
0.343624651 0.136020184 0.045742877
0.397578388 0.139080882 0.051076129
0.453716815 0.141168877 0.054626249
0.512786508 0.142653257 0.056999624
0.575135231 0.143696755 0.058364440
0.640989006 0.144213885 0.058371872
0.710498810 0.144151181 0.057161555
0.784227371 0.143402636 0.054173995
0.862651050 0.142046005 0.049483806
0.947927475 0.140396625 0.043233000
0.012677061 0.139676571 0.036259130
0.026140748 0.139006257 0.037151948
0.057821434 0.141287774 0.032587323
0.118124008 0.156930819 0.033557568
0.185471565 0.169699758 0.033880629
0.245341122 0.177281275 0.036754191
0.300264448 0.182693943 0.042186312
0.354109228 0.187036067 0.047356818
0.408697844 0.190512136 0.051503815
0.465148509 0.193438634 0.054603439
0.524376571 0.195959002 0.056514062
0.586764276 0.198091000 0.057410125
0.652372897 0.199782252 0.056965064
0.721320450 0.200916260 0.054898996
0.794241250 0.201461822 0.051107183
0.872052670 0.201665074 0.045822430
0.956958234 0.201968074 0.039253753
0.006504750 0.189709261 0.080036998
0.020708812 0.186920196 0.076047562
0.046719372 0.184968501 0.070265248
0.097569324 0.195170686 0.067704126
0.171593755 0.217006743 0.065664500
0.244549200 0.229690939 0.056244377
0.307278752 0.236061648 0.051234998
0.364044845 0.240301430 0.051006123
0.419711530 0.243798003 0.052635498
0.476768196 0.246939257 0.054351933
0.536341846 0.249865994 0.055350624
0.598867834 0.252519131 0.055292003
0.664342225 0.254834265 0.054075997
0.733022511 0.256771386 0.051319059
0.805747449 0.258302271 0.046943620
0.883159876 0.259641379 0.040972430
0.967801750 0.261322498 0.033907000
0.001632250 0.235966310 0.118734434
0.014385874 0.233114004 0.111235932
0.038127940 0.229822949 0.105002940
0.081672512 0.233664066 0.100950189
0.147673264 0.252361834 0.102491498
0.227815121 0.276229203 0.094143376
0.304474831 0.288738251 0.073199622
0.370591521 0.294842958 0.060184374
0.429977059 0.298559606 0.055554375
0.488290161 0.301715374 0.054373436
0.548411250 0.304817140 0.053672373
0.611190617 0.307708383 0.052244253
0.676807106 0.310362756 0.049752750
0.745531440 0.312849700 0.046032310
0.818236530 0.315152824 0.040968746
0.895360947 0.317438126 0.034309369
0.978470623 0.320343137 0.026523437
0.000449125 0.279937267 0.153612256
0.007475998 0.278113216 0.144851625
0.029482497 0.275395781 0.137524515
0.070045196 0.275618643 0.132285267
0.129990131 0.287847131 0.134077638
0.202207610 0.310770154 0.137007132
0.284312040 0.333472669 0.117887139
0.364908338 0.346561670 0.085292682
0.435616255 0.353581131 0.064349011
0.498757750 0.357696921 0.055282380
0.560427248 0.361013770 0.051264253
0.623814344 0.364201814 0.048152685
0.689828634 0.367207140 0.044364244
0.758897901 0.370169252 0.039453991
0.831723273 0.373116642 0.033449993
0.908355296 0.376181722 0.026281118
0.985054374 0.380235642 0.018144373
0.000604750 0.322875917 0.187975019
0.002563937 0.322126448 0.179135323
0.018278431 0.320513546 0.170770258
0.057282254 0.319951713 0.164317951
0.115920246 0.326801449 0.163480014
0.183823541 0.345134884 0.170855522
0.255657494 0.367082983 0.169050455
0.339930713 0.388722360 0.137149379
0.425980747 0.403886348 0.093295455
0.502712071 0.413133144 0.064108267
0.570854366 0.418460011 0.050135508
0.636521041 0.422279567 0.043009937
0.703420341 0.425725549 0.037562117
0.772986650 0.429125100 0.031589113
0.846144915 0.432702571 0.024757490
0.922408223 0.436451167 0.017805494
0.989542186 0.441623330 0.011715373
0.001007500 0.365900993 0.222246006
0.001077313 0.365495831 0.213745072
0.008345623 0.364675045 0.204619125
0.040329441 0.364599437 0.197345078
0.099608496 0.368585497 0.193618000
0.168526813 0.381686985 0.198563129
0.235847756 0.401066124 0.206836373
0.306407988 0.420636773 0.196600556
0.395286500 0.443235517 0.152574003
0.488327384 0.461949378 0.098158389
0.572529852 0.474466383 0.059994884
0.646803498 0.481599867 0.040278751
0.716990292 0.486257255 0.029942244
0.787671685 0.490145057 0.022678491
0.861330569 0.494252861 0.016166994
0.937137723 0.498683512 0.011665624
0.993933976 0.504819512 0.009380000
0.001671438 0.409981370 0.256380498
0.001547437 0.409162730 0.248028740
0.003320000 0.408327073 0.238374993
0.023188764 0.408736289 0.230381489
0.077357747 0.411729306 0.225143820
0.149985567 0.420663297 0.225663558
0.219802082 0.436522424 0.234030873
0.283799946 0.454408824 0.239647239
0.356041729 0.473247707 0.220565170
0.451886117 0.498698920 0.165492177
0.553095639 0.521793664 0.100425184
0.645762980 0.538160145 0.052612562
0.726854026 0.547626615 0.026925310
0.801914632 0.553394318 0.015648121
0.876899719 0.558059990 0.010564624
0.952075243 0.563043952 0.009396875
0.997969687 0.569832206 0.009380000
0.002459875 0.455283642 0.290509999
0.002323375 0.453965157 0.282086372
0.002367250 0.452562749 0.272150248
0.011127634 0.452712774 0.263244241
0.051720250 0.455219626 0.257168502
0.123887807 0.461798877 0.254868627
0.199905902 0.473854989 0.258759499
0.266759783 0.489978492 0.267966866
0.329713374 0.506826878 0.269972235
0.407397419 0.527186751 0.242301017
0.511467636 0.556439400 0.176632494
0.621213257 0.584091246 0.100717813
0.722359598 0.604431629 0.043443494
0.810577691 0.616578996 0.014997307
0.890562057 0.623648703 0.009380000
0.965610266 0.629204810 0.009380000
1.001317143 0.636253893 0.009380000
0.003311750 0.501719236 0.324630946
0.003173000 0.500377059 0.316398472
0.002997250 0.498613060 0.306644887
0.005297256 0.497872740 0.296794206
0.029426813 0.499327540 0.289452642
0.092036247 0.504433274 0.285951436
0.171732202 0.513755441 0.286202043
0.246031523 0.527275264 0.291985631
0.311500162 0.543361485 0.300846189
0.377172738 0.560805142 0.299142748
0.462961048 0.584234118 0.262608141
0.575511694 0.617372751 0.186454058
0.692560911 0.648984015 0.100670353
0.800860286 0.672863364 0.035526726
0.894875348 0.687370598 0.012037436
0.973222554 0.695593655 0.009380000
1.003448963 0.703173518 0.009380000
0.004177500 0.549791276 0.358371496
0.004041500 0.548898339 0.350747377
0.003870625 0.547265410 0.341643870
0.003888878 0.545687199 0.331331939
0.014811249 0.545628011 0.322400987
0.062235437 0.548901081 0.317843556
0.138355643 0.556175470 0.316699505
0.217954725 0.567291975 0.318651706
0.290904254 0.581918538 0.325599253
0.358081877 0.598880470 0.333965689
0.429471999 0.618191361 0.328047752
0.524500012 0.645081162 0.282435238
0.643742085 0.681022465 0.196788505
0.764813900 0.715199590 0.103770263
0.876592875 0.741311133 0.034509744
0.968156338 0.757640183 0.013137128
1.003310442 0.769003749 0.009395757
0.005023501 0.599824369 0.391872704
0.004901814 0.599808812 0.385206699
0.004742126 0.598590314 0.376850098
0.004538001 0.596720636 0.366753906
0.007707498 0.595491529 0.356748343
0.040521991 0.596551597 0.350623399
0.108554572 0.601466179 0.348658144
0.187823772 0.610452890 0.348922908
0.265424162 0.623153389 0.352015406
0.339101046 0.639284492 0.359954327
0.410310149 0.657748699 0.367417961
0.489507735 0.679160476 0.356305480
0.592693448 0.708573461 0.302315056
0.713317513 0.745106280 0.210425779
0.833352029 0.780304670 0.115063444
0.943353653 0.808270216 0.041739330
0.999977827 0.830151856 0.015206231
0.005778750 0.651825190 0.423866391
0.005686688 0.653374255 0.418722004
0.005535125 0.653109193 0.411364287
0.005331376 0.651682258 0.402126312
0.005778750 0.650076568 0.392124176
0.029921126 0.649287105 0.384745598
0.090856142 0.651464701 0.381617785
0.165692717 0.657838345 0.381471157
0.241496757 0.668285847 0.382700264
0.318650097 0.682532430 0.386632204
0.395174146 0.700192809 0.394800246
0.472362816 0.719971478 0.400383413
0.559156537 0.742823482 0.383903265
0.665299356 0.773211241 0.323549151
0.781870484 0.809562445 0.228685021
0.898373008 0.845990360 0.132222533
0.988756716 0.879381895 0.053697608
0.006406563 0.706218958 0.454619795
0.006330750 0.709774971 0.451286346
0.006191438 0.711000681 0.445268035
0.005995751 0.710842013 0.437409014
0.005921564 0.710018158 0.428858340
0.029104259 0.708529115 0.421809316
0.088171653 0.708402932 0.417769760
0.158591107 0.711723447 0.416811228
0.228506267 0.719252646 0.417286098
0.303564191 0.730700016 0.418090731
0.383967429 0.746025920 0.421580434
0.465673983 0.765076697 0.429426074
0.548994303 0.786111593 0.433342904
0.637889266 0.809582829 0.412514925
0.738813877 0.840105891 0.347417414
0.846486390 0.875802338 0.251090914
0.958859742 0.915884137 0.156868502
0.006820000 0.765061975 0.485276014
0.006732813 0.770495713 0.483351290
0.006598375 0.773324609 0.479066759
0.006421563 0.774972916 0.472905755
0.007365250 0.775532961 0.466683000
0.039152682 0.774688423 0.461580247
0.102733642 0.773549378 0.457738370
0.169491708 0.774462104 0.455851167
0.232213497 0.779519498 0.456193507
0.302147061 0.788586080 0.456032246
0.383167118 0.800800264 0.454730988
0.470226198 0.817174017 0.457711935
0.556441009 0.837643981 0.467691749
0.635088682 0.857893467 0.474513352
0.709780097 0.879491925 0.456407428
0.800923049 0.911091685 0.384455770
0.901871979 0.944730997 0.285093993
0.000459375 0.000476000 0.028530313
0.023468439 0.003989750 0.038456563
0.068200059 0.010512437 0.037802186
0.120060824 0.020320565 0.033886254
0.170929372 0.031689938 0.043485127
0.220984444 0.040012501 0.059682436
0.271533549 0.044473812 0.073962130
0.323683530 0.046221253 0.084091187
0.378130198 0.045304373 0.091062441
0.435419947 0.042551816 0.096406624
0.496060610 0.038256940 0.100771807
0.560281932 0.032289937 0.104212627
0.628009975 0.025127999 0.106568053
0.699434876 0.016916241 0.107857808
0.775063455 0.008627743 0.107846811
0.855136573 0.001961935 0.106374748
0.940971136 0.000489125 0.103012756
0.004576875 0.044954751 0.053763125
0.026516251 0.050419439 0.053620625
0.069551252 0.056719873 0.047971748
0.124768324 0.064294003 0.046789818
0.178340122 0.072538882 0.056434438
0.229714826 0.080139503 0.069451869
0.280777901 0.086014435 0.081090562
0.332884341 0.090047874 0.089862622
0.386818379 0.092481621 0.096185125
0.443385392 0.093730435 0.101176247
0.503158808 0.093900561 0.105196819
0.566416323 0.093161821 0.108259194
0.633361936 0.091553122 0.110420629
0.704099357 0.089082755 0.111632377
0.779037476 0.085740484 0.111443877
0.858337164 0.081490368 0.109654933
0.944092989 0.076163180 0.106133685
0.006698000 0.098036498 0.078759998
0.027116623 0.101003066 0.080637872
0.065343320 0.105765186 0.072815686
0.125166267 0.113417245 0.067946434
0.185484275 0.119733505 0.070407562
0.239880756 0.125248745 0.077353254
0.292044818 0.130266562 0.085647501
0.344407231 0.134319931 0.092566997
0.398199707 0.137432262 0.097912066
0.454271555 0.139734700 0.102219820
0.513359010 0.141471252 0.105690882
0.575872898 0.142671883 0.108339690
0.641969502 0.143298447 0.109980628
0.711761892 0.143342376 0.110509939
0.785760224 0.142667621 0.109706379
0.864460051 0.141436502 0.107590631
0.949880421 0.139668182 0.104060680
0.004223625 0.151033327 0.111255191
0.022066060 0.152046129 0.112741947
0.052663188 0.152959704 0.105740130
0.111211069 0.163069963 0.096807130
0.183186382 0.173524752 0.089227945
0.246826619 0.179229572 0.088386133
0.302792192 0.183162257 0.092257753
0.356650472 0.186614126 0.096914068
0.411134988 0.189590961 0.101076938
0.467524141 0.192180321 0.104580566
0.526667833 0.194498822 0.107360065
0.588959277 0.196535572 0.109346561
0.654400229 0.198160082 0.110245503
0.723195374 0.199262083 0.109977752
0.796159267 0.199826777 0.108400933
0.873826683 0.200059578 0.105555370
0.958696365 0.200571835 0.101623431
0.001839938 0.200001135 0.142935932
0.014883750 0.200169325 0.142344564
0.040567063 0.198730126 0.136205003
0.088457391 0.203333691 0.128193572
0.163402066 0.220591754 0.118672810
0.242083177 0.233247682 0.107274443
0.308342665 0.238777578 0.102164939
0.366381288 0.241898939 0.102430813
0.422550648 0.244586810 0.104545251
0.479928523 0.247127682 0.106798366
0.539706349 0.249605551 0.108613744
0.602294087 0.251946390 0.109739125
0.667654157 0.253972948 0.109855436
0.735985219 0.255627990 0.108690500
0.808250129 0.256968677 0.106253251
0.885445356 0.258184075 0.102683932
0.969848514 0.259980351 0.098164931
0.000845188 0.245029569 0.172645375
0.007789562 0.245422006 0.171053201
0.029162064 0.243569195 0.164288759
0.070632957 0.242986381 0.156227559
0.134482831 0.255044103 0.150570258
0.218755558 0.278026611 0.140306190
0.301797777 0.291760802 0.122318439
0.371112078 0.297516435 0.111803688
0.431880385 0.300406873 0.108617686
0.490917474 0.302856982 0.108494312
0.551545858 0.305393755 0.108900748
0.614692330 0.307925671 0.108869940
0.680432677 0.310277671 0.107986562
0.748990834 0.312428087 0.105987310
0.821269095 0.314446688 0.102844618
0.897939622 0.316499799 0.098586619
0.979964733 0.319423169 0.093409061
0.000699438 0.287881643 0.201552570
0.003122562 0.288765073 0.199653521
0.018055812 0.287618518 0.192138523
0.055658884 0.285188586 0.183331013
0.112905696 0.290044844 0.177777380
0.186367676 0.309596717 0.176159948
0.275426060 0.334822953 0.160983697
0.362355411 0.349382848 0.134357631
0.435842246 0.356030047 0.117501065
0.500271559 0.359409720 0.110707439
0.562688291 0.362124026 0.108337753
0.626615882 0.364873081 0.106781751
0.692981005 0.367554337 0.104680434
0.762101054 0.370166272 0.101703808
0.834729314 0.372800887 0.097890109
0.910851896 0.375704080 0.092997231
0.985949993 0.379704714 0.087251246
0.001051938 0.330019444 0.230880260
0.001471750 0.331452340 0.229168743
0.008859121 0.331165850 0.221478954
0.039861754 0.329450548 0.212467775
0.095447868 0.330120742 0.204987451
0.163018987 0.342316151 0.205008209
0.239914328 0.365260005 0.203602761
0.331937045 0.390604854 0.179367274
0.423825562 0.406731725 0.143131837
0.502995729 0.415357620 0.119266644
0.572179377 0.420021355 0.108481750
0.638471484 0.423336923 0.103675365
0.705812573 0.426405340 0.100143187
0.775613487 0.429465979 0.096129611
0.848724425 0.432665348 0.091570988
0.924557865 0.436345935 0.086173356
0.990219235 0.441392154 0.080038115
0.001594063 0.372697353 0.261047751
0.001580000 0.374368846 0.259584248
0.003804562 0.374458015 0.251878202
0.024016073 0.374100029 0.243166879
0.075932503 0.374123216 0.234854192
0.144629374 0.380556464 0.232036069
0.215122312 0.397295505 0.236046314
0.292469174 0.420254141 0.230049431
0.388444453 0.445824027 0.194913015
0.486673623 0.464826226 0.149089456
0.573009849 0.476479352 0.117603257
0.648054540 0.483004004 0.102162004
0.718639851 0.487196058 0.094720691
0.789569914 0.490804166 0.089385867
0.863288760 0.494550377 0.084059864
0.938709140 0.498881340 0.078263745
0.994409919 0.504879057 0.072174504
0.002271125 0.416724741 0.292031825
0.002248750 0.417976260 0.290223569
0.002476500 0.417836636 0.282458484
0.012164012 0.418164253 0.273807198
0.053399816 0.419094861 0.265926242
0.123189062 0.423097104 0.260879189
0.196290761 0.434342176 0.262900323
0.265949965 0.452495307 0.267553568
0.344543338 0.474752486 0.254221559
0.446231872 0.501717508 0.208077937
0.551945388 0.524569273 0.152672559
0.646429241 0.539968133 0.112970874
0.728057504 0.548817039 0.092197627
0.803166211 0.554165900 0.082106560
0.878147364 0.558570266 0.075612180
0.952986479 0.563415766 0.069802739
0.998222888 0.570089519 0.063904881
0.003056687 0.462042630 0.323762953
0.003018437 0.462734848 0.321144313
0.002877813 0.462090611 0.313168943
0.005990132 0.462012917 0.304046571
0.032290377 0.463405669 0.296234310
0.095717445 0.467043310 0.290909648
0.173860654 0.475090444 0.289750010
0.246445268 0.489113718 0.294872195
0.315630138 0.507388592 0.297754675
0.398185939 0.530020714 0.275973231
0.506965816 0.559613168 0.219505116
0.620586634 0.586705983 0.154472381
0.723199844 0.606136262 0.106240556
0.811587989 0.617563188 0.079822436
0.891265392 0.624189258 0.068047680
0.966004610 0.629564941 0.061566684
1.001435995 0.636520684 0.056409124
0.003909250 0.508578002 0.356363744
0.003862375 0.509373605 0.353223115
0.003713375 0.508338392 0.344973117
0.004100503 0.507264078 0.335103571
0.017167188 0.507837057 0.326168299
0.066495314 0.511040390 0.320690751
0.143982202 0.517717659 0.318371117
0.223181158 0.528765559 0.320238203
0.294989437 0.544176519 0.326593965
0.366082728 0.563004732 0.326436669
0.455509484 0.587664902 0.296039522
0.572079182 0.620656848 0.229983434
0.692436457 0.651634455 0.155930489
0.801819444 0.674527049 0.099659286
0.895508945 0.688216090 0.069305114
0.973394096 0.695888400 0.056858741
1.003476262 0.703417659 0.052009374
0.004776500 0.556809604 0.389272451
0.004738000 0.558463991 0.386398703
0.004591125 0.557477176 0.378258556
0.004392501 0.555690348 0.368004054
0.009092877 0.554811835 0.357610881
0.042285994 0.556441903 0.350750625
0.111751959 0.561751127 0.348160058
0.193374708 0.570924640 0.348132789
0.271546125 0.583970726 0.351788074
0.344529629 0.600732327 0.358402997
0.420233488 0.621284008 0.354690075
0.518386900 0.649015546 0.316028595
0.641218364 0.684726119 0.241328478
0.765072286 0.718058646 0.160167202
0.877591431 0.743061066 0.098583549
0.968433499 0.758261859 0.066105805
1.003350735 0.769383848 0.053017639
0.005619563 0.606766403 0.421846271
0.005604376 0.609945834 0.420178294
0.005471564 0.609739900 0.412833393
0.005275438 0.608026326 0.402945757
0.006011187 0.606212795 0.391988754
0.026012428 0.605805218 0.383224279
0.085065506 0.608706355 0.379376590
0.163752526 0.615810275 0.378753752
0.244224757 0.626873910 0.379908234
0.322793305 0.641892314 0.384821475
0.399050206 0.660621405 0.391352504
0.481550276 0.683420300 0.383492738
0.587616324 0.713580310 0.337097645
0.711600006 0.749595284 0.256011307
0.833726645 0.783587754 0.171755880
0.944135129 0.810222745 0.106895886
1.000114202 0.831013620 0.068098679
0.006372063 0.658670127 0.453058481
0.006380876 0.663989067 0.453111619
0.006271438 0.665096343 0.447052479
0.006092438 0.664194465 0.438258708
0.005871939 0.662429392 0.427920520
0.018333687 0.660711706 0.418344349
0.070015594 0.660987854 0.412895918
0.143851966 0.665228605 0.411550164
0.221014380 0.673938572 0.411993027
0.300737113 0.686938763 0.413968325
0.382213503 0.704129517 0.419717520
0.463593751 0.724764705 0.425383538
0.552786052 0.748954833 0.412871927
0.661314666 0.779669702 0.360032976
0.780729830 0.814882696 0.274869472
0.898720324 0.850071192 0.189151898
0.989052355 0.881938219 0.119678661
0.006987688 0.713120222 0.482715905
0.007009188 0.720600665 0.484581172
0.006912188 0.723314166 0.480211824
0.006754376 0.723899961 0.473176271
0.006556563 0.723255575 0.464528531
0.017612569 0.721569240 0.455976307
0.068700850 0.720241547 0.450128883
0.140057236 0.721653342 0.447665632
0.211832523 0.727496386 0.447578251
0.287513137 0.737929404 0.448044658
0.370984256 0.752614141 0.449853450
0.456938744 0.771635175 0.455857515
0.542584896 0.793707848 0.460619062
0.632733047 0.818043768 0.443991363
0.735523462 0.848183870 0.385887474
0.845330477 0.882438898 0.298621476
0.959459066 0.920719087 0.213334560
0.007412500 0.772308826 0.513112247
0.007406875 0.781340718 0.516061604
0.007307437 0.785421729 0.513193667
0.007176188 0.787854195 0.508217692
0.007009000 0.788780630 0.501941264
0.023418874 0.788193405 0.495919883
0.081477717 0.786975026 0.491408378
0.152889714 0.787040174 0.488559246
0.219904274 0.790859818 0.488087833
0.290757895 0.799249589 0.488418311
0.372992098 0.811113477 0.487185955
0.462873071 0.826849937 0.488194764
0.550761402 0.847203791 0.496986926
0.629696012 0.868304610 0.505619764
0.705390453 0.890211582 0.491055012
0.799756587 0.920165062 0.424358100
0.902946353 0.951550424 0.330961198
0.002033500 0.003850875 0.075626373
0.019766312 0.012690749 0.088511877
0.055126000 0.024919499 0.105957873
0.106750011 0.033535749 0.108935744
0.163899884 0.038973499 0.106178500
0.217561066 0.043760687 0.110266060
0.269328892 0.046532877 0.118018374
0.321694225 0.047584876 0.125344872
0.376038253 0.046661124 0.131717384
0.433329970 0.043628812 0.137381375
0.494080365 0.039033122 0.142336503
0.558479428 0.032703310 0.146700993
0.626635373 0.024835248 0.150442004
0.698564827 0.015812740 0.153327823
0.774435461 0.006969994 0.155091375
0.854538679 0.001136624 0.155388936
0.940198720 0.000476000 0.154061496
0.005237500 0.055335749 0.111723185
0.024516001 0.062728062 0.114154071
0.058168564 0.067805439 0.117915064
0.111894391 0.072228760 0.116801932
0.171069756 0.076570064 0.115070686
0.226263076 0.081636436 0.118680865
0.278864890 0.086483747 0.125178933
0.331459224 0.090215318 0.131419376
0.385596693 0.092585497 0.136771560
0.442337573 0.093649812 0.141541123
0.502323925 0.093698375 0.145772249
0.565810919 0.092657439 0.149448380
0.633006752 0.090667248 0.152569175
0.704064131 0.087764189 0.154991493
0.779190958 0.083979242 0.156378925
0.858817160 0.079260796 0.156409562
0.944692612 0.073962562 0.155191809
0.008023250 0.110567376 0.151040882
0.031200750 0.112358809 0.145281747
0.063916631 0.114243001 0.139151618
0.116660021 0.119758680 0.134170115
0.179356128 0.124651365 0.130731761
0.237583071 0.128956690 0.131925300
0.291460246 0.133637130 0.136294618
0.344441444 0.138012886 0.141250074
0.398545027 0.141614377 0.145753995
0.454895884 0.144439936 0.149837002
0.514297545 0.146613255 0.153547123
0.577094555 0.148135245 0.156809196
0.643441617 0.149008006 0.159480125
0.713448465 0.149175867 0.161364183
0.787562430 0.148573115 0.162203759
0.866375625 0.147008494 0.161724374
0.951823711 0.144604504 0.160020739
0.007337812 0.160992205 0.176333562
0.030067058 0.161154076 0.171021819
0.061288193 0.161556587 0.165578753
0.109742694 0.168066144 0.156799614
0.178164810 0.177353069 0.147990257
0.245441258 0.182399198 0.143557191
0.303538203 0.185422003 0.144127488
0.357803762 0.188464880 0.146933258
0.412208438 0.191356257 0.150157318
0.468583316 0.193977326 0.153213009
0.527785659 0.196423620 0.156069502
0.590165257 0.198657006 0.158664376
0.655774653 0.200464517 0.160657823
0.724786639 0.201652706 0.161746502
0.797833979 0.202274561 0.161795050
0.875653625 0.202489272 0.160706878
0.960674345 0.202688009 0.158704624
0.004686000 0.208403751 0.198547125
0.020379564 0.208452448 0.195304006
0.049511001 0.208597124 0.192364246
0.091089010 0.211434677 0.185147375
0.158281490 0.224766627 0.174069375
0.239073068 0.237138927 0.160900190
0.309189260 0.242186502 0.154302746
0.368646145 0.244472444 0.153763816
0.424966007 0.246526390 0.155427992
0.482217252 0.248671070 0.157418996
0.541888833 0.250910521 0.159270138
0.604368269 0.253139764 0.160834074
0.669639230 0.255145639 0.161749378
0.737966776 0.256761074 0.161770314
0.810248017 0.258037508 0.160870761
0.887295008 0.259217501 0.159028441
