hollywood-luts/Okja.cube
TITLE "17x17x17 Adobe/IRIDAS cube 3D LUT exported with GrossGrade v0.2.2 (beta) 64 bit"
DOMAIN_MIN 0 0 0
DOMAIN_MAX 1 1 1
LUT_3D_SIZE 17
0.000000000 0.000000000 0.000000000
0.063078754 -0.000238125 -0.000238125
0.126144379 0.000196625 0.000257875
0.188283637 0.000479563 0.001475000
0.249641493 0.001295750 0.003195500
0.310431242 0.002970000 0.004808500
0.370862514 0.004655626 0.006964127
0.430046350 0.006786939 0.010275377
0.487895519 0.009943500 0.014557501
0.545363188 0.013662687 0.019349750
0.603266358 0.017379500 0.024279499
0.662150741 0.021099813 0.029245751
0.722374797 0.024826501 0.034318000
0.783573866 0.028549880 0.039145757
0.845758915 0.032190755 0.043817878
0.908372939 0.035122190 0.047691379
0.969165981 0.036175001 0.049632002
-0.000419063 0.061650939 0.000317812
0.063238129 0.061747495 0.000265313
0.126274869 0.062073749 0.000149688
0.188979998 0.062575623 0.000778750
0.250727504 0.062992439 0.002000750
0.311990201 0.063700810 0.003864812
0.372664064 0.064930938 0.005976314
0.431764752 0.066802502 0.009058127
0.489697337 0.069183312 0.013132002
0.547349215 0.071969315 0.017800437
0.605311632 0.075113751 0.022702813
0.664241970 0.078481689 0.027634811
0.724509001 0.081862248 0.032616436
0.785755813 0.085174873 0.037345376
0.848024786 0.088383377 0.041847378
0.910797954 0.091311499 0.045844067
0.971783459 0.092761561 0.047791690
-0.000153875 0.123452380 0.001319000
0.063120931 0.123415060 0.002231625
0.125603870 0.123573750 0.001482625
0.188838333 0.123733118 0.001356250
0.251379132 0.123959377 0.002257375
0.313170820 0.124282181 0.003261625
0.373666018 0.124823622 0.005513001
0.433030456 0.125747934 0.008622689
0.491636008 0.127112001 0.012362626
0.549954653 0.128837004 0.016665438
0.608384728 0.130928010 0.021456501
0.667658925 0.133379370 0.026404062
0.728148460 0.136057138 0.031359378
0.789475381 0.138722882 0.036233254
0.851814866 0.141357377 0.040813379
0.914637685 0.143777877 0.044817254
0.975745857 0.144967884 0.046814125
0.000542875 0.184040964 0.003765689
0.063513316 0.184174448 0.004890251
0.124573074 0.184019685 0.005631251
0.187230512 0.184652448 0.003638126
0.250826567 0.185121953 0.004077251
0.313194931 0.185199007 0.005509064
0.374871999 0.185296327 0.007012689
0.435166597 0.185531646 0.009516190
0.494570255 0.186036453 0.012635002
0.553807259 0.186787769 0.016252564
0.613248765 0.187802136 0.020419750
0.673290133 0.189150885 0.025005750
0.734139562 0.190881386 0.029821062
0.795579612 0.192829326 0.034717813
0.857907772 0.194847703 0.039496191
0.920707226 0.196742892 0.043717068
0.981937945 0.197608009 0.045755185
0.002233750 0.243956000 0.008186000
0.064366564 0.243990511 0.008205313
0.124421626 0.243287757 0.012369625
0.183594316 0.243511498 0.012545126
0.246773735 0.244974762 0.008340250
0.311775267 0.246220693 0.009615876
0.375438154 0.246368378 0.011530625
0.437247276 0.246289879 0.013603876
0.498531014 0.246276751 0.015944252
0.559108615 0.246373057 0.018779250
0.619543135 0.246566877 0.022209626
0.680582225 0.246946752 0.025955126
0.742246032 0.247611254 0.029976500
0.804182351 0.248573616 0.034331378
0.866688490 0.249753505 0.038805500
0.929507971 0.250975192 0.043109376
0.990945220 0.251483500 0.045347750
0.006293813 0.301810324 0.015936250
0.066488504 0.302027643 0.015567187
0.125025064 0.301140010 0.021019937
0.181475446 0.300413311 0.025890436
0.239307448 0.301654696 0.022812437
0.305309325 0.304940313 0.014749688
0.372899950 0.307356894 0.018019689
0.437950909 0.307761639 0.021279939
0.500824988 0.307562143 0.023664562
0.564089417 0.307355613 0.025626438
0.626798570 0.307160199 0.028106062
0.689087033 0.306949258 0.031127937
0.751413763 0.306800127 0.034383062
0.814063966 0.306807309 0.037954506
0.877247334 0.306982934 0.041729126
0.940432847 0.307293832 0.045479815
1.002273083 0.307323486 0.047527313
0.012227878 0.357972503 0.027291253
0.069935694 0.358470321 0.026177816
0.126863495 0.357774138 0.030575255
0.181796253 0.356069237 0.040533505
0.234828770 0.356232136 0.043266505
0.293458998 0.359239399 0.034963761
0.364277124 0.365093142 0.023254378
0.435005367 0.368800759 0.029629005
0.501452267 0.369553298 0.034744501
0.566521287 0.369311154 0.037229754
0.631661773 0.368898273 0.038954005
0.696476400 0.368443012 0.041113254
0.760609269 0.367930532 0.043764882
0.824248493 0.367412478 0.046728697
0.887926638 0.366882503 0.049933262
0.951619029 0.366394758 0.053121701
1.014071941 0.365888536 0.054864511
0.019767068 0.412883043 0.041520633
0.075092509 0.413720608 0.039354634
0.129923940 0.413374096 0.042279821
0.184010997 0.411186159 0.054431386
0.234549373 0.409787804 0.065151885
0.285343468 0.411380172 0.063509516
0.347649068 0.417028606 0.047720324
0.424636036 0.425740957 0.033916570
0.498677254 0.430686831 0.044527818
0.566888213 0.431817710 0.051829819
0.633805990 0.431527972 0.054833569
0.700106204 0.430853397 0.056829259
0.766577065 0.430142015 0.058954380
0.832334399 0.429381609 0.061339639
0.897193909 0.428684533 0.065009587
0.960778475 0.428443015 0.072059959
1.022583604 0.428416789 0.078689024
0.029112004 0.466712534 0.058576003
0.081889816 0.467956573 0.055547502
0.134505630 0.468028277 0.057286002
0.187493593 0.466018975 0.068863451
0.237311006 0.463172525 0.086330257
0.283842564 0.463145256 0.093023136
0.334228396 0.466588140 0.085576743
0.403027952 0.475578010 0.060479127
0.486934006 0.487185031 0.047219504
0.564058244 0.492991447 0.063165627
0.633887887 0.494346142 0.072753377
0.701724052 0.493897617 0.076470435
0.769101739 0.492998511 0.078869253
0.836356759 0.492036104 0.081103951
0.902631760 0.491306901 0.086093396
0.965210557 0.492123961 0.102422282
1.024776936 0.493523508 0.120365508
0.040440124 0.519598782 0.078966439
0.090450749 0.521326661 0.075049810
0.140713379 0.521813035 0.075997308
0.192183822 0.520542681 0.084882446
0.241809875 0.516996443 0.105649747
0.286837131 0.514837265 0.122664005
0.330338210 0.516636908 0.123683617
0.382969111 0.522657037 0.107759483
0.460543215 0.535126865 0.073230810
0.551319242 0.549199581 0.064081937
0.630828023 0.555249989 0.085769311
0.701577902 0.556563854 0.097315691
0.770065308 0.555938542 0.101522997
0.837952733 0.554875970 0.104269505
0.904597461 0.553984821 0.110359706
0.965688765 0.555496097 0.135974079
1.022835612 0.557892203 0.165146053
0.053762376 0.571412146 0.102668874
0.101151876 0.573555052 0.098032370
0.148737133 0.574504495 0.098085627
0.198247939 0.574156821 0.103813007
0.247624382 0.570740044 0.124620259
0.292455375 0.566887200 0.150066495
0.333026409 0.566535890 0.161870614
0.374950290 0.570235074 0.156489357
0.433389008 0.579451501 0.128381491
0.521476984 0.595397532 0.085685499
0.617862165 0.611342132 0.085326247
0.698480904 0.617254972 0.112159997
0.769360363 0.618312001 0.125230625
0.838007510 0.617516696 0.129975379
0.904982328 0.616536379 0.137487665
0.964717209 0.617983878 0.169585839
1.020116210 0.620398879 0.206449881
0.068967685 0.621549010 0.129406378
0.113959253 0.623954296 0.124589816
0.158687502 0.625452459 0.123446502
0.206001699 0.625876665 0.126903504
0.254642040 0.623186350 0.145239562
0.299867898 0.618477762 0.175340876
0.339542568 0.615755916 0.199069932
0.376413286 0.617519557 0.203244239
0.419165879 0.623392701 0.189150497
0.487622410 0.636579454 0.145572498
0.586759984 0.656191230 0.098753437
0.686259329 0.673596501 0.110996872
0.766229749 0.679300547 0.142011121
0.836543262 0.679811120 0.156440005
0.903945208 0.678968489 0.167305291
0.962832570 0.680096686 0.206611738
1.016835332 0.682148576 0.251628637
0.085922502 0.669542551 0.159125268
0.128499076 0.672237575 0.154181451
0.170402259 0.674348772 0.151639387
0.215539575 0.675338864 0.153909385
0.262832224 0.673748255 0.167816505
0.308386683 0.669037342 0.198193431
0.348323137 0.664439201 0.230957001
0.383688688 0.664031386 0.245999202
0.418553531 0.668004990 0.241097257
0.466232628 0.676859498 0.214494377
0.548210263 0.694661379 0.157003641
0.656322598 0.717709422 0.115434065
0.755323291 0.736093998 0.140232742
0.833426356 0.741403103 0.174890101
0.901623130 0.741311014 0.198039442
0.960001886 0.742126405 0.248107255
1.012996912 0.743590772 0.303400010
0.103862323 0.715882242 0.190134585
0.144018069 0.718965292 0.184794024
0.183139324 0.721776724 0.180257097
0.226134837 0.723323584 0.181281388
0.271736503 0.723043442 0.189861029
0.317428678 0.719095767 0.216882393
0.358416617 0.713892817 0.252350211
0.394412160 0.711638272 0.275897771
0.427668512 0.714195967 0.277496636
0.464222997 0.720200956 0.262603551
0.522126913 0.732241988 0.223251045
0.617806137 0.754184008 0.162051812
0.729043961 0.779769242 0.138082713
0.823646188 0.798758864 0.172566235
0.898360968 0.803722978 0.219821736
0.956476450 0.804459333 0.293544769
1.008880854 0.805174053 0.365141749
0.119817883 0.761070669 0.217212141
0.158229634 0.764727890 0.210950330
0.195071876 0.768416941 0.203904271
0.236301005 0.770622730 0.202798203
0.280364364 0.771671534 0.205942258
0.326100558 0.769104123 0.226344377
0.368656278 0.764427543 0.258784890
0.406352401 0.760877669 0.287936211
0.440996796 0.761702836 0.297471106
0.475300670 0.766460061 0.288063616
0.518667042 0.774130344 0.264634043
0.589707732 0.788934827 0.218829155
0.693221390 0.813742697 0.167952687
0.800064981 0.840963483 0.166590929
0.888658941 0.860696316 0.219521254
0.952848196 0.866466999 0.332046509
1.005606294 0.866316438 0.436125278
0.130646497 0.805845618 0.234362081
0.168686017 0.809865415 0.227434903
0.204508439 0.814240515 0.218638644
0.244870245 0.817119300 0.215637699
0.288171500 0.819175243 0.215303764
0.333951592 0.818143070 0.228771448
0.378158391 0.814377308 0.256416202
0.418123275 0.810346663 0.287332833
0.455133557 0.809602201 0.304054171
0.491384387 0.813198686 0.300353289
0.530715823 0.819104135 0.284444630
0.584331334 0.828311443 0.256047130
0.665315509 0.845646381 0.213923469
0.768247783 0.872267783 0.184424594
0.868838966 0.900585115 0.211552873
0.946478963 0.920480728 0.347510874
1.006488323 0.925245106 0.489395738
0.137584001 0.849609017 0.243588001
0.176167741 0.854098678 0.236582056
0.211740613 0.858887672 0.226455003
0.252030313 0.862309337 0.222392932
0.295172006 0.864983499 0.220337003
0.340984762 0.865693986 0.227293313
0.386666030 0.863328993 0.248899862
0.429272026 0.859836638 0.277329743
0.469647527 0.858120501 0.299172491
0.509791970 0.860510290 0.302167743
0.550532401 0.866078496 0.288776487
0.596991420 0.872812271 0.268906504
0.660877049 0.883791506 0.240515247
0.747150183 0.903550446 0.211885884
0.843972981 0.930615246 0.219798237
0.934727430 0.957955420 0.326540858
1.007182956 0.972075999 0.450737000
-0.000155625 -0.000155625 0.057683438
0.063563436 -0.000289687 0.059816252
0.126308814 -0.000464813 0.060560748
0.188846081 -0.000015812 0.061834622
0.250090957 0.000538625 0.063438118
0.310720056 0.001786000 0.065101504
0.370843440 0.003832501 0.066927254
0.429482728 0.006554439 0.069624566
0.486933410 0.009957126 0.073449686
0.544170976 0.013808438 0.077877499
0.601857483 0.017836250 0.082485870
0.660569489 0.021866376 0.087264501
0.720701396 0.025755938 0.092190377
0.781963646 0.029657628 0.097011253
0.844183505 0.033257000 0.101526633
0.906794488 0.036293879 0.105399065
0.967591941 0.037685312 0.107324809
-0.000435000 0.062063437 0.060300000
0.063396558 0.062016562 0.060028121
0.130556315 0.058265310 0.056090500
0.195347518 0.051738691 0.049550064
0.256996363 0.046693251 0.044738561
0.317110866 0.043906126 0.042100750
0.376528114 0.043113120 0.041423503
0.434580266 0.043856252 0.042761818
0.491646856 0.045879062 0.045768443
0.548645496 0.048777938 0.049789377
0.606158555 0.052171625 0.054381497
0.664728522 0.055893876 0.059366688
0.724688709 0.059780065 0.064611189
0.785712481 0.063766316 0.069817379
0.847819209 0.067708321 0.074913390
0.910313010 0.072674774 0.081055462
0.969798863 0.094675936 0.105326064
-0.000817312 0.123472877 0.061115686
0.052725129 0.124934494 0.049117062
0.125794679 0.123850681 0.046681937
0.191974014 0.122239240 0.043306373
0.255394280 0.120479688 0.040672313
0.316947371 0.119312264 0.039192878
0.376903832 0.118924677 0.039409187
0.435577244 0.119315937 0.041068751
0.493472755 0.120432630 0.043969065
0.551236987 0.122135878 0.047838438
0.609269202 0.124313757 0.052386682
0.668167591 0.126887754 0.057324875
0.728324771 0.129720181 0.062501505
0.789479733 0.132651418 0.067714512
0.851696312 0.135581434 0.072782889
0.914237559 0.138672575 0.078950897
0.973378837 0.147303998 0.103183001
-0.000850125 0.184148833 0.063146934
0.045574374 0.185675159 0.042262062
0.120610498 0.185083896 0.042425189
0.187374890 0.184955955 0.040036187
0.252708435 0.184584320 0.038665187
0.315649152 0.183789253 0.038478751
0.377202988 0.183251068 0.038945001
0.437154651 0.183072075 0.040616125
0.496162802 0.183281124 0.043269686
0.554997027 0.183894560 0.046734314
0.614062846 0.184902832 0.050918505
0.673732221 0.186305255 0.055637129
0.734264910 0.188117266 0.060711436
0.795565188 0.190202326 0.065974951
0.857776761 0.192361072 0.071166821
0.920323193 0.194592580 0.077406153
0.979728818 0.199401453 0.101243749
0.000591625 0.243888870 0.067054622
0.043099374 0.245161831 0.041352496
0.118417576 0.244566813 0.043588690
0.181567207 0.244125634 0.044492312
0.246817634 0.245242506 0.040299062
0.312799186 0.246029809 0.040518187
0.376616150 0.245687991 0.041786313
0.438811600 0.245242864 0.043243125
0.499932706 0.244957447 0.045264188
0.560205936 0.244854942 0.048047811
0.620397329 0.244951189 0.051566873
0.681160986 0.245304823 0.055609815
0.742514372 0.245993748 0.060072251
0.804270089 0.247032374 0.064903632
0.866644859 0.248319387 0.069932014
0.929172993 0.249746129 0.076136522
0.988796890 0.252732843 0.099092931
0.004084937 0.301716298 0.073856190
0.044282563 0.302861542 0.046364192
0.117948681 0.302435011 0.048945565
0.178711519 0.301245898 0.054505624
0.238068834 0.302039266 0.052390628
0.305279076 0.305202931 0.044689249
0.373554587 0.307324737 0.047001123
0.438636124 0.307381004 0.049770873
0.501969635 0.306967497 0.051711876
0.565207362 0.306576133 0.053633187
0.627743900 0.306227684 0.056216061
0.689774156 0.305906117 0.059422500
0.751816332 0.305692285 0.063053504
0.814307690 0.305692136 0.067077883
0.877367973 0.305937886 0.071397379
0.940326154 0.306412935 0.076983519
1.000665665 0.308122605 0.098214254
0.009905377 0.357841909 0.083291568
0.048232879 0.359019399 0.055857193
0.119312808 0.359021187 0.057196252
0.178579822 0.357186407 0.066370316
0.233245313 0.356770575 0.070688561
0.292459130 0.359563500 0.063529447
0.364229023 0.365367532 0.052234687
0.435526699 0.368853331 0.057342879
0.502029955 0.369338036 0.061904564
0.567270756 0.368957371 0.064188004
0.632515848 0.368422121 0.066025756
0.697279811 0.367845833 0.068295129
0.761180103 0.367223620 0.071074694
0.824654102 0.366637588 0.074285448
0.888220131 0.366102338 0.077835888
0.951735616 0.365701467 0.082577713
1.012935758 0.366361648 0.101516694
0.017899944 0.412707716 0.095606700
0.054515313 0.413979739 0.068833008
0.122276008 0.414454728 0.068707444
0.180384576 0.412540495 0.078661010
0.232809573 0.410608262 0.090300508
0.284276932 0.411814094 0.090161771
0.346752405 0.417331845 0.075923637
0.424580336 0.426036090 0.062301628
0.499094903 0.430801332 0.071267880
0.567418158 0.431715280 0.077891320
0.634381473 0.431304634 0.080696940
0.700849235 0.430560112 0.082691945
0.767293930 0.429758608 0.084816568
0.832953155 0.428913802 0.087260194
0.897689402 0.428176463 0.091098525
0.960941076 0.428004861 0.099332660
1.021478176 0.428877473 0.120724827
0.027752502 0.466446221 0.110767439
0.062835753 0.467891991 0.085098006
0.126981691 0.468908131 0.083890378
0.183508515 0.467485607 0.092304692
0.235332564 0.464368641 0.109385625
0.282816172 0.463779837 0.117924124
0.333334893 0.466991067 0.111951753
0.402238786 0.475916386 0.088671565
0.486890554 0.487461120 0.075050563
0.564414263 0.493114889 0.088968441
0.634394288 0.494298577 0.097684495
0.702277720 0.493737668 0.101065382
0.769699991 0.492780417 0.103319071
0.836987436 0.491737902 0.105454385
0.903230488 0.490970194 0.110407718
0.965353608 0.491913557 0.127526656
1.023734570 0.494046807 0.157575071
0.039262187 0.519315362 0.128854871
0.073116496 0.520980299 0.104743809
0.133473143 0.522533655 0.102725938
0.187945142 0.521956801 0.108497813
0.239527196 0.518493831 0.127441689
0.285752684 0.515768290 0.145747811
0.329736203 0.517224729 0.148345545
0.382172167 0.523094654 0.134175733
0.459829092 0.535533309 0.101582497
0.551337957 0.549461663 0.091166183
0.631166875 0.555358112 0.110505059
0.702008963 0.556542754 0.120982498
0.770501375 0.555814862 0.124784440
0.838401675 0.554687083 0.127289951
0.905112326 0.553740323 0.133114159
0.965903580 0.555364490 0.158989489
1.022260308 0.558246195 0.197498068
0.052645065 0.571224988 0.150036067
0.085490376 0.573030055 0.127766877
0.141853496 0.575070918 0.124832124
0.193934396 0.575346053 0.128186375
0.244966954 0.572349489 0.146069497
0.291186333 0.568174720 0.171286181
0.332505465 0.567278087 0.184912324
0.374572843 0.570845723 0.180780739
0.432539076 0.579912663 0.155062363
0.520856738 0.595820904 0.114139378
0.617987156 0.611589253 0.111223005
0.698762715 0.617331207 0.135542125
0.769660175 0.618296742 0.147453442
0.838371754 0.617437601 0.151766434
0.905343771 0.616403103 0.158878103
0.965026915 0.617864847 0.190671280
1.020086288 0.620499015 0.234259501
0.068053626 0.621361196 0.174298257
0.099899873 0.623332143 0.154039502
0.152206257 0.625889540 0.150082380
0.201744959 0.626797020 0.151948377
0.251641780 0.624773324 0.166728675
0.298277855 0.620052636 0.195178375
0.338894784 0.616808772 0.219975874
0.376209110 0.618229091 0.225701377
0.418778300 0.624041677 0.213106662
0.486746907 0.637075961 0.172532946
0.586342394 0.656603932 0.126908004
0.686461151 0.673810542 0.135280937
0.766439974 0.679331124 0.163704187
0.836841106 0.679799199 0.177064627
0.904239595 0.678921103 0.187339291
0.963120937 0.680030227 0.225919411
1.017026544 0.682155728 0.275690824
0.085171811 0.669194818 0.201429516
0.116027445 0.671513140 0.183197260
0.164402753 0.674688816 0.178108573
0.211372584 0.676091850 0.179236263
0.259566635 0.675245225 0.189681634
0.306426942 0.670751214 0.217514426
0.347479880 0.665845037 0.250026613
0.383471668 0.664966762 0.266623437
0.418601841 0.668833733 0.262788653
0.465923011 0.677635014 0.238228813
0.547540128 0.695280910 0.184072942
0.656125546 0.718153715 0.142565876
0.755496144 0.736300766 0.162675947
0.833670378 0.741411448 0.194731727
0.901901305 0.741289496 0.216678441
0.960201621 0.742137074 0.265686929
1.013180256 0.743587732 0.324328721
0.103102013 0.715397239 0.229819342
0.133089274 0.718008280 0.213381961
0.177695155 0.721865058 0.206708655
0.222113520 0.723857284 0.206676528
0.268328100 0.724261999 0.212616965
0.315057665 0.720741868 0.236439258
0.357257932 0.715488136 0.270295739
0.394017458 0.712815642 0.294867516
0.427766323 0.715095282 0.298036814
0.464420438 0.721134782 0.284187078
0.521840274 0.733079910 0.247458577
0.617272854 0.754802763 0.189224184
0.728928864 0.780133307 0.163353845
0.823753238 0.798891008 0.192871377
0.898569047 0.803735077 0.237460256
0.956656933 0.804466367 0.309333920
1.009034991 0.805192232 0.382799923
0.118936822 0.760450840 0.254780024
0.148523077 0.763474762 0.239449635
0.190001190 0.768212438 0.230658829
0.232347831 0.770868659 0.228526324
0.276913434 0.772469878 0.230174378
0.323343933 0.770533621 0.247218996
0.367037386 0.765953362 0.277529269
0.405637234 0.762105286 0.306740582
0.440904200 0.762592614 0.317702264
0.475634217 0.767317653 0.309313446
0.518874466 0.775025010 0.287282228
0.589416623 0.789675713 0.244254291
0.692883730 0.814268053 0.194754794
0.799990773 0.841269612 0.189406171
0.888758957 0.860832095 0.237427130
0.952938139 0.866518676 0.346403897
1.005760193 0.866376758 0.450704992
0.129785433 0.805112541 0.270765007
0.159766078 0.808455706 0.256281495
0.199686438 0.813763916 0.246178567
0.240922630 0.817129731 0.242145136
0.284700006 0.819575727 0.241130620
0.330917388 0.819206119 0.251462102
0.376111597 0.815660059 0.276767254
0.417046100 0.811546445 0.306744367
0.454738528 0.810494900 0.324495018
0.491563141 0.813948810 0.322228581
0.531181097 0.819976389 0.307084590
0.584508598 0.829163373 0.280286878
0.665150702 0.846314788 0.240219891
0.768332303 0.872847795 0.209527776
0.868970096 0.900989294 0.231809065
0.946486235 0.920612097 0.363422632
1.006513953 0.925234675 0.504324913
0.136729941 0.848837435 0.279345214
0.167909309 0.852600574 0.266002685
0.207265690 0.858224273 0.255349755
0.248130322 0.862270296 0.249938756
0.291687101 0.865271330 0.247493565
0.337713659 0.866550565 0.251973391
0.384219766 0.864465535 0.271378934
0.427798837 0.860999346 0.298629194
0.468910813 0.859003901 0.321000189
0.509666502 0.861200809 0.325208634
0.550896466 0.866878748 0.312579632
0.597491443 0.873711586 0.293497741
0.661185682 0.884633601 0.266296744
0.747362435 0.904215157 0.238015324
0.844257891 0.931160927 0.243348062
0.934680462 0.958021104 0.351480901
1.006597042 0.971473157 0.488417000
-0.000311250 -0.000311250 0.117515877
0.063147068 -0.000388438 0.119080812
0.126277238 -0.000578500 0.119908996
0.188577935 -0.000721500 0.121220946
0.250090748 -0.000447375 0.122571006
0.310896933 0.000189313 0.124190055
0.370868146 0.001801001 0.126165614
0.429028124 0.005019127 0.128672063
0.485776663 0.009284250 0.131857753
0.542421281 0.013908250 0.135634378
0.599706233 0.018501749 0.139745623
0.658124506 0.022966938 0.144090936
0.718071878 0.027257375 0.148571253
0.779330730 0.031395189 0.153003752
0.841591716 0.035238255 0.157252133
0.904263854 0.038394123 0.161025494
0.964971364 0.039773997 0.162861630
-0.000500500 0.062067058 0.119525179
0.062156819 0.060849436 0.124946058
0.130141497 0.056975622 0.124091618
0.194586456 0.049925249 0.121824801
0.256624579 0.044001751 0.119618438
0.316921949 0.040273808 0.118642695
0.376013964 0.038967747 0.118887372
0.433426529 0.039936438 0.120359376
0.489769846 0.042439312 0.122927137
0.546220422 0.045844126 0.126284376
0.603358567 0.049731001 0.130139247
0.661623180 0.053861499 0.134351924
0.721418440 0.058098253 0.138778687
0.782574713 0.062422756 0.143221885
0.844729781 0.066621453 0.147518754
0.907239437 0.071944088 0.151803881
0.966982245 0.096432135 0.160961747
-0.000869125 0.123650886 0.119955994
0.049682561 0.124744996 0.120888129
0.124715000 0.123701498 0.119480491
0.192305207 0.120772615 0.116357617
0.258550882 0.115616135 0.111422256
0.322921634 0.109106690 0.105283752
0.384300917 0.103237256 0.099750377
0.443110585 0.098939501 0.095824629
0.500424266 0.096322879 0.093739375
0.557374716 0.095136933 0.093235441
0.614666760 0.095081374 0.094000742
0.672937512 0.095938124 0.095768496
0.732523501 0.097458884 0.098225623
0.793205261 0.099447817 0.101068497
0.855006397 0.101669759 0.104114257
0.916740537 0.106747791 0.110349104
0.970056236 0.149837881 0.158304125
-0.001247187 0.184383318 0.120969750
0.039766937 0.185853332 0.116365567
0.113934427 0.186607569 0.109558940
0.186869517 0.185322434 0.105930686
0.255679548 0.183271572 0.101132691
0.320764512 0.180290520 0.096701935
0.383158624 0.177349836 0.092772439
0.443298817 0.175017804 0.090098500
0.502132595 0.173441961 0.088803373
0.560513139 0.172675014 0.088780001
0.619009554 0.172661439 0.089851320
0.678148448 0.173303887 0.091804691
0.738234401 0.174523741 0.094430938
0.799192965 0.176167205 0.097484306
0.861127734 0.177972004 0.100672945
0.922976971 0.180975646 0.107050486
0.975702107 0.202187255 0.155311495
-0.001469500 0.244079500 0.123351008
0.034652751 0.245348558 0.115888253
0.101976499 0.247154266 0.098865628
0.176515073 0.245743886 0.098813251
0.246790528 0.245773628 0.093860246
0.315861523 0.245265186 0.090653561
0.381067544 0.243441626 0.088533506
0.444105953 0.241608322 0.086620256
0.505169392 0.240107507 0.085626498
0.565187275 0.238981068 0.085692503
0.625114977 0.238279998 0.086745746
0.685512185 0.238032117 0.088630937
0.746448994 0.238282621 0.091189995
0.807863474 0.239017397 0.094275996
0.869952142 0.240039870 0.097663760
0.931824148 0.241866827 0.104204044
