hollywood-luts/Okja.cube
TITLE "17x17x17 Adobe/IRIDAS cube 3D LUT exported with GrossGrade v0.2.2 (beta) 64 bit"
DOMAIN_MIN 0 0 0
DOMAIN_MAX 1 1 1
LUT_3D_SIZE 5
0.000000000 0.000000000 0.000000000
0.249641493 0.001295750 0.003195500
0.487895519 0.009943500 0.014557501
0.722374797 0.024826501 0.034318000
0.969165981 0.036175001 0.049632002
0.002233750 0.243956000 0.008186000
0.246773735 0.244974762 0.008340250
0.498531014 0.246276751 0.015944252
0.742246032 0.247611254 0.029976500
0.990945220 0.251483500 0.045347750
0.029112004 0.466712534 0.058576003
0.237311006 0.463172525 0.086330257
0.486934006 0.487185031 0.047219504
0.769101739 0.492998511 0.078869253
1.024776936 0.493523508 0.120365508
0.085922502 0.669542551 0.159125268
0.262832224 0.673748255 0.167816505
0.418553531 0.668004990 0.241097257
0.755323291 0.736093998 0.140232742
1.012996912 0.743590772 0.303400010
0.137584001 0.849609017 0.243588001
0.295172006 0.864983499 0.220337003
0.469647527 0.858120501 0.299172491
0.660877049 0.883791506 0.240515247
1.007182956 0.972075999 0.450737000
-0.000124250 0.000144000 0.237834513
0.250618756 -0.001055500 0.240674257
0.483336776 0.000906250 0.250404507
0.708938539 0.030861750 0.265558273
0.955067515 0.047647499 0.277325004
-0.001636750 0.244291499 0.237835005
0.238670260 0.245396510 0.236235753
0.501865745 0.231084749 0.224458009
0.750966012 0.211318761 0.207342014
0.971055508 0.261012524 0.264872253
-0.000514999 0.466567248 0.257423759
0.193679273 0.476291478 0.210713759
0.488540024 0.489707261 0.194351763
0.784188807 0.486657739 0.194343492
1.019151211 0.496007502 0.281924754
0.069433011 0.666586280 0.324476242
0.201085761 0.681304753 0.251114279
0.412195772 0.672527254 0.321229011
0.758196056 0.737802505 0.221116528
1.014327288 0.743620992 0.395781010
0.131987497 0.844475508 0.378196508
0.236822754 0.863909006 0.306065261
0.455288768 0.863631725 0.350073487
0.654993057 0.886215985 0.309673011
1.005133748 0.970121503 0.592530787
0.002146500 0.003972500 0.470774531
0.244715497 0.004492500 0.473758996
0.488411546 -0.002327000 0.480586022
0.693233252 -0.001714498 0.503329277
0.922060490 0.054970495 0.528334022
0.009892251 0.244326010 0.467842758
0.227623761 0.237227485 0.499407053
0.493173778 0.216763020 0.500402033
0.718251228 0.158895001 0.515919268
0.920222282 0.258706510 0.520225525
-0.002694500 0.468870521 0.462926000
0.129260749 0.475995004 0.468227774
0.432707012 0.487027019 0.460444510
0.743236542 0.484518498 0.464944512
0.989949524 0.496244013 0.488268524
-0.005100750 0.669013739 0.484782755
0.070891753 0.677176058 0.474549532
0.387046039 0.698253512 0.452176780
0.756048560 0.740247011 0.436448991
1.019231796 0.744283259 0.538694978
0.034062490 0.838020504 0.523321033
0.150985241 0.851310253 0.506257772
0.430174023 0.885828018 0.477833003
0.649275780 0.893502295 0.479613006
1.008315563 0.972723961 0.676068544
0.007491751 0.011224750 0.698983252
0.240518764 0.013123251 0.701391280
0.457983285 0.022012752 0.702273250
0.727448285 -0.003490500 0.719993055
0.915316999 -0.004428750 0.754467010
0.020685751 0.246895254 0.689000010
0.221961260 0.232356504 0.728716493
0.450208783 0.198969007 0.754266262
0.749698520 0.170318007 0.742773175
0.918425977 0.136718258 0.772070765
0.045423001 0.468546271 0.677610517
0.177500010 0.470853746 0.703083456
0.368455797 0.468829513 0.749361336
0.695055842 0.483134300 0.725655198
0.931333482 0.420128524 0.789138258
-0.004096000 0.671535730 0.672141492
0.063602000 0.677763462 0.677392542
0.180133015 0.699123263 0.688351035
0.660369277 0.738461196 0.688879788
1.007765174 0.740302980 0.723805308
-0.006826750 0.842237473 0.680290759
0.026494250 0.849708259 0.679044545
0.191490516 0.888279259 0.689123511
0.624815345 0.927085698 0.679659247
1.006502271 0.969764471 0.778416991
0.017937999 0.025266999 0.909862995
0.236969516 0.029242251 0.909771740
0.436484516 0.040005498 0.905655503
0.669586301 0.039301995 0.928134739
1.001574993 -0.004651000 0.953450978
0.033843499 0.251904756 0.891789794
0.222784013 0.238229752 0.918407977
0.420869023 0.217165753 0.940600991
0.673741579 0.187984496 0.958351731
0.996484518 0.233834252 0.950255752
0.074636504 0.468276501 0.869308472
0.204585254 0.467466533 0.894308805
0.372833014 0.465865493 0.929043055
0.615177274 0.465920508 0.976682246
0.993814945 0.496660531 0.950354517
0.084070742 0.668887019 0.855018258
0.154005244 0.672847271 0.868233263
0.275165230 0.685555458 0.895771265
0.513359547 0.716843784 0.952123761
0.975573540 0.733186245 0.952571750
-0.005723000 0.845753014 0.853251994
0.021755751 0.850181460 0.857447743
0.124800511 0.876287460 0.876381516
0.377907038 0.936491489 0.915680468
0.978576005 0.963202000 0.928070009
