hollywood-luts/Parasites.cube
TITLE "17x17x17 Adobe/IRIDAS cube 3D LUT exported with GrossGrade v0.2.2 (beta) 64 bit"
DOMAIN_MIN 0 0 0
DOMAIN_MAX 1 1 1
LUT_3D_SIZE 5
0.001823000 0.001734000 0.002207000
0.188202754 0.020084001 0.021946751
0.425248027 0.064984500 0.028542001
0.656801760 0.074884504 0.035440002
0.883283019 0.095977001 0.055086002
0.006528250 0.167766243 0.107970752
0.252792269 0.217664257 0.025058249
0.507002532 0.239407748 0.013731001
0.724666715 0.247889996 0.028346252
0.944107771 0.276288748 0.047965497
0.025463006 0.402913988 0.233506501
0.303481758 0.439749777 0.146151260
0.567162037 0.484360516 0.034178503
0.784013748 0.506777048 0.003886750
1.014477015 0.513239026 0.018182497
0.165703267 0.658870757 0.371351004
0.417028993 0.681369722 0.299973518
0.634626746 0.701904774 0.196797758
0.807874322 0.747046828 0.059729002
1.014755964 0.776175022 0.000000001
0.328821003 0.889792025 0.423025995
0.519630015 0.900705993 0.369718492
0.680752039 0.925740004 0.318032980
0.843296051 0.962512255 0.254370481
1.014755964 0.998340011 0.094820000
0.001759000 0.025643250 0.122633502
0.144274503 0.040515501 0.150887251
0.411608994 0.064740002 0.131450504
0.637729287 0.093453504 0.162880018
0.864248514 0.127442494 0.211232007
0.021129500 0.180404007 0.230712995
0.186188743 0.214363009 0.215177238
0.492624789 0.244040757 0.183242992
0.712964773 0.268054008 0.201435506
0.927172482 0.301162720 0.234561995
0.071478255 0.389324039 0.393568516
0.262980253 0.441130042 0.369117796
0.558291078 0.501639247 0.258911759
0.783234298 0.512270808 0.246329755
1.012680173 0.520225465 0.254186511
0.157242268 0.625337005 0.516598761
0.391022980 0.681099772 0.491642743
0.624289989 0.711470008 0.393639266
0.805104256 0.754788041 0.289000243
1.014755964 0.777069271 0.245481759
0.297656238 0.877109528 0.566998243
0.502841532 0.910201252 0.538564265
0.670224547 0.932083249 0.489577979
0.839936554 0.967135727 0.436481982
1.014755964 0.999390483 0.321521997
0.003368000 0.070381507 0.249716997
0.080487996 0.085809007 0.286952496
0.390272021 0.095526010 0.291082978
0.627062500 0.138554007 0.308472514
0.836061478 0.200762004 0.372135013
0.020988502 0.203144491 0.339029014
0.141457260 0.243202254 0.374654531
0.433067739 0.277862757 0.350966513
0.679642797 0.315508753 0.358621240
0.869992495 0.364223510 0.416885018
0.129759505 0.396704018 0.500027001
0.282009274 0.448901236 0.524192035
0.519405007 0.513555527 0.493765503
0.760818243 0.527527273 0.470085025
0.964746952 0.539960980 0.482854009
0.225985527 0.605476797 0.659438968
0.376916498 0.645563006 0.646108270
0.596999764 0.715625763 0.607941508
0.799406528 0.759408712 0.525577009
1.014755964 0.776621521 0.496442497
0.291543007 0.830983520 0.700179994
0.469783247 0.887338996 0.692440987
0.653239012 0.935678005 0.666094542
0.830082059 0.968008041 0.626995981
1.014717102 0.999771476 0.551756024
0.007853250 0.106954753 0.371090263
0.068176255 0.124196254 0.414376974
0.307165772 0.141873762 0.463686764
0.627695024 0.195885003 0.504809558
0.850417256 0.270159513 0.578112721
0.014651000 0.235150248 0.463821501
0.114222750 0.281605244 0.522968769
0.334465504 0.316849500 0.544471502
0.669719994 0.381878525 0.576719522
0.868357480 0.435132504 0.621922791
0.133897007 0.418138027 0.606987000
0.289738774 0.472812295 0.645280540
0.479067743 0.528218985 0.659281492
0.727402091 0.580494761 0.663060009
0.894680738 0.601811528 0.675345302
0.280223757 0.610514045 0.747626007
0.423474252 0.651377261 0.750810266
0.575399280 0.697097063 0.739538491
0.779533684 0.757086575 0.737349808
0.989588499 0.772506535 0.741134524
0.320822001 0.809289277 0.821341991
0.462559998 0.847566009 0.814387023
0.616154492 0.899178743 0.810421228
0.816282034 0.966395259 0.815416038
1.014641285 0.999792993 0.783750534
0.014629000 0.136179999 0.500662029
0.072693497 0.155815005 0.555798531
0.235954523 0.177604496 0.628031492
0.595798254 0.237539768 0.702111781
0.838703990 0.322553009 0.764651000
0.010346750 0.271998495 0.608873963
0.097021997 0.319735765 0.679660320
0.274348527 0.349048257 0.718559980
0.627536237 0.413983017 0.757868528
0.855773270 0.474120766 0.796485007
0.117945515 0.460033536 0.750842452
0.280777276 0.506028056 0.782305241
0.457078516 0.544425488 0.795178533
0.686773539 0.590492010 0.812106252
0.883231044 0.629139006 0.837706447
0.302864730 0.629405260 0.835596502
0.441618741 0.667805076 0.841454506
0.580985725 0.706157327 0.843967557
0.747216523 0.750934541 0.864273310
0.932786226 0.788515985 0.898346007
0.337972999 0.807757974 0.905354977
0.478647768 0.842538238 0.909234762
0.618764520 0.880560994 0.915587485
0.783846259 0.930326521 0.935871780
1.013957977 0.999037981 0.991044998
