hollywood-luts/Parasites.cube
TITLE "17x17x17 Adobe/IRIDAS cube 3D LUT exported with GrossGrade v0.2.2 (beta) 64 bit"
DOMAIN_MIN 0 0 0
DOMAIN_MAX 1 1 1
LUT_3D_SIZE 17
0.001823000 0.001734000 0.002207000
0.033950187 0.004607437 0.013004187
0.076774247 0.007344375 0.020234875
0.129854828 0.011252940 0.022009188
0.188202754 0.020084001 0.021946751
0.247511387 0.033376187 0.021762000
0.306868911 0.046640877 0.023452001
0.366302669 0.057370193 0.026180502
0.425248027 0.064984500 0.028542001
0.483566850 0.069729254 0.030249437
0.541500986 0.072246626 0.031578623
0.599203169 0.073509127 0.033091750
0.656801760 0.074884504 0.035440002
0.713823736 0.077551506 0.038725190
0.770713687 0.082519762 0.043540131
0.826256812 0.089304820 0.049748816
0.883283019 0.095977001 0.055086002
0.002769875 0.037228689 0.030004814
0.037295189 0.044022754 0.029694501
0.087508619 0.050115313 0.023766939
0.143452153 0.054868065 0.020875251
0.204830065 0.062315382 0.019313315
0.266473562 0.072973065 0.020390937
0.326817334 0.083814636 0.022642314
0.385692418 0.092780694 0.025237001
0.443449140 0.099432617 0.027416250
0.500373244 0.103939809 0.029004687
0.556949496 0.106792189 0.030408626
0.613395691 0.108788498 0.032203626
0.669539094 0.111112505 0.034832627
0.725516796 0.114903383 0.038393691
0.781477511 0.120749384 0.043312632
0.836460590 0.128420010 0.049329378
0.893631160 0.135864809 0.054595686
0.003421875 0.075746506 0.056514625
0.034798939 0.084115565 0.051636811
0.090398625 0.096619874 0.034557126
0.159939826 0.107186869 0.019924188
0.225484744 0.112965256 0.016031999
0.288529813 0.119012684 0.017081251
0.348756760 0.125930756 0.019819375
0.406996459 0.132368371 0.022482188
0.463579893 0.137642741 0.024726126
0.519244671 0.141686246 0.026529251
0.574546993 0.144835740 0.028333001
0.629734337 0.147694498 0.030588439
0.684927821 0.151097745 0.033512250
0.740213990 0.155946061 0.037422314
0.795107126 0.162671641 0.042548507
0.849598527 0.171163067 0.048489563
0.906894743 0.179416254 0.053577747
0.003936626 0.119472265 0.082119942
0.034501374 0.128697246 0.073972195
0.086648941 0.139841825 0.055136256
0.164800942 0.155808195 0.029341500
0.242933139 0.169382453 0.015074065
0.310376763 0.174833268 0.012397625
0.371541202 0.177805588 0.014394000
0.429552764 0.180509895 0.017303625
0.485709697 0.183292001 0.020098437
0.540677309 0.186182022 0.022625061
0.595077336 0.189089015 0.025132312
0.649323583 0.192246512 0.028027937
0.703696430 0.196308374 0.031492874
0.758099735 0.201914638 0.035803694
0.812367976 0.209221348 0.040767003
0.866758466 0.218082026 0.046585504
0.924023688 0.226101577 0.051344812
0.006528250 0.167766243 0.107970752
0.037332624 0.177883372 0.098189622
0.089655496 0.188892379 0.077817999
0.163378030 0.200158507 0.048883498
0.252792269 0.217664257 0.025058249
0.326613814 0.233213067 0.011736876
0.390758276 0.238324001 0.009277500
0.449993819 0.239377186 0.010812376
0.507002532 0.239407748 0.013731001
0.562404037 0.239931315 0.017055623
0.616789877 0.241419882 0.020555999
0.670717001 0.243959635 0.024324125
0.724666715 0.247889996 0.028346252
0.778577745 0.253484428 0.032938693
0.832649410 0.260653257 0.037889630
0.886649787 0.268751204 0.043505881
0.944107771 0.276288748 0.047965497
0.008868062 0.219613880 0.134349376
0.043178685 0.231090754 0.124638878
0.097693749 0.241736740 0.103781313
0.169911981 0.251406103 0.072507486
0.258765072 0.262517542 0.043927684
0.341236204 0.281852007 0.023519125
0.405267775 0.298202932 0.010320374
0.465353578 0.303306818 0.007209250
0.523558617 0.303904980 0.008025501
0.580584824 0.303099811 0.010879250
0.636507154 0.302779257 0.014703875
0.691486895 0.303794265 0.019048249
0.745919049 0.306533515 0.023541877
0.800037086 0.310876489 0.028304754
0.854294419 0.316742957 0.033272691
0.908416748 0.323542178 0.038735129
0.966548562 0.330248743 0.043082625
0.010875252 0.276140749 0.163089380
0.051112752 0.288387656 0.154099390
0.110868745 0.298844039 0.133318886
0.183215082 0.307647884 0.101957440
0.268343776 0.316487014 0.068684638
0.354812115 0.328483582 0.045624450
0.423739672 0.348415166 0.025271000
0.478203148 0.364478081 0.010622750
0.534964561 0.369770497 0.006419752
0.592843175 0.370874822 0.006375250
0.650750101 0.370342165 0.008715250
0.707970619 0.370014876 0.012429810
0.764286637 0.371027499 0.016826374
0.819987476 0.373451322 0.021689191
0.875299037 0.377330542 0.026740503
0.930552781 0.382519424 0.032125063
0.989950120 0.388008147 0.036375124
0.014430445 0.337777257 0.196039334
0.064865887 0.350040346 0.187236756
0.129191756 0.360499978 0.167812467
0.202236205 0.368790358 0.138207197
0.283744901 0.376358777 0.103490829
0.368014932 0.385491967 0.073278144
0.442685395 0.397907853 0.052697387
0.498885125 0.416442215 0.029195189
0.546117544 0.431439787 0.011896820
0.600637734 0.436941862 0.006162005
0.658907294 0.438675046 0.005055250
0.718229353 0.438727558 0.006495561
0.777130723 0.438854545 0.009505497
0.835577548 0.439724892 0.013710501
0.893258333 0.441678345 0.018528562
0.950226665 0.444891334 0.023762185
1.007748365 0.449095279 0.027951496
0.025463006 0.402913988 0.233506501
0.086434446 0.415046960 0.224441558
0.154208004 0.425382257 0.206503630
0.226919085 0.433390886 0.179520503
0.303481758 0.439749777 0.146151260
0.383422196 0.446997315 0.111938953
0.457763016 0.455933005 0.084165007
0.520277143 0.467512906 0.061868310
0.567162037 0.484360516 0.034178503
0.610308528 0.498330832 0.013540694
0.663910508 0.504102349 0.005641377
0.723115087 0.506114602 0.003489062
0.784013748 0.506777048 0.003886750
0.845186949 0.507298231 0.006138563
0.906057298 0.508232892 0.009766753
0.964988232 0.509923220 0.014206251
1.014477015 0.513239026 0.018182497
0.048313752 0.469480067 0.272967815
0.114959560 0.481130868 0.263387084
0.184649929 0.490980953 0.246402487
0.256017596 0.498485267 0.221816361
0.327568561 0.503885925 0.191020116
0.401390940 0.509617865 0.157164872
0.472683042 0.516473532 0.124619119
0.535495102 0.524678349 0.097244740
0.589102149 0.535432518 0.072466932
0.630498171 0.551530719 0.040091500
0.672403872 0.564837039 0.015266688
0.726157308 0.570826054 0.004561000
0.786562204 0.572848797 0.001608687
0.849292696 0.573959768 0.001325564
0.912853897 0.574970901 0.002795503
0.974271059 0.576263368 0.005248441
1.014720559 0.579302907 0.008255562
0.081837252 0.535412729 0.310528368
0.149409428 0.545920432 0.300020516
0.219004616 0.554889798 0.283475608
0.288033426 0.561666906 0.260819733
0.354926258 0.566204607 0.232981622
0.423047125 0.571042061 0.201747507
0.489711255 0.576664627 0.169347987
0.550426960 0.583057046 0.138554484
0.604269505 0.590918064 0.111494116
0.652063847 0.601713181 0.084463559
0.690993726 0.617812872 0.046717376
0.733547449 0.630649447 0.016909562
0.788310647 0.636913478 0.003272000
0.850242376 0.639065742 0.000224000
0.914933920 0.640730500 0.000000000
0.978274524 0.642377615 0.000342501
1.014755964 0.645598233 0.001615625
0.122150064 0.598754287 0.343561172
0.188795999 0.607806206 0.331855565
0.256741792 0.615803242 0.315521449
0.322537482 0.621686101 0.294340044
0.385153443 0.625502646 0.269264609
0.448112428 0.629713953 0.241550311
0.509958684 0.634811461 0.212039053
0.567303300 0.640495062 0.182091802
0.618934512 0.646892071 0.153645560
0.666949511 0.655029297 0.127138928
0.711220026 0.666462541 0.097133003
0.749766231 0.682930946 0.053315189
0.794601023 0.695804060 0.018173121
0.851304770 0.702754676 0.002495185
0.915110648 0.705368280 0.000081937
0.979088008 0.707685888 0.000000000
1.014755964 0.711261392 0.000000000
0.165703267 0.658870757 0.371351004
0.230755076 0.666593671 0.358815491
0.296296388 0.673578024 0.342774779
0.358214140 0.678282261 0.322766274
0.417028993 0.681369722 0.299973518
0.475343257 0.685052097 0.275669962
0.532420754 0.689862370 0.250130624
0.585913897 0.695509911 0.223538503
0.634626746 0.701904774 0.196797758
0.679960310 0.708990216 0.170687392
0.724638581 0.717754304 0.144255504
0.767653108 0.730094552 0.110088319
0.807874322 0.747046828 0.059729002
0.856525302 0.760581970 0.019528989
0.915866375 0.768330991 0.002920751
0.979148090 0.771961689 0.000200438
1.014755964 0.776175022 0.000000001
0.210026234 0.716208458 0.393990695
0.273308784 0.723024309 0.381430835
0.336109012 0.728809536 0.365847737
0.393872142 0.732127011 0.346802473
0.448861957 0.734534204 0.326030463
0.502611041 0.737804770 0.304665715
0.554789901 0.742408037 0.282865167
0.604225397 0.748247325 0.260279447
0.649857104 0.755016863 0.237006277
0.692414999 0.762471437 0.213194221
0.734374881 0.770456851 0.188717604
0.778085768 0.779882014 0.161504477
0.822279871 0.793044686 0.122178160
0.866499364 0.810213327 0.066452198
0.919763207 0.824542582 0.023504943
0.979432344 0.833679974 0.004148630
1.014755964 0.840052545 0.000764447
0.252073795 0.771696448 0.410421133
0.313633353 0.777709126 0.398094893
0.372637540 0.782499671 0.383319736
0.426416129 0.784784496 0.365434498
0.477706254 0.786962152 0.346626908
0.527165174 0.790284276 0.327932268
0.574646413 0.794958055 0.309495300
0.620018661 0.801178932 0.290800363
0.662878215 0.808597565 0.271389425
0.703415751 0.816520572 0.251078099
0.743280530 0.824812055 0.229379162
0.784995258 0.833629072 0.205438673
0.829941392 0.843302727 0.176465288
0.876545548 0.856364965 0.132319823
0.925223291 0.873318791 0.072591886
0.980617464 0.888788819 0.028289765
1.014755964 0.900301158 0.008114034
0.291111976 0.828429818 0.420364439
0.349637032 0.833367169 0.408658057
0.403455406 0.836614370 0.394212514
0.452930272 0.838751018 0.378092796
0.500508010 0.841214240 0.361453116
0.546394765 0.844852984 0.345001698
0.590385377 0.849961698 0.329109132
0.632451415 0.856609344 0.313675940
0.672860503 0.864504933 0.297910601
0.712198555 0.873065114 0.281270564
0.751339793 0.881872177 0.263340712
0.791835308 0.890861690 0.242891908
0.835427582 0.899682164 0.218623653
0.882077992 0.908348620 0.188053444
0.931160390 0.920688510 0.139354825
0.980964839 0.936374128 0.078521580
1.014755964 0.952412903 0.040025990
0.328821003 0.889792025 0.423025995
0.381672561 0.893107951 0.411637247
0.429862112 0.895114005 0.397947252
0.475693136 0.897611499 0.383887321
0.519630015 0.900705993 0.369718492
0.561875999 0.904770136 0.355929792
0.602593482 0.910222650 0.342725754
0.642031312 0.917318583 0.330298811
0.680752039 0.925740004 0.318032980
0.719498515 0.934947193 0.305174381
0.758954108 0.944485903 0.291155398
0.799970984 0.953897119 0.274720699
0.843296051 0.962512255 0.254370481
0.888866425 0.969497204 0.229372784
0.937185824 0.975712597 0.195873201
0.984839499 0.985918164 0.144783080
1.014755964 0.998340011 0.094820000
0.001017687 0.005185875 0.031161686
0.028807063 0.008613375 0.041539814
0.067051373 0.011534938 0.048787124
0.119976267 0.014361439 0.050202690
0.179903060 0.021241251 0.049168374
0.243321955 0.031539187 0.048698127
0.306109846 0.043057751 0.049437001
0.367046088 0.053043816 0.051337376
0.426224828 0.060500257 0.053795502
0.484227836 0.065862752 0.056340314
0.541633964 0.069714628 0.059023377
0.598700404 0.072626941 0.062172376
0.655556738 0.075696446 0.066158004
0.711907506 0.079989575 0.071426697
0.768298686 0.086338319 0.078042015
0.823764622 0.093693003 0.085348815
0.880733907 0.100650437 0.091897875
0.003257375 0.041671503 0.058614500
0.031895190 0.047187753 0.062962629
0.075699247 0.053629443 0.062795192
0.132350072 0.058511123 0.057708438
0.196687505 0.065207191 0.053612500
0.263258338 0.074001059 0.052003626
0.327220470 0.083508380 0.052503876
0.387753963 0.091946498 0.054256752
0.445892692 0.098772563 0.056550998
0.502670288 0.104025252 0.059126437
0.558768988 0.108119875 0.061979499
0.614434779 0.111749753 0.065373935
0.669802547 0.115850128 0.069754690
0.724973202 0.121405326 0.075288638
0.780280709 0.128565192 0.081917323
0.835119188 0.136952132 0.089069441
0.892449856 0.144540444 0.095443502
0.004063375 0.079891808 0.085150562
0.032037061 0.087351434 0.086220063
0.082798876 0.098982506 0.076901630
0.153291136 0.109950624 0.064080879
0.219150320 0.114004940 0.056895688
0.285236329 0.118559882 0.053980563
0.348317057 0.124632008 0.053738188
0.408043027 0.130815700 0.055051312
0.465170830 0.136336431 0.057080626
0.520777762 0.140975446 0.059472874
0.575745761 0.145061195 0.062320374
0.630416512 0.149196818 0.065825626
0.684851766 0.154001981 0.070261814
0.739355445 0.160274893 0.075830579
0.793798149 0.168118820 0.082287699
0.848182440 0.177318335 0.089294508
0.905328512 0.185198247 0.095228814
0.005989063 0.122412510 0.112511136
0.033995748 0.131044447 0.110996693
0.079143375 0.141112641 0.098558635
0.157833010 0.158678204 0.075221941
0.238983944 0.172104806 0.061735500
0.307878762 0.175634891 0.056937248
0.370998949 0.177304938 0.055811003
0.430170774 0.179699883 0.056521252
0.486771226 0.182730138 0.058197312
0.541798770 0.186034814 0.060469937
0.595953286 0.189501569 0.063269816
0.649741888 0.193540946 0.066783130
0.703488648 0.198697582 0.071191065
0.757298052 0.205460280 0.076580316
0.811178625 0.213662341 0.082716003
0.865286052 0.222675025 0.089262940
0.922446191 0.230532080 0.094801746
0.008703063 0.168947875 0.140715182
0.037507374 0.178547308 0.137377501
0.082240999 0.188795820 0.123010129
0.154218331 0.202182516 0.096341804
0.246204421 0.220870882 0.070758939
0.324201822 0.236019731 0.060667187
0.390030265 0.239610493 0.058103126
0.450168967 0.239731371 0.058154251
0.507584512 0.239558250 0.059450872
0.563078821 0.240286633 0.061554871
0.617361724 0.242235690 0.064300500
0.670958877 0.245423302 0.067734942
0.724417150 0.250116438 0.071985438
0.777897656 0.256498873 0.077075444
0.831587255 0.264078140 0.082771756
0.885436177 0.272359729 0.088703506
0.942841768 0.279916137 0.093763687
0.010027562 0.219259441 0.169827744
0.042273186 0.230110824 0.165846184
0.089424811 0.241381854 0.151206017
0.159814075 0.253409892 0.123100676
0.247746497 0.265917212 0.091465183
0.336545229 0.285625011 0.070618942
0.403842449 0.301136672 0.062010691
0.465057939 0.305052042 0.060226250
0.523713768 0.304945737 0.060754873
0.580916822 0.303951085 0.062395811
0.636820197 0.303895622 0.064907812
0.691598773 0.305367589 0.068186752
0.745625198 0.308463514 0.072127879
0.799404562 0.313248545 0.076699883
0.853342772 0.319378108 0.081870452
0.907419980 0.326360762 0.087246448
0.965576410 0.333242923 0.091807187
0.010610876 0.273428589 0.200465634
0.049597129 0.285817951 0.196729690
0.100963011 0.298429072 0.183294699
0.172133088 0.309986383 0.155760258
0.255845755 0.320267171 0.120498568
0.346801043 0.332675844 0.093025014
0.420884311 0.352440774 0.074487559
0.477311760 0.367397666 0.065033562
0.534752607 0.371679246 0.062687002
0.592890978 0.372238487 0.062920183
0.650847435 0.371603251 0.064543560
0.708051264 0.371443033 0.067245126
0.764122307 0.372572273 0.070738629
0.819500446 0.375218958 0.074871197
0.874583900 0.379346579 0.079578258
0.929702818 0.384589106 0.084466949
0.988846064 0.390267193 0.088623568
0.012526942 0.332318604 0.233959898
0.061722450 0.346679956 0.231114015
0.118323885 0.359847695 0.219031021
0.190449953 0.371165156 0.193958059
0.271136254 0.380456001 0.158657268
0.357505232 0.390157282 0.124431200
0.438035131 0.402491748 0.101236634
0.497266442 0.420673519 0.080828749
0.545500875 0.434294730 0.068656877
0.600489557 0.438738406 0.064861372
0.658905864 0.440032333 0.064310499
0.718253195 0.439994901 0.065548316
0.777166069 0.440066516 0.067981131
0.835402608 0.441011727 0.071440630
0.892901182 0.443128407 0.075703442
0.949719369 0.446424335 0.080168761
1.007223606 0.450713396 0.084011942
0.021268629 0.395526797 0.270804077
0.081431247 0.411470443 0.269119442
0.142670825 0.424525023 0.257979631
0.214991689 0.435544580 0.235513866
0.291850507 0.443994582 0.202844501
0.372755885 0.451871037 0.165940762
0.450984061 0.460799605 0.134663686
0.517821431 0.472225577 0.112305999
0.566226423 0.488475353 0.088219814
0.609846830 0.500848353 0.072231315
0.663765490 0.505555093 0.066274494
0.723072052 0.507211447 0.064740688
0.784025490 0.507736564 0.065261379
0.845155358 0.508221686 0.067219563
0.905858994 0.509144187 0.070498876
0.964740336 0.510971725 0.074324444
1.014443040 0.514339149 0.077864066
0.041222252 0.461550385 0.309440672
0.109311931 0.477627456 0.308180004
0.173252255 0.489745528 0.297049612
0.244704589 0.500181258 0.276456684
0.317571193 0.507978141 0.247052118
0.391797066 0.514298081 0.211671114
0.465575635 0.521221995 0.176427037
0.531978011 0.529256999 0.147624418
0.587887466 0.539796650 0.124191687
0.629841328 0.555031717 0.095941871
0.671999037 0.566783369 0.075411811
0.725986362 0.571862221 0.066573560
0.786519706 0.573604286 0.064011127
0.849292874 0.574621677 0.063697249
0.912700772 0.575533211 0.065067314
0.974154770 0.576906145 0.067691505
1.014718533 0.579966486 0.070510499
0.072133377 0.528175771 0.346832126
0.144114435 0.542935610 0.344438314
0.208723262 0.553583682 0.332500339
0.278153747 0.563041329 0.313200414
0.346815765 0.569988549 0.286822438
0.415048867 0.575283945 0.254911751
0.483052284 0.580880582 0.220689356
0.546523213 0.587338805 0.188569546
0.602573335 0.594925106 0.161641181
0.651416123 0.605381489 0.136823058
0.690403044 0.620608151 0.103708372
0.733188808 0.632130861 0.077968247
0.788216531 0.637588382 0.065624312
0.850230932 0.639559448 0.062027562
0.914922118 0.641088188 0.060887940
0.978224158 0.642759979 0.061620940
1.014755964 0.645932734 0.063318685
0.111044124 0.592782736 0.380253673
0.183725670 0.605334342 0.375557095
0.247434512 0.614640951 0.362844050
0.314226449 0.623124659 0.344704956
0.378578752 0.629018605 0.320847183
0.441626936 0.633525491 0.292683512
0.504121482 0.638400853 0.262138426
0.563401103 0.644027770 0.231137738
0.616968632 0.650493920 0.202356428
0.665924788 0.658282936 0.177021369
0.710680068 0.669411063 0.149957120
0.749171853 0.685175359 0.111082062
0.794369102 0.696950793 0.079804122
0.851238906 0.703166366 0.063772313
0.915094733 0.705666065 0.059319064
0.979088604 0.707839966 0.058027811
1.014755964 0.711417317 0.058740936
0.154194817 0.653883696 0.408221632
0.225062251 0.663943231 0.401381195
0.286949724 0.672038078 0.388417453
0.350915909 0.679552019 0.371353865
0.411208779 0.684302986 0.349589765
0.469775379 0.688217402 0.324763238
0.527333498 0.692743778 0.298481196
0.582086623 0.698208928 0.271308690
0.632376134 0.704426944 0.244119197
0.678756475 0.711611986 0.218511313
0.723715723 0.720219433 0.193856314
0.766879201 0.732385576 0.163104326
0.807329118 0.748836398 0.117932498
0.856314003 0.761430681 0.081621617
0.915784299 0.768740714 0.062740125
0.979147971 0.772027254 0.058255248
1.014755964 0.776309848 0.057433061
0.198046103 0.711821377 0.430387855
0.266607732 0.720151484 0.422478884
0.326605707 0.727260649 0.409776926
0.387186587 0.733482718 0.393515021
0.443203211 0.736973226 0.373552352
0.497265071 0.740330756 0.351840645
0.550074041 0.744665146 0.329457581
0.600486815 0.750279248 0.306492984
0.647287846 0.756835520 0.282956958
0.690858483 0.764157295 0.259291857
0.733342707 0.772360384 0.235839546
0.777101159 0.781868041 0.210631222
0.821371973 0.794854760 0.175363660
0.866113544 0.811773241 0.124794871
0.919541419 0.825419962 0.085490502
0.979437113 0.833863318 0.065133192
1.014755964 0.840264618 0.059308138
0.239958420 0.768062830 0.446486741
0.306349427 0.775162935 0.438094199
0.363930583 0.781583190 0.425997972
0.420191228 0.786638379 0.410752654
0.472225457 0.789519370 0.392449439
0.522044778 0.792704821 0.373477846
0.570179880 0.797046900 0.354569107
0.616430283 0.802825570 0.335511863
0.660333931 0.809885085 0.315935016
0.701789379 0.817741156 0.295733839
0.742222488 0.826156676 0.274645537
0.784107029 0.835155189 0.252008528
0.829141319 0.845061898 0.225472406
0.876049221 0.858043730 0.185474008
0.925000668 0.874622047 0.131038204
0.980649889 0.889570057 0.090359516
1.014755964 0.900782228 0.070679091
0.278947949 0.825369120 0.456315696
0.342542768 0.831823766 0.448264688
0.396547884 0.837514758 0.436893821
0.447250068 0.841120958 0.422345251
0.495410025 0.844061732 0.406021744
0.541783333 0.847502232 0.389435768
0.586331367 0.852173567 0.373207748
0.629042506 0.858329415 0.357430369
0.670270741 0.865769446 0.341478199
0.710360110 0.874085426 0.324801654
0.750068843 0.882949829 0.307198286
0.790992975 0.892051280 0.287733048
0.834726274 0.901000440 0.265156537
0.881528974 0.909950078 0.237204507
0.930758417 0.922407448 0.192860380
0.980919302 0.937826335 0.137161762
1.014755964 0.953461647 0.101403169
0.316749752 0.887403250 0.459082246
0.376085073 0.893490493 0.451979756
0.424250126 0.897495866 0.440942734
0.470176876 0.900578201 0.427607775
0.514588535 0.903934956 0.413684815
0.557374299 0.907848954 0.399763763
0.598696291 0.912752271 0.386308581
0.638828218 0.919163704 0.373442739
0.678271651 0.927065313 0.360918552
0.717603564 0.935900569 0.348114163
0.757566094 0.945284784 0.334420055
0.799083829 0.954782128 0.318716317
0.842756987 0.963535666 0.299657106
0.888614058 0.970925152 0.276666850
0.937109947 0.977532148 0.245944381
0.984888434 0.987571597 0.199022010
1.014755964 0.998965323 0.152614072
0.000964000 0.010113000 0.060532000
0.025114251 0.013588625 0.070559248
0.058850132 0.017439624 0.079657257
0.109546639 0.019674813 0.081697181
0.170795381 0.023782376 0.077907376
0.235134751 0.032861061 0.075132623
0.300917536 0.042766627 0.074481130
0.364160508 0.051667817 0.075972497
0.424138397 0.059138753 0.078776121
0.482082605 0.065121308 0.082392246
0.539094865 0.069909126 0.086622998
0.595676661 0.074169755 0.091628566
0.652034104 0.078865379 0.097725250
0.707867682 0.084634133 0.105030946
0.763837576 0.091769129 0.113591015
0.819742799 0.099890821 0.122789703
0.876847029 0.106930375 0.130787879
0.003716437 0.045770001 0.086030945
0.028970625 0.052727379 0.093187809
0.063378491 0.057909250 0.096618444
0.117277697 0.062128931 0.091277748
0.182101056 0.067209065 0.083167747
0.252550751 0.074238934 0.078426130
0.321051389 0.082473747 0.077431753
0.384218067 0.090357065 0.078804873
0.443348497 0.097261690 0.081642374
0.500320733 0.103154749 0.085308313
0.556150436 0.108269751 0.089556120
0.611379206 0.113155000 0.094610378
0.666380584 0.118617065 0.100747690
0.721211851 0.125336215 0.108074382
0.776320934 0.133383751 0.116290070
0.831139207 0.142248005 0.125294074
0.888569057 0.150091514 0.133367494
0.005300750 0.085241996 0.114511877
0.031062439 0.092290372 0.117564134
0.068137877 0.099348366 0.115476623
0.132040381 0.108536065 0.105544627
0.201719001 0.114259504 0.094388753
0.274335265 0.119625948 0.087135002
0.342878133 0.125831753 0.084713995
0.405573905 0.132418439 0.085461684
0.463901758 0.138606489 0.087978378
0.519945741 0.144147888 0.091476746
0.574858963 0.149324134 0.095640868
0.629018247 0.154695004 0.100613371
0.682925761 0.160827756 0.106684625
0.737024724 0.168303832 0.113845758
0.791154265 0.176912993 0.121734262
0.845594823 0.186292142 0.130397499
0.902897775 0.193880871 0.137719870
0.008847813 0.126627505 0.142285451
0.035244562 0.134777516 0.143133998
0.072178312 0.142597526 0.138191998
0.143990681 0.158447266 0.121833310
0.228619069 0.172782451 0.108766682
0.299966127 0.175702140 0.099639744
0.366383016 0.177506208 0.094874121
0.427791119 0.180396646 0.093643315
0.485394925 0.184114948 0.094677120
0.540715694 0.188214213 0.097060069
0.594748497 0.192540824 0.100410804
0.648154318 0.197582945 0.104759559
0.701472640 0.203805700 0.110234931
0.754979372 0.211437091 0.116826065
0.808662713 0.220246404 0.124161825
0.862604976 0.229409754 0.132080123
0.919639409 0.237118155 0.138717636
0.012397875 0.171322629 0.172225013
0.040306814 0.180472940 0.171392828
0.079173759 0.189413399 0.164539993
0.142507762 0.201895863 0.144238561
0.234816134 0.222723126 0.120248005
0.318765670 0.238465309 0.111104317
0.386867613 0.241128996 0.106736243
0.448512763 0.240716860 0.104316317
0.506517529 0.240714252 0.103701629
0.562137663 0.242049694 0.104650877
0.616370618 0.244720370 0.106871501
0.669741333 0.248683423 0.110274248
0.722801089 0.254165500 0.114911743
0.775857508 0.261144668 0.120595068
0.829274297 0.269147009 0.126980633
0.882972896 0.277575999 0.133850068
