hollywood-luts/Payback.cube
TITLE "17x17x17 Adobe/IRIDAS cube 3D LUT exported with GrossGrade v0.2.2 (beta) 64 bit"
DOMAIN_MIN 0 0 0
DOMAIN_MAX 1 1 1
LUT_3D_SIZE 17
0.000789000 0.000789000 0.003154000
0.022003688 0.008327438 0.008570875
0.062636375 0.023056624 0.023069374
0.113456264 0.040680878 0.040680878
0.173670754 0.052592002 0.056254249
0.233215570 0.063679688 0.067203499
0.291202158 0.074835002 0.075057253
0.350817800 0.084831007 0.081289753
0.412429512 0.093638003 0.087259501
0.474900514 0.101819374 0.093829937
0.537646651 0.109635130 0.100954756
0.599819124 0.117668249 0.108701311
0.660483778 0.126834497 0.117653504
0.720195830 0.137057766 0.127962068
0.779706359 0.148279890 0.139710397
0.838403761 0.161083952 0.153312147
0.892383993 0.177073002 0.168928996
0.011216813 0.052584000 0.019824624
0.043734938 0.048603378 0.028099939
0.077539124 0.057926815 0.044768438
0.124007836 0.068861559 0.060643435
0.181367442 0.076004937 0.071148314
0.239074573 0.084526122 0.077557810
0.295684040 0.094470948 0.082244441
0.353490233 0.104187757 0.086701751
0.413732946 0.112999126 0.091681756
0.475876272 0.120976195 0.097441494
0.539006054 0.128416061 0.103805311
0.602166295 0.135879502 0.110878497
0.664260447 0.144114003 0.119195946
0.724814653 0.153531328 0.129024267
0.783849716 0.164536074 0.140635699
0.840712607 0.177534074 0.154317588
0.892760873 0.193428621 0.169861823
0.036951877 0.104493618 0.050503120
0.067939632 0.099723756 0.054278310
0.087927751 0.103409879 0.061239377
0.129984319 0.111111507 0.063347191
0.184279636 0.118039250 0.072645374
0.240310177 0.124632694 0.079620875
0.295513868 0.132452622 0.084959000
0.352072477 0.139884621 0.090303436
0.411849022 0.145938247 0.096150249
0.474708676 0.150276870 0.102681875
0.539234996 0.154018492 0.109446876
0.603640318 0.158957869 0.116211183
0.666607261 0.165612012 0.123759381
0.728178918 0.173441634 0.132842824
0.788276911 0.182876140 0.143830135
0.845255315 0.194850892 0.157036021
0.896599293 0.209940001 0.172288254
0.031596377 0.161678076 0.066735752
0.068785496 0.157414079 0.063643187
0.088355564 0.158471435 0.069702692
0.124945894 0.163647696 0.070356689
0.178106442 0.170261204 0.066251002
0.236645684 0.176850080 0.068885125
0.291989863 0.183987886 0.077190503
0.346005857 0.191917449 0.085702255
0.402075529 0.199536949 0.093615182
0.462211460 0.206074327 0.101140998
0.526321948 0.210655689 0.108564876
0.592604637 0.213723570 0.116117619
0.658584297 0.216252953 0.124518812
0.723309278 0.218517020 0.134432897
0.786851108 0.221080884 0.146237209
0.847577751 0.226276025 0.159871191
0.901259303 0.236157253 0.175288573
0.043811250 0.218421757 0.077768996
0.078556500 0.215091750 0.065360807
0.097420506 0.216086745 0.068558380
0.123875082 0.218890995 0.072606124
0.176607758 0.223665506 0.069470003
0.232772321 0.229936764 0.064171568
0.290464759 0.236997873 0.062319502
0.345342457 0.244397566 0.074505694
0.400279015 0.251913995 0.088428006
0.457521558 0.259196490 0.099278815
0.518027723 0.265991986 0.107631125
0.581977487 0.271550745 0.115096942
0.648216248 0.275619268 0.122905254
0.714718997 0.278605521 0.132044524
0.779753387 0.281585008 0.143075377
0.841662884 0.286074311 0.156195641
0.896012485 0.293983757 0.171399251
0.068056494 0.273212999 0.088721439
0.099528752 0.271207929 0.068314686
0.116299316 0.272421628 0.069011129
0.133447960 0.275499374 0.072242312
0.175177574 0.279423684 0.072251879
0.233433008 0.283887565 0.068294436
0.290094554 0.289738178 0.063858494
0.346650034 0.296689570 0.063577697
0.402512223 0.303800344 0.079832375
0.459959954 0.310729504 0.096463434
0.519068778 0.317657739 0.107387379
0.580158770 0.324379623 0.115221441
0.644207835 0.330225885 0.122584380
0.710374773 0.335043669 0.130651757
0.775577605 0.340114057 0.140201762
0.836816013 0.346631944 0.151787654
0.889249980 0.356260389 0.165397629
0.092082128 0.328551143 0.103696130
0.121844634 0.327489585 0.074601747
0.136822507 0.328958750 0.073346123
0.151110753 0.331934363 0.075474314
0.173571259 0.336066663 0.077965252
0.229266435 0.340386033 0.075548820
0.289622366 0.344947249 0.072754130
0.346924454 0.350150764 0.070369691
0.404267132 0.356530875 0.077254876
0.462295324 0.363241136 0.093984559
0.521770120 0.369945794 0.107570998
0.582130671 0.376870900 0.115895808
0.644249916 0.383521765 0.122835383
0.708663523 0.389488786 0.130002767
0.773061097 0.395474762 0.138325259
0.833794236 0.402951598 0.148285091
0.884970605 0.413726628 0.159939498
0.114192508 0.384566039 0.120545819
0.140706688 0.384572595 0.086411819
0.155488312 0.386213779 0.083117135
0.168785647 0.388827533 0.084842004
0.184838638 0.391923159 0.088314131
0.225382820 0.396537989 0.088407129
0.286126643 0.401502341 0.085302755
0.346093833 0.406202972 0.083312437
0.405147642 0.410595089 0.081837758
0.464616627 0.416305393 0.093197122
0.524721920 0.422860533 0.107387811
0.585175037 0.429872453 0.116855063
0.646271884 0.437100112 0.123072751
0.709070385 0.443740398 0.129114196
0.772899806 0.449876785 0.136224687
0.833964407 0.457069814 0.144811779
0.884214401 0.467419893 0.155105948
0.134820506 0.441596031 0.136992514
0.148711324 0.443525076 0.108575389
0.169383377 0.444744408 0.096930385
0.184972197 0.446565628 0.097818002
0.199876010 0.448635042 0.101497002
0.228373691 0.451732457 0.104258627
0.286393136 0.456360161 0.101796508
0.348442852 0.461573005 0.098220810
0.407599509 0.466196507 0.095999002
0.468075216 0.470187455 0.095033124
0.528542280 0.475877374 0.105424255
0.589327335 0.482827216 0.116768934
0.650629282 0.490240276 0.122929499
0.713007927 0.497291774 0.127339557
0.776716590 0.503726900 0.132377386
0.837576091 0.510665774 0.139182076
0.886006474 0.519996047 0.148613513
0.153918117 0.499556988 0.157710060
0.157384202 0.502798140 0.138316378
0.177672118 0.504700959 0.114325434
0.198237315 0.505650342 0.111298375
0.214841872 0.506944418 0.114459187
0.235899881 0.508687139 0.118780367
0.286985397 0.511795580 0.118425816
0.352333605 0.516155541 0.114648186
0.412799716 0.521179378 0.111034684
0.470730960 0.525789738 0.108481243
0.530866921 0.530453444 0.106563121
0.591763616 0.536737561 0.112341374
0.653681576 0.543936253 0.119331807
0.717215478 0.550895870 0.122508444
0.781060636 0.557750642 0.124618620
0.840884507 0.564854860 0.128497839
0.887784600 0.573222280 0.136634380
0.172726631 0.557451010 0.183501616
0.174917936 0.560767889 0.168789074
0.190232128 0.563638866 0.143564373
0.209851056 0.565335512 0.127375558
0.228365749 0.566262841 0.127618372
0.246061757 0.567470789 0.131597310
0.286380142 0.569293380 0.133587614
0.351583838 0.572553635 0.130692244
0.416245639 0.576698065 0.126851499
0.474130154 0.581531227 0.123550065
0.531643867 0.586369932 0.120415628
0.592046976 0.591940224 0.115404695
0.655160844 0.598467648 0.113682993
0.719387293 0.605347335 0.113480501
0.782817304 0.612232864 0.110737994
0.841759205 0.619068444 0.109619878
0.888429761 0.626490653 0.114285499
0.192538500 0.614715993 0.208325997
0.194680378 0.617860734 0.196445063
0.207806304 0.620762467 0.181647375
0.223323822 0.623863935 0.161441252
0.239651248 0.626064003 0.150647312
0.257032692 0.627310753 0.146139815
0.283712715 0.628259182 0.147887304
0.343127042 0.630272925 0.146856800
0.414392263 0.633494616 0.142712310
0.478310704 0.637507498 0.138760313
0.536589861 0.642240167 0.135096565
0.595654786 0.647289217 0.130739063
0.658104062 0.652789533 0.124343999
0.722055793 0.659350932 0.115404554
0.784345031 0.666241884 0.106272183
0.841598570 0.672513843 0.100128874
0.888347268 0.678892493 0.100301750
0.213146746 0.671319246 0.231351763
0.215565249 0.674084604 0.221898690
0.226665497 0.677004755 0.212203264
0.239120752 0.680785537 0.203725502
0.251392752 0.684859514 0.192117259
0.266357303 0.687963367 0.175761878
0.285068661 0.688991666 0.164615378
0.331999242 0.689575195 0.161971241
0.407846749 0.691327214 0.158351749
0.482174575 0.694301605 0.153480634
0.545457542 0.698227406 0.149128512
0.604350746 0.702996552 0.144657135
0.663058996 0.708115220 0.139685750
0.724527359 0.713382125 0.133226365
0.785276055 0.719297409 0.126058370
0.840996802 0.725314617 0.120976999
0.887960255 0.731530249 0.120126501
0.233695641 0.728077054 0.253264159
0.236358523 0.730501831 0.245654479
0.242697835 0.733532608 0.237779215
0.254915208 0.736898780 0.234865531
0.266534954 0.741296589 0.229223087
0.278131694 0.746391654 0.214278653
0.292501688 0.750024378 0.195223659
0.328987926 0.751309752 0.179907143
0.399795175 0.751833975 0.172301024
0.479857087 0.753106177 0.167397082
0.549753368 0.755684137 0.162951455
0.611228704 0.759420872 0.158661082
0.669237375 0.764193177 0.153915137
0.725693047 0.769097269 0.149629816
0.783903122 0.773409426 0.145583957
0.840953529 0.778446078 0.141029328
0.889235258 0.785411596 0.137594193
0.254029036 0.784885049 0.276391268
0.256751537 0.787398577 0.269870847
0.256212026 0.790512562 0.263491899
0.266895860 0.793533206 0.260247707
0.279358000 0.797565460 0.256181419
0.291054755 0.802692592 0.244382590
0.302954644 0.808170974 0.229885280
0.327735454 0.812345862 0.213047907
0.388163865 0.814514756 0.194767028
0.472327262 0.815573215 0.181110352
0.549055099 0.816656709 0.174515888
0.613124192 0.818777502 0.171089381
0.672614276 0.822235405 0.167396128
0.730062842 0.826263249 0.163538069
0.786421895 0.829964459 0.160768390
0.841421545 0.834134996 0.158017278
0.891208768 0.840089679 0.154343009
0.274975568 0.840473711 0.304204017
0.278156340 0.842682064 0.297303528
0.276419312 0.846000314 0.292130351
0.278363347 0.849685490 0.284868598
0.289122760 0.853249133 0.279951960
0.302424818 0.857373118 0.273411542
0.315064579 0.862431169 0.263726085
0.336083382 0.867855906 0.252591580
0.390689880 0.872204125 0.235733092
0.471143633 0.874991894 0.211878359
0.548569500 0.876924157 0.191256285
0.615285754 0.878773272 0.182125017
0.677053630 0.880791783 0.179455638
0.736236155 0.883109748 0.177047640
0.793068588 0.886040866 0.174735576
0.846068144 0.889583349 0.173256010
0.892658114 0.893683076 0.173070401
0.296748996 0.892368019 0.331503987
0.300032139 0.894649863 0.324583381
0.298711896 0.897750735 0.319140613
0.297451198 0.901411414 0.312983602
0.301733494 0.905077279 0.304088265
0.314447939 0.908455551 0.299202442
0.330357611 0.911693394 0.294637114
0.347932220 0.915582716 0.288441002
0.399155498 0.919706464 0.273203015
0.482447982 0.923290849 0.244917870
0.561840773 0.926040351 0.216651887
0.627740741 0.928214431 0.202784374
0.689632297 0.930504501 0.198568255
0.749748349 0.932658136 0.195711121
0.806751907 0.934766352 0.193893254
0.858473122 0.937992990 0.192700684
0.903398991 0.941622972 0.194211006
0.007372125 0.007372125 0.030467125
0.024721500 0.013606500 0.030713689
0.069150813 0.026305687 0.040607937
0.120852888 0.042012066 0.054688498
0.179317132 0.053396188 0.068759002
0.237269938 0.064313062 0.079705931
0.294534028 0.075308129 0.088322565
0.354342788 0.084803633 0.096123442
0.416419029 0.092968382 0.103444308
0.479072005 0.100714870 0.110612370
0.541728497 0.108318500 0.118027940
0.603900373 0.116155751 0.125986308
0.664396644 0.125313371 0.134990126
0.722630680 0.136323512 0.145463139
0.780159950 0.148639888 0.157384202
0.838389039 0.161726460 0.170630008
0.892478704 0.177575499 0.185608998
0.024798373 0.047709942 0.053421810
0.048518065 0.051622126 0.058293063
0.085028626 0.059422188 0.061608188
0.135916442 0.066400930 0.069402128
0.193659946 0.071322687 0.076155499
0.248833746 0.079162814 0.082198940
0.303953111 0.088317506 0.087870069
0.361643285 0.096954949 0.093636818
0.421702892 0.104930945 0.099770680
0.483014941 0.112598687 0.106452256
0.545016289 0.120073438 0.113629192
0.606928527 0.127799511 0.121449128
0.667496443 0.136687130 0.130428195
0.726531208 0.146966204 0.140782207
0.784786522 0.158641949 0.152655393
0.842116117 0.171858341 0.166233391
0.894532800 0.188171133 0.181688383
0.046487436 0.100548811 0.075696811
0.052777998 0.105484754 0.070019066
0.084654748 0.107875876 0.069354504
0.140364513 0.110447444 0.076368250
0.197284013 0.115071490 0.082616188
0.252458692 0.120593384 0.087959133
0.306711495 0.127106935 0.093627371
0.362995148 0.133114114 0.099801242
0.422542721 0.138476938 0.106080934
0.484522283 0.143400878 0.112460002
0.547647834 0.148391873 0.119004250
0.610614657 0.154275253 0.125956446
0.672326207 0.161505625 0.133942634
0.732868135 0.169967324 0.143374994
0.791799963 0.180144757 0.154636830
0.847830057 0.192671329 0.168017685
0.898364961 0.208242878 0.183344811
0.043905251 0.157306448 0.091896310
0.047647625 0.161144704 0.081911184
0.078201190 0.163305566 0.071791880
0.126282021 0.166453943 0.071789876
0.188428327 0.169981956 0.074707940
0.247144610 0.175042883 0.080966063
0.301321834 0.181486070 0.088973075
0.355346739 0.188363895 0.097039439
0.412135512 0.194737881 0.104781754
0.472812116 0.200100869 0.112190813
0.536692142 0.203909889 0.119609185
0.602225065 0.206613392 0.127336502
0.667353272 0.209031895 0.135960311
0.731180727 0.211353332 0.146094769
0.793695033 0.214312211 0.158076450
0.852714837 0.220896587 0.171703815
0.903856695 0.233115450 0.186940938
0.050412752 0.214855507 0.101617306
0.055534128 0.217924878 0.089899689
0.082457505 0.220998377 0.072331250
0.115510449 0.223436013 0.071279064
0.176553011 0.226202756 0.070320308
0.237986252 0.230572999 0.069234371
0.296717942 0.236650944 0.076703317
0.351636857 0.243383378 0.089662448
0.407348394 0.250179797 0.101348318
0.465397716 0.256812602 0.110635430
0.526258051 0.263047308 0.118439943
0.590099335 0.268138438 0.125889003
0.655835986 0.271822065 0.133984491
0.721446514 0.274502248 0.143563569
0.786039710 0.277097821 0.154980391
0.847288549 0.281781375 0.168246821
0.899223089 0.291279465 0.183303237
0.070949122 0.270993859 0.113480747
0.076783687 0.273482233 0.099464685
0.099869438 0.276789993 0.076062441
0.123772137 0.280277878 0.071187817
0.169430822 0.282953441 0.071731754
0.233421683 0.286052048 0.070692748
0.292672396 0.291027308 0.074243940
0.350606471 0.297274858 0.082076132
0.407797247 0.303675413 0.096553445
0.466395736 0.310037106 0.109293379
0.526123822 0.316588998 0.118429564
0.587466717 0.323034674 0.125880569
0.651499987 0.328526437 0.133365870
0.717321992 0.332976669 0.141812339
0.782475889 0.337549448 0.151774585
0.842993736 0.343986094 0.163694754
0.892609358 0.354599804 0.177393124
0.092860878 0.327217400 0.132296443
0.099013068 0.329466760 0.115043007
0.117712080 0.333053946 0.085797131
0.139397442 0.336814165 0.077635810
0.165565804 0.340740532 0.078585133
0.225101486 0.343925744 0.078391135
0.290158957 0.347041011 0.083591320
0.349466503 0.351668209 0.088068694
0.408574343 0.357521832 0.095863312
0.468198329 0.363608032 0.108684056
0.528432965 0.369892925 0.119305439
0.589052200 0.376570582 0.126767069
0.651240885 0.382947445 0.133599624
0.715754807 0.388591737 0.141011089
0.780323327 0.394266635 0.149671331
0.839890242 0.401869029 0.159952641
0.887956858 0.413240075 0.171987623
0.112552814 0.384503990 0.154444695
0.118861072 0.386507422 0.135003388
0.134522274 0.390318632 0.105800822
0.154620260 0.393943787 0.093120009
0.174449071 0.397544593 0.091947325
0.217123687 0.401482344 0.096230008
0.282730579 0.404984355 0.098774508
0.347110271 0.408518225 0.102625512
0.408118546 0.412286073 0.103224069
0.469213367 0.417604893 0.110538498
0.530387104 0.423822761 0.120611064
0.591301978 0.430594385 0.128222123
0.652486622 0.437585235 0.133973449
0.715217113 0.444010973 0.140070766
0.778701901 0.450087339 0.147476271
0.838190317 0.457514018 0.156366020
0.886003911 0.467953324 0.167420954
0.131347820 0.442482710 0.176483259
0.136478826 0.444300801 0.157308310
0.151667386 0.448089689 0.130500317
0.170994580 0.451266408 0.119585134
0.188870624 0.454267263 0.115149513
0.217397302 0.457383543 0.117251888
0.278129876 0.461184025 0.119218379
0.345531166 0.465230286 0.120484501
0.408434838 0.468918264 0.119345203
0.470818013 0.472248137 0.116731703
0.532690585 0.477570474 0.122127876
0.594350636 0.484334439 0.129562557
0.655966878 0.491504133 0.134391814
0.718078613 0.498375505 0.138690889
0.780750751 0.504749298 0.144217193
0.839750767 0.511744022 0.151778951
0.886573374 0.520866454 0.162809879
0.149657071 0.500924945 0.199590430
0.153777882 0.502509832 0.181695625
0.167545319 0.506298244 0.156202316
0.187507451 0.508898258 0.146872625
0.204950199 0.511729717 0.141784504
0.225514114 0.514151275 0.140371248
0.276039690 0.516963005 0.140555754
0.345725149 0.520573378 0.138490438
0.411877573 0.524771333 0.136321187
0.472851634 0.528541207 0.131165057
0.534558535 0.532456517 0.126723200
0.596319437 0.538362861 0.129016697
0.658409357 0.545324206 0.133167118
0.721425116 0.552110016 0.135745049
0.784121573 0.558711886 0.138717756
0.842341304 0.565540731 0.144655392
0.888304651 0.573657811 0.157230064
0.167813554 0.559356213 0.224707752
0.172056496 0.560684800 0.207867056
0.184951439 0.564158142 0.185084373
0.203279436 0.566840947 0.171923816
0.220390260 0.569788039 0.165603250
0.237431005 0.572438657 0.161743686
0.275417626 0.574536860 0.160695627
0.343554527 0.577178657 0.157298490
0.414181471 0.580582559 0.152025625
0.476351321 0.584775627 0.146293864
0.535409808 0.588955104 0.137679324
0.596293926 0.593769610 0.130564064
0.659049094 0.599852026 0.128894567
0.722304940 0.606418729 0.129142746
0.784881771 0.612955332 0.129587755
0.843082905 0.619529068 0.134509891
0.889681637 0.626862824 0.150583446
0.186916620 0.617082894 0.248798490
0.191317245 0.618278205 0.233123809
0.203631565 0.621332049 0.215899557
0.219607562 0.624349654 0.203270942
0.234668553 0.627985358 0.193103567
0.250344485 0.631277621 0.184274495
0.274729282 0.633342922 0.180007309
0.333958149 0.635323405 0.176278427
0.410753578 0.637913644 0.168940574
0.479603529 0.641244888 0.160058752
0.539449990 0.645371854 0.150277242
0.598223567 0.649937332 0.139976561
0.659932673 0.654917240 0.132212132
0.723140895 0.660809755 0.127429754
0.785135388 0.667249858 0.125309885
0.842936516 0.673606038 0.132033139
0.890121579 0.680364072 0.152567998
0.207372501 0.673819542 0.270959765
0.211934894 0.674877703 0.256654441
0.222348630 0.677873731 0.243088380
0.236231253 0.681150675 0.236953557
0.248761743 0.685560763 0.230214819
0.262454480 0.689978719 0.217643455
0.279143333 0.692789376 0.204536200
0.322909713 0.694544613 0.196648642
0.400848418 0.696438134 0.188106999
0.480308294 0.698843837 0.176452070
0.546221137 0.702022612 0.163730815
0.605469048 0.706150591 0.152278885
0.663856387 0.710983694 0.145331025
0.724541783 0.716027260 0.142461762
0.785746455 0.721504748 0.141384825
0.843201518 0.727613449 0.151494399
0.890029848 0.734160423 0.172516376
0.227978766 0.730465472 0.292671382
0.232628196 0.731563270 0.280002773
0.238557637 0.734665871 0.268254548
0.251102567 0.737906456 0.265640855
0.263330579 0.742202163 0.264160544
0.275329471 0.747193038 0.256325901
0.289232701 0.751686454 0.241975725
0.321190178 0.754865170 0.226312667
0.390113473 0.756935835 0.212570518
0.474615812 0.758563161 0.198701590
0.549130619 0.760612547 0.183614910
0.611865401 0.763738155 0.170581147
0.669827640 0.768193901 0.163371280
0.726984382 0.773080707 0.162126541
0.786314785 0.777554095 0.167712033
0.844100654 0.782395899 0.174850017
0.891086638 0.788142145 0.183448255
0.248285383 0.787377179 0.315518290
0.252905697 0.788481593 0.304254889
0.252644449 0.791684628 0.293977380
0.262225389 0.794978261 0.291359037
0.275302768 0.798765600 0.290807456
0.287678719 0.803446352 0.286024094
0.300237954 0.808677077 0.277639776
0.323224097 0.813786030 0.265382528
0.382407784 0.817802966 0.247636795
0.468359500 0.820354104 0.229325727
0.547854602 0.822091401 0.213559151
0.613565087 0.824230313 0.199525446
0.673658073 0.827460051 0.189305201
0.731855154 0.831236362 0.184344113
0.790032864 0.834666252 0.181054339
0.845722675 0.838222384 0.179086760
0.892804563 0.842316389 0.188152820
0.269244432 0.842981279 0.343051374
0.273734152 0.844234288 0.332898378
0.273138016 0.847048700 0.323799789
0.274060518 0.850914001 0.318419933
0.284117460 0.854748964 0.315576792
0.297612578 0.858913481 0.311764061
0.310873389 0.863737404 0.305293232
0.331548154 0.869259477 0.297310621
0.386964649 0.874702513 0.284190118
0.470190167 0.878666461 0.265882313
0.549993753 0.881226301 0.247432560
0.617303371 0.883431852 0.230740398
0.679180503 0.885815918 0.213240281
0.738767624 0.888483942 0.194853365
0.796838939 0.891340911 0.179950878
0.850501418 0.893951297 0.175315082
0.894685090 0.895865262 0.191024706
0.291237444 0.894727707 0.370917439
0.293956161 0.897116423 0.367460877
0.293252826 0.899670422 0.363174886
0.291952491 0.903114974 0.359931260
0.294627428 0.907165229 0.354851633
0.306891680 0.910785317 0.351938367
0.322948873 0.914104939 0.348849952
0.340633571 0.917881608 0.344757766
0.393262863 0.923405409 0.334363222
0.479683965 0.928903878 0.315630078
0.562760830 0.932460785 0.294047564
0.631356359 0.934909463 0.272611856
0.694111347 0.937634885 0.246141106
0.754384458 0.940451205 0.215508103
0.812549710 0.942812920 0.194922999
0.864797354 0.944764555 0.192604646
0.906321228 0.946242094 0.211932555
0.017698500 0.016665123 0.079907253
0.034576252 0.024557624 0.086098567
0.074259117 0.034510750 0.090352625
0.125897631 0.046496317 0.099216312
0.182955876 0.056590751 0.111222997
0.240281299 0.066331498 0.122443624
0.297446996 0.076431751 0.130891129
0.356929839 0.085405067 0.140069559
0.419119269 0.092999630 0.147200763
0.482217133 0.100200124 0.150624752
0.544866502 0.107689381 0.152370125
0.606404066 0.115894124 0.154493630
0.666223526 0.125493258 0.158245623
0.723945260 0.136809453 0.165091828
0.780823827 0.149432644 0.175075144
0.838403583 0.162793383 0.187321201
0.892481506 0.178628370 0.202399254
0.042202625 0.051921811 0.097533181
0.056437314 0.058134377 0.111870185
0.088756189 0.064326748 0.117089376
0.142765447 0.067768313 0.117444254
0.198908448 0.073238499 0.119752616
0.253523231 0.080514498 0.125924125
0.308211595 0.089094631 0.130925626
0.366163105 0.097096249 0.137445509
0.426763624 0.104380935 0.143083006
0.488065779 0.111697182 0.146149188
0.549468815 0.119268939 0.148011118
0.610648632 0.127277002 0.150281191
0.670555413 0.136449128 0.154282674
0.728732169 0.147150636 0.161618635
0.786037982 0.159302577 0.172465459
0.842940211 0.172766268 0.185444638
0.895256579 0.189125121 0.200009882
0.049973249 0.103093870 0.116305381
0.061883934 0.107446194 0.123344004
0.087841004 0.112352371 0.134706885
0.148123443 0.113525681 0.133306444
0.209396377 0.116265126 0.130106494
0.268125176 0.117240809 0.129111260
0.324276865 0.118773133 0.131670505
0.381646276 0.121717997 0.132751435
0.441088140 0.125752002 0.133840621
0.501353323 0.130606830 0.135773942
0.562057495 0.136024758 0.138327375
0.622655272 0.142175123 0.141895935
0.681916535 0.149722248 0.147197112
0.740203202 0.158692628 0.155319825
0.797205806 0.169520125 0.166165650
0.852461934 0.182390198 0.179107636
0.901610374 0.198797628 0.193949014
0.041319501 0.159862638 0.132231250
0.043299627 0.164258823 0.131919697
0.069375128 0.170472324 0.131721199
0.123271130 0.174691692 0.134235188
0.200581446 0.173397765 0.130764633
0.263550878 0.174459711 0.128705680
0.320186555 0.177257881 0.129654691
0.376329631 0.180217758 0.133160055
0.435168624 0.182538256 0.135862872
0.496813953 0.184418768 0.138431758
0.559644222 0.186481446 0.141964316
0.622681618 0.189024255 0.146180376
0.684961438 0.192086637 0.151209310
0.746095479 0.195894569 0.158813149
0.805629313 0.201660961 0.169281453
0.861005306 0.211730853 0.182022586
0.908698142 0.226427004 0.196728796
0.049030751 0.217548758 0.146816492
0.051287249 0.220681131 0.142758638
0.065896124 0.226449504 0.129042879
0.104501903 0.231205374 0.120350748
0.176316500 0.232625008 0.120722115
0.248990819 0.233038947 0.116926879
0.310660630 0.236370638 0.121353880
0.367357701 0.240931571 0.127277628
0.424992263 0.245474637 0.132598490
0.484666377 0.249794632 0.136741936
0.546187878 0.253855377 0.140706256
0.609406292 0.257184029 0.145056933
0.673597991 0.259474009 0.150048494
0.737419784 0.261194319 0.157187760
0.800477266 0.263454497 0.167431504
0.858905315 0.269369751 0.180379629
