hollywood-luts/Payback.cube
TITLE "17x17x17 Adobe/IRIDAS cube 3D LUT exported with GrossGrade v0.2.2 (beta) 64 bit"
DOMAIN_MIN 0 0 0
DOMAIN_MAX 1 1 1
LUT_3D_SIZE 5
0.000789000 0.000789000 0.003154000
0.173670754 0.052592002 0.056254249
0.412429512 0.093638003 0.087259501
0.660483778 0.126834497 0.117653504
0.892383993 0.177073002 0.168928996
0.043811250 0.218421757 0.077768996
0.176607758 0.223665506 0.069470003
0.400279015 0.251913995 0.088428006
0.648216248 0.275619268 0.122905254
0.896012485 0.293983757 0.171399251
0.134820506 0.441596031 0.136992514
0.199876010 0.448635042 0.101497002
0.407599509 0.466196507 0.095999002
0.650629282 0.490240276 0.122929499
0.886006474 0.519996047 0.148613513
0.213146746 0.671319246 0.231351763
0.251392752 0.684859514 0.192117259
0.407846749 0.691327214 0.158351749
0.663058996 0.708115220 0.139685750
0.887960255 0.731530249 0.120126501
0.296748996 0.892368019 0.331503987
0.301733494 0.905077279 0.304088265
0.399155498 0.919706464 0.273203015
0.689632297 0.930504501 0.198568255
0.903398991 0.941622972 0.194211006
0.042626999 0.040215999 0.217030257
0.190904260 0.067027755 0.237001270
0.414546788 0.098570749 0.266101003
0.669969022 0.125799745 0.275152266
0.892084718 0.182960242 0.318060756
0.066553503 0.229101494 0.262049496
0.172789752 0.246259272 0.294232756
0.456921041 0.244480506 0.291296244
0.714040518 0.227474004 0.286482751
0.921085715 0.257439017 0.320827514
0.109194249 0.456338763 0.324967474
0.160099506 0.470182717 0.287767500
0.411748290 0.487883508 0.267052770
0.688593745 0.501337707 0.264656246
0.902318776 0.525274277 0.326083004
0.184946254 0.686004043 0.395945758
0.220430017 0.691055536 0.347423553
0.349353760 0.714123011 0.315258265
0.673430741 0.725642681 0.277643025
0.901621222 0.741386771 0.322665274
0.272008985 0.903977990 0.492584527
0.269260734 0.916916728 0.493822247
0.364831269 0.934517980 0.499070764
0.697647572 0.954837978 0.455275267
0.921528280 0.965612531 0.422601253
0.081884503 0.070359498 0.511001527
0.238115758 0.079513252 0.512484789
0.432500005 0.106915995 0.529698491
0.666370749 0.142268747 0.546495557
0.885650992 0.215301007 0.595633984
0.076261997 0.259218991 0.513422251
0.248380512 0.241981000 0.587434769
0.476328015 0.226108015 0.598852038
0.712207198 0.229573742 0.586120546
0.910763979 0.278132260 0.617508054
0.112829998 0.483053505 0.541290522
0.158371508 0.494518220 0.555388212
0.420190990 0.515384555 0.596914053
0.715987563 0.521701276 0.605639279
0.906404018 0.545861006 0.639711976
0.153395757 0.706274807 0.596550465
0.190575749 0.714989543 0.589108527
0.305343270 0.738645792 0.598464787
0.696136475 0.754813075 0.607275546
0.917615533 0.768049717 0.632700264
0.245099008 0.920890510 0.674460530
0.244324744 0.931405246 0.680886030
0.364645541 0.949545026 0.696739554
0.714080453 0.974448442 0.699284732
0.937948465 0.979850054 0.690076470
0.161562249 0.120819502 0.759064555
0.303241253 0.123296261 0.750584781
0.496955514 0.145233005 0.753362060
0.702818513 0.193167254 0.752117038
0.876567245 0.284018010 0.777631044
0.124009751 0.292815000 0.753974020
0.311917752 0.263679266 0.807861507
0.535239756 0.245221019 0.809904695
0.739746690 0.262674779 0.790424705
0.895955980 0.333548009 0.807294965
0.117249258 0.517063975 0.752747476
0.173724264 0.526902795 0.775545776
0.491236001 0.539356053 0.811944008
0.746636271 0.533140302 0.811424792
0.899044752 0.573558033 0.822260022
0.148413002 0.732455730 0.789075494
0.186315000 0.739412725 0.794699252
0.355735511 0.763116777 0.816011310
0.711344302 0.780748785 0.838698268
0.917017698 0.793999255 0.851275027
0.230288997 0.936501265 0.852787971
0.231122240 0.945176780 0.862025976
0.421687782 0.962486207 0.878910959
0.736593246 0.980145276 0.893351555
0.950377464 0.988436460 0.898717761
0.236725003 0.184845999 0.939418018
0.374778003 0.187442243 0.925504267
0.541167974 0.213704497 0.919622540
0.724089980 0.271151245 0.912556231
0.868456006 0.354283988 0.930314004
0.207148001 0.335731506 0.937191010
0.377077520 0.315412998 0.946586251
0.559557498 0.308157474 0.946184516
0.748455524 0.333994508 0.937559485
0.884732723 0.413504004 0.946607232
0.158217505 0.545369506 0.926663518
0.299227268 0.557109714 0.930425763
0.536623001 0.569142044 0.939349949
0.751817763 0.574075520 0.941689014
0.887197018 0.623834968 0.948890507
0.170343995 0.756213546 0.943296790
0.226266265 0.763330519 0.948027492
0.474103749 0.783657730 0.960221469
0.738617241 0.800043762 0.974038720
0.917153001 0.821827531 0.987192988
0.234518006 0.947515011 0.996524990
0.236572251 0.955541015 1.004884720
0.494972527 0.971539497 1.022840023
0.764559269 0.985693991 1.036878228
0.965125024 1.002226949 1.055202007
