hollywood-luts/Pulp Fiction.cube
TITLE "17x17x17 Adobe/IRIDAS cube 3D LUT exported with GrossGrade v0.2.2 (beta) 64 bit"
DOMAIN_MIN 0 0 0
DOMAIN_MAX 1 1 1
LUT_3D_SIZE 17
0.000000000 0.000000000 0.000000000
0.012691875 0.000578437 0.000610313
0.086701125 0.001724750 0.001806875
0.159888566 0.002709313 0.002817813
0.223006502 0.003511250 0.003648250
0.280925125 0.004257437 0.004423750
0.340597659 0.008991502 0.009340004
0.402493477 0.017388880 0.019301131
0.465218514 0.027011003 0.031502001
0.525991857 0.037142813 0.042922813
0.582618415 0.048264749 0.052781750
0.636249602 0.060462877 0.061919875
0.688083053 0.073566258 0.070161507
0.737998366 0.087620892 0.076548137
0.787767053 0.102011263 0.083026506
0.835332990 0.116488077 0.089077570
0.881442010 0.129809007 0.095265999
0.000000000 0.000411563 0.000000000
0.003162188 0.001036875 0.000474375
0.062544942 0.002852562 0.001776813
0.141359091 0.005561938 0.004216376
0.215108633 0.009522125 0.008196438
0.282525629 0.016700312 0.013228126
0.347212017 0.026480254 0.018852502
0.410364330 0.038245633 0.025510378
0.471883535 0.051313378 0.033231627
0.530866623 0.064516000 0.041062314
0.586082995 0.077603064 0.048500746
0.638458073 0.090907559 0.056023002
0.689570725 0.103969559 0.063485131
0.739390731 0.116949074 0.070230134
0.788859904 0.130321950 0.077239506
0.837030411 0.143436775 0.084216446
0.882412314 0.155002445 0.091150373
0.001379875 0.016625624 0.001440250
0.005104688 0.022608563 0.002182375
0.046430878 0.031049374 0.004174000
0.127742782 0.037180062 0.007284938
0.207387760 0.041773997 0.010999376
0.278724879 0.048421435 0.014987437
0.345649391 0.058212753 0.019099625
0.410002887 0.070456818 0.023341566
0.472651631 0.083824128 0.029160751
0.532821953 0.097202621 0.036485374
0.589291036 0.110093370 0.044350751
0.642544568 0.122681499 0.052316066
0.693911910 0.134844378 0.059927374
0.743779421 0.146982253 0.067102194
0.792840302 0.159263894 0.074476384
0.840720177 0.171415314 0.081724696
0.884793162 0.182078883 0.088549376
0.005284438 0.048932258 0.003483876
0.007752689 0.053164259 0.003641438
0.039104998 0.069506630 0.005280876
0.108887456 0.079274327 0.008533814
0.194940954 0.085435018 0.010953126
0.272363424 0.092773698 0.014161812
0.343545556 0.100727022 0.017554501
0.410601974 0.110955335 0.021208689
0.475229919 0.122977391 0.027033877
0.537085712 0.135383829 0.034914061
0.594982862 0.147243947 0.043195188
0.649242163 0.158578947 0.051080503
0.700899184 0.169544443 0.058409687
0.750607133 0.180578277 0.065668195
0.798977971 0.191922158 0.073066249
0.846210122 0.203140602 0.080745071
0.888994753 0.212446392 0.087813996
0.009523250 0.086094752 0.006166250
0.014947250 0.089142755 0.006614188
0.039828498 0.102577627 0.009708625
0.100298077 0.125207305 0.015007438
0.179208755 0.132736742 0.015326000
0.263166755 0.138733447 0.014400001
0.340898901 0.148070753 0.017080875
0.412344187 0.157727197 0.020514190
0.479941994 0.168351009 0.026829753
0.543674350 0.179080486 0.035227999
0.602827847 0.189484134 0.043710250
0.657749474 0.199424386 0.051653184
0.709278464 0.208951771 0.058915503
0.758656502 0.218522459 0.066140324
0.806513071 0.228621274 0.073640376
0.852982402 0.238772333 0.081390008
0.894203484 0.246892005 0.088457495
0.019802313 0.125742316 0.015456375
0.029732440 0.128280059 0.016095687
0.048531123 0.137091488 0.018654812
0.096254513 0.160883442 0.023136064
0.177138150 0.184570119 0.028304063
0.251443863 0.187960178 0.024948251
0.334163874 0.194516748 0.020511376
0.412339389 0.204914555 0.022827378
0.484291464 0.216726124 0.028231815
0.550829709 0.227881700 0.036570873
0.611553192 0.237223685 0.045085374
0.667349398 0.245398372 0.053103186
0.718877614 0.253078759 0.060667254
0.767798960 0.260990977 0.068180695
0.814996481 0.269519299 0.075832754
0.860566735 0.278520137 0.083521135
0.900840163 0.285807312 0.090566121
0.037474506 0.166500762 0.027487628
0.047992632 0.169054508 0.028016690
0.063700750 0.174475387 0.030151505
0.099223889 0.195334330 0.033865757
0.174210384 0.225970760 0.039567754
0.256278247 0.243427083 0.042471696
0.325475127 0.244153634 0.036862627
0.407260776 0.251419842 0.032122441
0.485516548 0.263703644 0.034418382
0.556811988 0.277630508 0.039903194
0.620383859 0.289029032 0.047506504
0.677498221 0.297257155 0.055740066
0.729379654 0.303642273 0.063783750
0.778019011 0.309780449 0.071765631
0.824594080 0.316402912 0.079587512
0.869172275 0.323721707 0.087355129
0.908594906 0.329632640 0.094302379
0.058328256 0.208682656 0.041505136
0.067821011 0.211669520 0.042334631
0.081515260 0.215173140 0.044240948
0.108785078 0.231373727 0.046818070
0.171948388 0.262462527 0.052762944
0.259057075 0.293052316 0.059515256
0.334203452 0.301038921 0.057553820
0.400757730 0.301582068 0.050614633
0.482768595 0.310223639 0.046757694
0.558813214 0.324262649 0.048795633
0.626816630 0.339193910 0.053348068
0.687046170 0.350945711 0.060360257
0.740543544 0.359176844 0.068643190
0.789460480 0.365141690 0.077478573
0.835565746 0.370373875 0.085803457
0.879114687 0.375843585 0.093617640
0.917767167 0.379738271 0.100332379
0.079780504 0.252888501 0.058610007
0.089521758 0.257201403 0.059984632
0.102169007 0.259485900 0.061397377
0.123680577 0.270853966 0.063230753
0.174855009 0.299909234 0.068643004
0.257768452 0.334613323 0.075162321
0.345338523 0.361024380 0.081748873
0.411439419 0.360012591 0.074531443
0.478792518 0.362063527 0.067515507
0.559087038 0.372108161 0.063980132
0.630014598 0.386045992 0.065886132
0.693468273 0.401025891 0.070992820
0.750183284 0.413706779 0.077876255
0.801148534 0.422843277 0.086206511
0.848085642 0.429038882 0.094190016
0.891140580 0.434147716 0.101945259
0.929240465 0.436963499 0.108625010
0.103044435 0.300755799 0.078601062
0.113995373 0.306809068 0.080707625
0.126319617 0.308683753 0.081424251
0.144292384 0.316349804 0.082350560
0.184200257 0.341272384 0.086786509
0.259764433 0.376954615 0.093220994
0.349522591 0.411220074 0.101245999
0.431786805 0.431162059 0.105414994
0.491257459 0.423179805 0.094259873
0.558975458 0.426425993 0.088141680
0.633701921 0.437048614 0.085134938
0.698910892 0.449886084 0.087462001
0.757264316 0.464147329 0.093122192
0.810388148 0.476866156 0.099882878
0.859136164 0.486211836 0.106303513
0.902840316 0.493211746 0.113487132
0.941594064 0.497131824 0.119429752
0.128830746 0.352881014 0.100283749
0.140683562 0.359749496 0.102753311
0.153127745 0.361815512 0.103100501
0.169115141 0.367463052 0.102860816
0.200734377 0.387637138 0.106509000
0.267206937 0.422231495 0.113584243
0.356027544 0.459261507 0.120995745
0.443124861 0.490199029 0.129953742
0.518002152 0.500917733 0.128645003
0.573415041 0.489714921 0.116490193
0.638152003 0.494087994 0.112438120
0.705651999 0.504102707 0.109863125
0.764857113 0.515347004 0.112102874
0.818253756 0.526919127 0.116710253
0.867288172 0.537803173 0.122219130
0.911626756 0.547017276 0.128302246
0.951769888 0.553284168 0.133141622
0.155672312 0.406774431 0.121998750
0.168086678 0.413460076 0.124361247
0.181085438 0.416071802 0.124773622
0.196148321 0.420899928 0.123679437
0.222978935 0.437150955 0.127318874
0.282127857 0.469866484 0.135172695
0.367634445 0.507548988 0.141974866
0.455722690 0.542215586 0.151033312
0.536744833 0.566470861 0.157250300
0.601908207 0.566746533 0.150351241
0.653998256 0.556799591 0.140213132
0.713720739 0.562253892 0.138616249
0.773163021 0.570119500 0.135681883
0.826667607 0.578346312 0.136568993
0.875155985 0.586806953 0.139593884
0.919176996 0.595914304 0.143872812
0.959260821 0.603447556 0.148570061
0.182311758 0.459500760 0.142252252
0.195456147 0.466148883 0.145164132
0.209333390 0.470024735 0.146106124
0.224260002 0.474830627 0.144714326
0.248866007 0.488434792 0.148721501
0.303298563 0.518829346 0.156829953
0.385297120 0.556433141 0.163192630
0.471841246 0.591779828 0.171894193
0.553171039 0.621115208 0.180588007
0.626288176 0.635781765 0.181405574
0.680567384 0.628168762 0.171016261
0.729147732 0.620992899 0.163151890
0.782834768 0.625629008 0.162355766
0.835055649 0.631214857 0.159893319
0.883308470 0.637185872 0.159465134
0.926218212 0.644448042 0.161593765
0.965885997 0.651093721 0.164456502
0.207483470 0.508840859 0.159907445
0.221278965 0.515629053 0.163638338
0.236255094 0.521093726 0.165470898
0.251415282 0.526286483 0.164246947
0.275558710 0.538629234 0.169039637
0.326607615 0.566087663 0.177295640
0.404877037 0.602524459 0.183392197
0.488921136 0.637612402 0.191664323
0.568301201 0.667613149 0.201259956
0.642277241 0.688467145 0.205606759
0.704358101 0.692810416 0.200886086
0.750206172 0.682849646 0.189610466
0.795648098 0.678286195 0.183990479
0.844433129 0.682444930 0.183960453
0.890771389 0.687101245 0.182303146
0.932896495 0.692353368 0.181679577
0.971506357 0.697769642 0.182506576
0.230132639 0.553041577 0.174579144
0.244428024 0.559902787 0.179045022
0.260138422 0.566569984 0.182096377
0.275639951 0.572386205 0.181656078
0.300646394 0.584896207 0.187827140
0.349087536 0.609260499 0.197055519
0.422493160 0.643023074 0.203230634
0.502454996 0.676796019 0.209697515
0.579404414 0.706651449 0.217344642
0.652324319 0.730209887 0.222609445
0.717549384 0.742367029 0.222583264
0.768235445 0.739329159 0.215783775
0.810503900 0.731125116 0.207520634
0.855261564 0.729569912 0.203943267
0.899964929 0.733826816 0.204350263
0.939196706 0.738767385 0.205331817
0.976546407 0.743130445 0.203222901
0.250676692 0.593001842 0.189278573
0.265411526 0.599724054 0.193874896
0.281027257 0.606671453 0.196953014
0.297091395 0.613021910 0.198243693
0.323088169 0.625911176 0.203531817
0.369212091 0.647181749 0.211192712
0.436563849 0.677259386 0.216492817
0.510593712 0.708692372 0.221847832
0.584158063 0.737829626 0.228644580
0.654794514 0.762806833 0.234348387
0.720530868 0.780278504 0.236746266
0.779101431 0.787159145 0.234576777
0.824753463 0.781886458 0.227699310
0.865809917 0.776128352 0.221963823
0.908594966 0.777246714 0.220528021
0.947800636 0.781632066 0.221090198
0.981680930 0.785797358 0.222399890
0.268866986 0.628503978 0.198496997
0.283577323 0.635100245 0.203417942
0.299041003 0.642174244 0.207149744
0.315903991 0.649298608 0.209107429
0.342934012 0.662013769 0.214019001
0.387330800 0.680331349 0.221221745
0.448813021 0.706221402 0.226453006
0.516023338 0.734836519 0.231070384
0.584758997 0.762925506 0.237091005
0.652558029 0.788831830 0.243308067
0.716863394 0.809859395 0.247357503
0.777938664 0.823602498 0.247998118
0.831648767 0.827564776 0.244929254
0.875284195 0.822526455 0.239036128
0.915679812 0.819195747 0.234941751
0.954965949 0.821581662 0.234331429
0.988730013 0.826002002 0.235177994
0.001136250 0.000692812 0.019095000
0.008045625 0.000610313 0.012089999
0.086596131 0.001928125 0.008754062
0.164510071 0.002975313 0.010018939
0.229687497 0.003922250 0.013183000
0.286480427 0.004766000 0.017336376
0.342289835 0.007516815 0.022868754
0.401832521 0.014914444 0.032558881
0.462987691 0.024475316 0.044891130
0.523351967 0.033991564 0.057655938
0.581082344 0.043983001 0.069513500
0.635452449 0.055365376 0.079570502
0.687538087 0.068209253 0.088131003
0.737753272 0.082428828 0.095674627
0.786901474 0.098856077 0.102379128
0.833874404 0.115281574 0.108170882
0.879894197 0.130165249 0.113902561
0.001725937 0.001348125 0.020238750
0.002850000 0.002389688 0.015405937
0.060296379 0.005830250 0.010859000
0.141310573 0.011688752 0.015000565
0.218203872 0.015853062 0.019296251
0.287492484 0.022630123 0.026441440
0.352477014 0.032109942 0.035035938
0.415452152 0.043537069 0.043811128
0.476604342 0.056255192 0.052289378
0.534876525 0.069286749 0.060130123
0.589667201 0.082111686 0.067400187
0.642071187 0.094820373 0.074605815
0.692778885 0.107510127 0.081801064
0.742047429 0.120701894 0.088831447
0.791133642 0.134167641 0.096235201
0.838362753 0.147294134 0.102904633
0.882827640 0.158761814 0.109708190
0.005221563 0.024730187 0.026448626
0.005528375 0.028866624 0.024323061
0.045637440 0.037273314 0.019769687
0.131976068 0.043442063 0.017176688
0.213845998 0.047296569 0.019238312
0.287075728 0.053619377 0.025640937
0.354100138 0.063442186 0.033297691
0.417731524 0.075716004 0.040790312
0.479354322 0.089198694 0.048400871
0.538593173 0.102773130 0.056084748
0.594314814 0.115511499 0.063466810
0.646910846 0.127543941 0.070767187
0.697517395 0.139277190 0.078219317
0.746548414 0.151258513 0.085673943
0.795220077 0.163820460 0.093133822
0.842503130 0.176050633 0.100577950
0.885477901 0.186435014 0.107165813
0.009740376 0.061909508 0.036380250
0.009941690 0.063950568 0.032932747
0.035799868 0.074359246 0.028386313
0.110824578 0.086206138 0.027226251
0.200929195 0.091479577 0.020022064
0.281140327 0.096446760 0.022344876
0.353070349 0.103603825 0.030386440
0.419604212 0.113760762 0.038399566
0.483332574 0.125984192 0.045943499
0.544420481 0.138523266 0.053734064
0.601559281 0.150291249 0.061490685
0.654678285 0.161333874 0.069052681
0.705122590 0.172102869 0.076581374
0.753888071 0.183122844 0.084212005
0.801629007 0.194682479 0.091689318
0.847989380 0.205936015 0.099283874
0.889608681 0.215152696 0.105618060
0.014444938 0.102779627 0.043412000
0.019736752 0.102542818 0.038127873
0.038831625 0.109690696 0.034914065
0.096561454 0.129390255 0.038429253
0.181954503 0.138805181 0.034560315
0.269511700 0.144340381 0.025621001
0.348897398 0.151743948 0.028539442
0.420861602 0.159533933 0.037144691
0.488259137 0.169197589 0.045405500
0.551476061 0.179770634 0.053369246
0.609836280 0.190022439 0.061262127
0.663748205 0.199681073 0.068995252
0.714278102 0.209044456 0.076546438
0.762539625 0.218642652 0.084170505
0.809484363 0.229003340 0.091758326
0.855073988 0.239515528 0.099251315
0.894898713 0.247333929 0.105455682
0.026368814 0.143208370 0.052148245
0.035784062 0.142980680 0.047217436
0.049283061 0.145913064 0.044205062
0.091460206 0.164451122 0.048334189
0.173198819 0.188112482 0.051685687
0.253683865 0.192520887 0.044022001
0.339310378 0.198450431 0.035242125
0.418694466 0.207806692 0.037763439
0.491520166 0.217634872 0.045260504
0.558471739 0.227072358 0.053725936
0.618611217 0.235448122 0.062166192
0.673265815 0.243172064 0.070312127
0.723952770 0.250735939 0.078058191
0.771873474 0.258771360 0.085593447
0.818333626 0.267918080 0.093226254
0.863080144 0.277576536 0.100578129
0.901496708 0.284100294 0.106760383
0.045620754 0.182819188 0.063385755
0.054283254 0.183857620 0.060040444
0.064815253 0.183887988 0.056753375
0.095614083 0.199038014 0.060039759
0.165799454 0.227150679 0.065648884
0.253376007 0.247120023 0.065628320
0.327135146 0.247176453 0.055212624
0.410777211 0.253829032 0.047278441
0.490473956 0.265655160 0.049503192
0.563152552 0.277816772 0.055376068
0.627086222 0.286952347 0.063472942
0.683468819 0.293439031 0.072221942
0.734697640 0.298986971 0.080604434
0.782453477 0.305092961 0.088486448
0.828461170 0.312658757 0.096090004
0.872098982 0.321075082 0.103406698
0.909379244 0.325638264 0.109398000
0.066710450 0.224184781 0.077542827
0.074439764 0.226123899 0.075335197
0.083031386 0.224999532 0.071750820
0.105972514 0.235693961 0.073469386
0.161565572 0.262946099 0.079581827
0.250565946 0.293620169 0.083599381
0.332343519 0.304769039 0.080007762
0.401541859 0.303265065 0.068971634
0.485021114 0.311252654 0.062199697
0.562666178 0.325449228 0.064152449
0.632374346 0.339291960 0.068803504
0.692978859 0.348627508 0.076319128
0.746223927 0.354535967 0.084781192
0.794302881 0.359501719 0.093356639
0.839849770 0.365244746 0.101178259
0.882376254 0.371758968 0.108417697
0.918642640 0.373461515 0.113917321
0.088006817 0.268369138 0.094249561
0.096016258 0.271398544 0.092936322
0.104064390 0.269810259 0.088883065
0.122338019 0.276435196 0.089830063
0.164983183 0.300609767 0.094996065
0.246080041 0.334245384 0.100414567
0.337696522 0.361662209 0.103804126
0.409728140 0.363416970 0.096044943
0.478707671 0.362759531 0.085484751
0.560530782 0.372078329 0.079811320
0.633046687 0.386697859 0.081742689
0.698323369 0.401725024 0.086790383
0.755909204 0.412583560 0.093664631
0.806675553 0.419864565 0.101533704
0.853029132 0.425454617 0.109019578
0.894763410 0.430645764 0.116480827
0.930328429 0.429976910 0.121434189
0.111110620 0.316458225 0.113412872
0.119894005 0.320843011 0.112702504
0.128658324 0.319593936 0.108667001
0.144600883 0.323433787 0.108904883
0.177700803 0.343276262 0.112866819
0.247425273 0.376549691 0.118930690
0.338878781 0.410521179 0.123199813
0.425505579 0.432944119 0.126775295
0.489493459 0.425934702 0.114307687
0.558678806 0.426544964 0.104977816
0.635080755 0.436781347 0.100721680
0.701804936 0.450552016 0.103221819
0.761886299 0.465993732 0.109045252
0.816177607 0.478277534 0.115774445
0.865095496 0.486963362 0.121965818
0.907549918 0.493323803 0.129073501
0.943729758 0.492632359 0.132810742
0.136540934 0.368082941 0.134048194
0.145974830 0.373203576 0.133300066
0.155880257 0.373072565 0.129932627
0.170727760 0.375488073 0.129611120
0.197881013 0.391247243 0.132475317
0.256507725 0.422501922 0.138810068
0.343838453 0.458299816 0.143349811
0.434075534 0.489899546 0.149554819
0.513763964 0.504077971 0.149688810
0.572262585 0.491851121 0.135022551
0.638425052 0.494386315 0.128536493
0.707792282 0.504522860 0.125435129
0.768220901 0.516810298 0.127964690
0.823158383 0.530005753 0.133338690
0.873222947 0.541873097 0.139398441
0.917253613 0.551261544 0.145488068
0.955310643 0.553523600 0.148341492
0.162896693 0.420483470 0.154282182
0.172566369 0.425711930 0.153049678
0.183861807 0.427106142 0.150688618
0.198558062 0.429200321 0.150474876
0.222472504 0.441890746 0.153002560
0.273222029 0.470817417 0.159313634
0.354842007 0.506699622 0.164496750
0.445206702 0.541126728 0.170692563
0.529646814 0.567240179 0.177194327
0.600045919 0.570853233 0.171353951
0.654070199 0.559099376 0.158146560
0.715129495 0.563728929 0.155027509
0.776306570 0.571954489 0.152057260
0.830764532 0.581150532 0.153386250
0.880280137 0.591157556 0.157229125
0.924288690 0.601523042 0.162276134
0.963433325 0.607358813 0.165916622
0.188703761 0.471395314 0.173440814
0.198711574 0.476758778 0.171772569
0.211889207 0.480145782 0.171320826
0.227084383 0.482998908 0.171711385
0.249545380 0.493817627 0.174482554
0.295740068 0.520362914 0.180921003
0.372355789 0.555666149 0.186635077
0.460752904 0.590657473 0.192089453
0.545499682 0.621069431 0.200215757
0.622196317 0.638438821 0.202951133
0.680771232 0.632886410 0.192801833
0.730534136 0.624192774 0.182170510
0.785625160 0.628605783 0.180467501
0.839022815 0.634766459 0.177924186
0.887983203 0.641463459 0.177827016
0.930682898 0.649588823 0.180500746
0.969870746 0.655879736 0.183168054
0.212751448 0.518437862 0.190049574
0.223116085 0.523871601 0.188864768
0.238234654 0.529331207 0.190849945
0.254066914 0.533320904 0.191904008
0.276279867 0.543465257 0.194933400
0.319952130 0.567657590 0.201678813
0.392578244 0.601952791 0.208045021
0.478077799 0.636707544 0.212785468
0.561238110 0.667714000 0.219847769
0.637892246 0.690337777 0.225218117
0.703590512 0.697129488 0.222474277
0.751633167 0.687421978 0.211907834
0.798139989 0.682143152 0.204840645
0.848187029 0.686426282 0.204355583
0.895046830 0.691478610 0.202195391
0.936914623 0.697192788 0.200798467
0.974784553 0.702454805 0.202399582
0.234033018 0.560644031 0.201996401
0.244983897 0.565911889 0.202082455
0.261432409 0.573091030 0.206086338
0.277974546 0.578296065 0.208061382
0.300689369 0.588798821 0.211422086
0.342678100 0.610532165 0.218078077
0.411254734 0.642755151 0.224310324
0.492395192 0.676235318 0.228344142
0.573043227 0.706835151 0.234483138
0.647994876 0.731400192 0.240417957
0.715251625 0.745232403 0.241339758
0.769471288 0.744163275 0.235733405
0.813072741 0.735622883 0.227485389
0.858513474 0.733793199 0.223351881
0.903803766 0.738331497 0.223682895
0.942402005 0.743241072 0.224380136
0.979426026 0.747700572 0.223238125
0.253229171 0.598728955 0.210662693
0.264677227 0.603850365 0.211787835
0.281891227 0.611606598 0.217032328
0.299074680 0.618098319 0.220021769
0.322628528 0.629060805 0.224204019
0.363183290 0.648083508 0.230933264
0.426958531 0.677047431 0.237001821
0.501761138 0.708179772 0.240215629
0.578373730 0.737810254 0.245388895
0.651337683 0.763663948 0.251638472
0.718506813 0.782331228 0.254779339
0.779164433 0.790876865 0.253481686
0.826572895 0.786000192 0.246894076
0.868500292 0.780015886 0.240508765
0.912053645 0.781103909 0.238596335
0.950541973 0.785591841 0.239234194
0.984333873 0.789868295 0.240624398
0.269917935 0.632089913 0.215690762
0.282275110 0.638312161 0.219862610
0.300037444 0.646563947 0.226555437
0.317692697 0.653578162 0.229909241
0.342300802 0.664523482 0.233866066
0.382559001 0.681334972 0.240252435
0.441736460 0.706449807 0.246021435
0.508845270 0.734613359 0.248810679
0.579202235 0.762764335 0.253299803
0.649172902 0.789338350 0.259922862
0.714601219 0.811010242 0.264576554
0.776588678 0.825585902 0.265704066
0.832481742 0.830973685 0.263378680
0.877101600 0.826179504 0.257392943
0.917965412 0.822677612 0.253079057
0.957458735 0.825313985 0.252269804
0.990289986 0.829578578 0.253106743
0.003388125 0.000723250 0.054351248
0.007371500 0.000670500 0.053264748
0.065634623 0.002127125 0.047123373
0.156361073 0.003813000 0.047147192
0.232041761 0.004764000 0.045590874
0.293101847 0.005500500 0.044950373
0.347047776 0.006345627 0.046263754
0.402460903 0.011738816 0.052851945
0.459764779 0.020300502 0.063855127
0.516706347 0.029159440 0.076161630
0.572779357 0.037930623 0.088551506
0.627863646 0.047116563 0.100644626
0.682021677 0.057824753 0.111809254
0.734064341 0.071486205 0.120646194
0.783823073 0.088461384 0.126957506
0.831152320 0.106134139 0.131999567
0.877275348 0.122724369 0.136681378
0.006123313 0.010168813 0.060852632
0.006187750 0.010776375 0.059133936
0.040937878 0.010252875 0.049833812
0.134335577 0.016646061 0.046135187
0.218075871 0.015827186 0.045658872
0.289104193 0.019090377 0.049120873
0.353557467 0.027224254 0.056736063
0.415606678 0.038040694 0.065772563
0.476310253 0.050435875 0.075078003
0.534425437 0.063093133 0.083844684
0.589312851 0.075968191 0.091621317
0.641398191 0.089270681 0.098580249
0.691659510 0.102747753 0.105289817
0.740964413 0.117221951 0.111912876
0.789759040 0.132543325 0.118863441
0.837042093 0.147157580 0.125369504
0.881754100 0.159753308 0.131627753
0.009733500 0.037870374 0.068165123
0.010153187 0.038176063 0.065889060
0.033430502 0.042292375 0.061217252
0.119189635 0.051351067 0.054249562
0.202005759 0.059198998 0.055111624
0.278807372 0.066023685 0.058345683
0.349461257 0.074769504 0.064130872
0.415729165 0.085186638 0.069907695
0.479582876 0.097274005 0.075613625
0.540465891 0.110035874 0.082031816
0.597077131 0.122261003 0.088906504
0.649950325 0.133827746 0.095819503
0.700261712 0.144974634 0.102668248
0.748987556 0.156520009 0.109442882
0.796783924 0.168747395 0.116402015
0.842604518 0.180864200 0.122996315
0.886098027 0.191386998 0.129374996
0.013621001 0.074342944 0.077850819
0.014659126 0.074336685 0.074700505
0.028914563 0.079136379 0.069689870
0.100230202 0.092917010 0.064751387
0.194516420 0.101819322 0.058934689
0.277186424 0.106949076 0.058421060
0.351586074 0.113072015 0.061919000
0.420186579 0.121836446 0.067472257
0.485345185 0.133188069 0.073471442
0.547200203 0.145553067 0.080072120
0.604624569 0.157354072 0.087058939
0.657761037 0.168270141 0.094092689
0.707949698 0.178667143 0.101105690
0.756182313 0.189234287 0.108018324
0.803190947 0.200600281 0.115124941
0.848721385 0.211807534 0.122037441
0.890429914 0.221162960 0.128030494
0.020221751 0.116741002 0.092296258
0.020025063 0.114982568 0.086270504
0.033003125 0.117551625 0.079160623
0.083593652 0.131551370 0.074335754
0.175915241 0.146414384 0.072843373
0.267658919 0.152800247 0.059794061
0.349815518 0.157347754 0.057996251
0.422860116 0.163079008 0.064348251
0.491095871 0.172291517 0.071540743
0.555139780 0.183213249 0.078579746
0.613769650 0.193781495 0.085881248
0.667314470 0.203520060 0.093136691
0.717210710 0.212764382 0.100142375
0.764752507 0.222292885 0.107087694
0.811099291 0.232965648 0.114316002
0.855907440 0.243583456 0.121322133
