hollywood-luts/Pulp Fiction.cube
TITLE "17x17x17 Adobe/IRIDAS cube 3D LUT exported with GrossGrade v0.2.2 (beta) 64 bit"
DOMAIN_MIN 0 0 0
DOMAIN_MAX 1 1 1
LUT_3D_SIZE 5
0.000000000 0.000000000 0.000000000
0.223006502 0.003511250 0.003648250
0.465218514 0.027011003 0.031502001
0.688083053 0.073566258 0.070161507
0.881442010 0.129809007 0.095265999
0.009523250 0.086094752 0.006166250
0.179208755 0.132736742 0.015326000
0.479941994 0.168351009 0.026829753
0.709278464 0.208951771 0.058915503
0.894203484 0.246892005 0.088457495
0.079780504 0.252888501 0.058610007
0.174855009 0.299909234 0.068643004
0.478792518 0.362063527 0.067515507
0.750183284 0.413706779 0.077876255
0.929240465 0.436963499 0.108625010
0.182311758 0.459500760 0.142252252
0.248866007 0.488434792 0.148721501
0.553171039 0.621115208 0.180588007
0.782834768 0.625629008 0.162355766
0.965885997 0.651093721 0.164456502
0.268866986 0.628503978 0.198496997
0.342934012 0.662013769 0.214019001
0.584758997 0.762925506 0.237091005
0.831648767 0.827564776 0.244929254
0.988730013 0.826002002 0.235177994
0.010432000 0.000230000 0.114301004
0.191011503 0.013031000 0.131078750
0.470133483 0.027387250 0.150368497
0.678360999 0.049984749 0.167353511
0.874125481 0.097874999 0.196677506
0.050642751 0.146988496 0.174961746
0.120022759 0.149944261 0.165672988
0.468879253 0.193392247 0.160477743
0.715911746 0.232065499 0.174396247
0.898232758 0.268060505 0.188402757
0.097361259 0.304278523 0.222258508
0.143615752 0.316813767 0.202575758
0.457231790 0.381644994 0.203563005
0.762338281 0.406050503 0.168293759
0.932491958 0.420674503 0.188477993
0.206588000 0.503843784 0.279042989
0.253058016 0.519070745 0.265141010
0.482869267 0.611291289 0.291754752
0.784990072 0.640789747 0.256199479
0.978308260 0.669090986 0.259505749
0.281228006 0.651911736 0.300220251
0.334808737 0.672146738 0.298099756
0.551926553 0.763369322 0.330630243
0.829281986 0.842800975 0.330457270
0.994389772 0.841977239 0.320932508
0.062777005 0.034037001 0.248947501
0.110217258 0.022216003 0.255257756
0.403400004 0.065433502 0.300986022
0.657103539 0.101513751 0.327110022
0.872785985 0.110312000 0.354396999
0.114859253 0.198895007 0.325865775
0.140790254 0.201924995 0.333009243
0.349696249 0.191419497 0.316549748
0.689578056 0.218676761 0.321080506
0.881751180 0.240122497 0.324406266
0.160271496 0.338200510 0.363313496
0.192707747 0.359231532 0.377401531
0.323372483 0.388135016 0.389450014
0.744735003 0.449639559 0.373624504
0.941114962 0.466332018 0.379400015
0.204942256 0.519090772 0.420377254
0.245999262 0.548643231 0.422492027
0.358106792 0.593306303 0.421918273
0.768937290 0.675908804 0.444946527
0.990334034 0.684881032 0.415540755
0.291958988 0.675353527 0.437436521
0.335566998 0.693264246 0.427043498
0.465932012 0.750464499 0.439845502
0.807117522 0.859720707 0.482145250
0.998669505 0.868466973 0.468810022
0.113049001 0.078308746 0.368078768
0.156403258 0.064350501 0.398564517
0.292907268 0.058177255 0.396459013
0.597757280 0.119784497 0.457465500
0.826283753 0.164365739 0.487283260
0.165210754 0.237267256 0.455825984
0.189909264 0.241344005 0.464560509
0.261230052 0.204684258 0.460307747
0.596355796 0.232730255 0.466069520
0.846289992 0.278788000 0.488731742
0.209701002 0.370138526 0.492513984
0.242384508 0.390612274 0.509067178
0.296063036 0.402482510 0.531266034
0.605210006 0.417551011 0.523406506
0.902464747 0.450230509 0.522681236
0.262710750 0.531592250 0.546258271
0.302289754 0.567402005 0.569565058
0.362159759 0.597583234 0.589659750
0.641941488 0.682626784 0.635484993
0.992706954 0.731044233 0.625937521
0.296007752 0.698590517 0.598504543
0.333079994 0.714920044 0.604007959
0.390236259 0.745588005 0.606061995
0.713004529 0.848805964 0.631748736
1.002299786 0.903507769 0.658087254
0.157532007 0.112309001 0.475957006
0.193746746 0.091668501 0.497432768
0.270341516 0.074772000 0.478494495
0.488217503 0.109229006 0.526612997
0.783617020 0.169660002 0.590704978
0.200633496 0.259532005 0.545036256
0.221447751 0.255819768 0.550946474
0.260218740 0.226162001 0.547360778
0.473847032 0.213282257 0.546056509
0.799062967 0.272039503 0.596317768
0.237424999 0.384458512 0.579466999
0.263113499 0.394270539 0.591181517
0.297863483 0.395022541 0.604752004
0.491093010 0.381180018 0.613471270
0.826830029 0.423177004 0.620509982
0.287354231 0.523452044 0.619690239
0.322028995 0.549015760 0.638822019
0.369063795 0.572734773 0.663626730
0.558010221 0.641819775 0.730715036
0.902263999 0.678362489 0.729538500
0.338591993 0.680782020 0.678987026
0.371581018 0.700773239 0.694483757
0.419114500 0.730252981 0.716648519
0.559541821 0.806138277 0.768276989
1.002462983 0.946591020 0.856610000
