hollywood-luts/Solo.cube
TITLE "17x17x17 Adobe/IRIDAS cube 3D LUT exported with GrossGrade v0.2.2 (beta) 64 bit"
DOMAIN_MIN 0 0 0
DOMAIN_MAX 1 1 1
LUT_3D_SIZE 5
0.000000000 0.000768000 0.002918000
0.202656254 0.035493501 0.020836500
0.462814033 0.123963505 0.065273002
0.753669024 0.225073755 0.126330763
0.937148988 0.285149992 0.151757002
0.046962250 0.207074746 0.045611501
0.199392512 0.201307267 0.042195249
0.455714256 0.244418263 0.079431258
0.751604557 0.324887007 0.140185252
0.939767241 0.378074259 0.164115742
0.134222507 0.431996018 0.105402499
0.227301762 0.442490280 0.112703502
0.493725032 0.463064492 0.131617010
0.786339521 0.513313293 0.185511261
0.955914974 0.554147959 0.202141002
0.229460001 0.664765775 0.183997750
0.315800011 0.698243022 0.200961262
0.518343031 0.702331543 0.201232508
0.827193558 0.737643480 0.237331510
0.981475234 0.760282993 0.255810261
0.318874002 0.889082015 0.260549009
0.384564251 0.922353983 0.283041239
0.530543566 0.930139482 0.285299480
0.845040262 0.951501250 0.296398759
1.000128984 0.946554005 0.323965013
0.014675501 0.016933251 0.134671494
0.201615751 0.057835005 0.195568249
0.470003754 0.135419264 0.216861248
0.764440536 0.239386261 0.244962007
0.935850501 0.291743994 0.260075510
0.057843003 0.197179496 0.199441493
0.182572007 0.218217269 0.222185999
0.481121033 0.263226002 0.242783517
0.773529768 0.342852771 0.284923732
0.941398501 0.384495974 0.302447259
0.135811746 0.433385760 0.245916009
0.222797006 0.463669479 0.273322254
0.508658290 0.485080272 0.272257000
0.810678780 0.537242174 0.322382748
0.959873497 0.562234759 0.341979742
0.230893254 0.675407529 0.296793997
0.302924275 0.703112781 0.329753518
0.514835238 0.726105273 0.324848026
0.841888487 0.754978240 0.354387522
0.983062267 0.771248221 0.384980738
0.322399497 0.908050001 0.339109004
0.381951511 0.932383716 0.374776721
0.527018249 0.940918744 0.378535032
0.864162803 0.962481976 0.389824003
1.002076983 0.976859987 0.499741018
0.058748506 0.060656503 0.263297498
0.168992251 0.121205255 0.418168008
0.441698015 0.160634011 0.436727524
0.751450062 0.247010514 0.469891787
0.947351992 0.308194995 0.504055977
0.125708506 0.221652254 0.393924236
0.203111231 0.243069991 0.435537040
0.459796518 0.287969530 0.465954036
0.771322966 0.360037774 0.501034498
0.948446989 0.402678490 0.529703498
0.172504008 0.439817518 0.444494516
0.262964487 0.477251530 0.484281003
0.464841038 0.501111507 0.511395514
0.799004495 0.555734277 0.548273504
0.964167535 0.577972531 0.560795486
0.239810258 0.676780999 0.489558041
0.316624999 0.717806756 0.535792768
0.466042280 0.738641024 0.560796976
0.832227468 0.772128522 0.568996191
0.987187743 0.787662029 0.599516988
0.318314493 0.907458544 0.541015029
0.377817988 0.938013792 0.584121764
0.488488019 0.948696494 0.601367474
0.841545582 0.972979486 0.596653521
1.001298428 0.987977028 0.707962513
0.107131250 0.106381752 0.396003485
0.217980757 0.184437260 0.606212795
0.451921523 0.227538764 0.657670498
0.779688239 0.295094013 0.687878251
0.956909299 0.340359986 0.712798774
0.194752991 0.254307747 0.599345267
0.260343492 0.290305495 0.642434001
0.462147295 0.327298284 0.669254601
0.782947540 0.392136514 0.700982809
0.952283263 0.431018740 0.721999288
0.240337759 0.460635036 0.620721519
0.314512491 0.508826792 0.667838275
0.473081529 0.529572070 0.694538951
0.802037239 0.579613268 0.730014563
0.966717958 0.607068002 0.746836305
0.288027525 0.683206975 0.670364738
0.368470758 0.732410252 0.717705846
0.495326996 0.757734716 0.740163505
0.821749508 0.792787254 0.767008781
0.994490743 0.821642995 0.791105270
0.341049492 0.908585012 0.717555761
0.404505759 0.947261453 0.765350282
0.502208769 0.959084511 0.783047497
0.821123481 0.987051249 0.789911211
1.002079964 0.980693698 0.877310276
0.157717004 0.153579995 0.528119028
0.267625272 0.239133239 0.763356268
0.497857511 0.290979981 0.850759029
0.805047989 0.342540503 0.876248956
0.963698983 0.367406011 0.873853981
0.255428731 0.303233743 0.790025234
0.312276512 0.341742218 0.831189752
0.509848058 0.377365261 0.857054234
0.821182489 0.431825489 0.886190712
0.960515976 0.459441245 0.876829267
0.285377502 0.485725522 0.798233032
0.346301019 0.536540031 0.845407248
0.483970523 0.556364954 0.872078001
0.824975550 0.600723505 0.899528503
0.973928511 0.634786487 0.898674488
0.349248260 0.697107255 0.828287244
0.419530779 0.753578246 0.874215245
0.516514480 0.785335064 0.892735481
0.819736004 0.816861510 0.927861989
0.995160282 0.849169016 0.938112497
0.397148997 0.915902972 0.875949979
0.458314747 0.952515483 0.914519489
0.552295506 0.965492487 0.925119519
0.825927496 0.990058482 0.946064949
1.002467990 1.000013947 0.999778986
