hollywood-luts/Solo.cube
TITLE "17x17x17 Adobe/IRIDAS cube 3D LUT exported with GrossGrade v0.2.2 (beta) 64 bit"
DOMAIN_MIN 0 0 0
DOMAIN_MAX 1 1 1
LUT_3D_SIZE 17
0.000000000 0.000768000 0.002918000
0.034605000 0.000934875 0.000887375
0.084803373 0.004037375 0.001318125
0.142496139 0.015300691 0.007938003
0.202656254 0.035493501 0.020836500
0.264083624 0.056525253 0.033957563
0.326346129 0.077179633 0.044691626
0.392574728 0.099596389 0.054417633
0.462814033 0.123963505 0.065273002
0.535087228 0.149163187 0.078503124
0.608772874 0.174879000 0.094097495
0.682261288 0.200527430 0.110541247
0.753669024 0.225073755 0.126330763
0.824445009 0.249398530 0.141756386
0.885503113 0.270321250 0.153686136
0.912940860 0.279689074 0.153697625
0.937148988 0.285149992 0.151757002
0.003960937 0.046788000 0.007873625
0.033989061 0.032492999 0.001510812
0.083998442 0.033300374 0.002638062
0.141628146 0.043818004 0.011499817
0.200864136 0.060746565 0.024199313
0.262549818 0.079435691 0.036914747
0.325483978 0.098680578 0.047298815
0.391604245 0.119914830 0.056732133
0.462712020 0.143866196 0.067916632
0.536905825 0.169436440 0.081983685
0.612813115 0.195836991 0.098524183
0.689442873 0.222554624 0.116107501
0.764579833 0.248454824 0.133225247
0.836153865 0.272876352 0.149058774
0.890834451 0.290969342 0.158783987
0.916374922 0.298727870 0.158150434
0.941002131 0.303362817 0.156415433
0.011412250 0.097535625 0.015309876
0.035981249 0.084514618 0.004730437
0.078017876 0.081241995 0.004141750
0.141339451 0.086854756 0.013597627
0.201148510 0.097836629 0.027841875
0.260819376 0.111486942 0.039709251
0.321887255 0.126818761 0.049071375
0.385885596 0.144356832 0.057598002
0.454997271 0.165054247 0.068066627
0.528797150 0.188676313 0.081744187
0.605610132 0.214407757 0.098247752
0.683609009 0.241227254 0.116113879
0.760343492 0.267693520 0.133617133
0.833625317 0.292921901 0.149866387
0.889598548 0.311734647 0.159950748
0.915214658 0.319418073 0.158995688
0.939390004 0.323924124 0.157012120
0.027007945 0.151579261 0.031890064
0.050917253 0.141710758 0.022822941
0.080070123 0.137961194 0.021597501
0.134537756 0.139879644 0.022588003
0.200689822 0.147183895 0.032579504
0.263361573 0.157412708 0.044050064
0.323992699 0.169268385 0.053123817
0.385373473 0.183233589 0.061397634
0.450785637 0.199748397 0.071270883
0.521806955 0.219470397 0.084324755
0.597521126 0.241996080 0.100184441
0.675872564 0.266423076 0.117615685
0.753647447 0.291213334 0.134963199
0.828183413 0.315182954 0.151149139
0.888034284 0.334581196 0.162216753
0.914477229 0.342464805 0.161447257
0.938557446 0.346417129 0.159073681
0.046962250 0.207074746 0.045611501
0.069531061 0.200801000 0.039982375
0.095191866 0.198281258 0.039960373
0.133735642 0.197008818 0.040056251
0.199392512 0.201307267 0.042195249
0.266352445 0.209749877 0.050387878
0.330521524 0.219857007 0.060010631
0.392002165 0.231039882 0.069129750
0.455714256 0.244418263 0.079431258
0.523353517 0.260394752 0.091723934
0.595960736 0.279727250 0.106425747
0.672850370 0.301660389 0.122954063
0.751604557 0.324887007 0.140185252
0.827996135 0.347905248 0.156589448
0.889331877 0.366773874 0.167837381
0.915598750 0.374093384 0.166758195
0.939767241 0.378074259 0.164115742
0.068205811 0.261538625 0.056927938
0.090502806 0.258314550 0.053033873
0.114995562 0.258095384 0.054305125
0.143649817 0.257518321 0.055736814
0.197815448 0.259093881 0.056768559
0.268995941 0.264787972 0.060933188
0.336635619 0.273604244 0.069709443
0.401662797 0.283400953 0.080030382
0.465978801 0.294628561 0.090936504
0.533401191 0.308342993 0.103335373
0.603561103 0.324756384 0.117024064
0.677594900 0.343978584 0.132252812
0.755393744 0.365318447 0.148814008
0.832535982 0.387565464 0.165215760
0.892682493 0.405462801 0.175811678
0.918518245 0.413190752 0.174452066
0.942873240 0.418051988 0.171809241
0.089417383 0.317449898 0.071672633
0.112154886 0.316449583 0.067846067
0.136075005 0.318259001 0.070115253
0.161372140 0.319230348 0.072659440
0.199897751 0.320283175 0.074561760
0.268155634 0.323623031 0.076781631
0.340711266 0.330089271 0.082692266
0.409765661 0.338806331 0.092533767
0.476866990 0.348597795 0.103806257
0.544731617 0.360311508 0.116102561
0.615041137 0.374697268 0.129607245
0.687335849 0.391757011 0.144104064
0.762773991 0.410827398 0.159655377
0.838576198 0.431311995 0.175372019
0.896821022 0.447930038 0.185129762
0.922377586 0.456257731 0.183720186
0.946707666 0.461960137 0.181090504
0.111324705 0.374439776 0.088349074
0.134021401 0.376101971 0.085884571
0.157713518 0.379481018 0.088702694
0.181753397 0.381040633 0.091447882
0.210646018 0.381184667 0.093304694
0.267552257 0.384504825 0.095868699
0.342231899 0.389999449 0.099916950
0.414468169 0.396683872 0.106813952
0.486071646 0.404709697 0.117114067
0.556143880 0.415022701 0.129254743
0.627131522 0.427904338 0.142727554
0.699465752 0.443390220 0.157138944
0.773178577 0.460800081 0.172132000
0.846153378 0.478838921 0.186742961
0.902136981 0.493804842 0.195643067
0.926993549 0.501785338 0.194027185
0.950979054 0.507261992 0.191217378
0.134222507 0.431996018 0.105402499
0.155845582 0.436470956 0.106258631
0.179305628 0.440987170 0.109114006
0.203238994 0.443440259 0.111645065
0.227301762 0.442490280 0.112703502
0.271806359 0.443480313 0.114265755
0.344907761 0.449016154 0.117694758
0.420128644 0.455857038 0.123358257
0.493725032 0.463064492 0.131617010
0.567201376 0.471125364 0.142607063
0.639281511 0.482833266 0.155893743
0.712360263 0.497118950 0.170414746
0.786339521 0.513313293 0.185511261
0.856853783 0.529712021 0.199392647
0.908877850 0.542980552 0.207179248
0.932555556 0.549835503 0.205253571
0.955914974 0.554147959 0.202141002
0.158314258 0.490980268 0.124158688
0.178394690 0.497672439 0.127754867
0.200960129 0.502772987 0.130759999
0.225422874 0.506639957 0.132947117
0.248487622 0.506296635 0.133714750
0.282222450 0.504564226 0.133971930
0.348945290 0.507530868 0.135763869
0.426987886 0.513903618 0.139969051
0.501160920 0.521532893 0.147157684
0.575546086 0.529706359 0.156880319
0.650088787 0.539774537 0.169304997
0.723719895 0.552655101 0.183460876
0.798459947 0.567237139 0.198488876
0.869209170 0.582627952 0.212549150
0.916535914 0.594558537 0.219259381
0.939072490 0.600345433 0.217340499
0.961587667 0.603123069 0.213904187
0.182851255 0.550118506 0.144352257
0.201737940 0.559257090 0.149038076
0.223588869 0.565169990 0.152451634
0.248113364 0.570099354 0.154578254
0.271802127 0.571418226 0.155622244
0.298566937 0.569362462 0.155674815
0.353866011 0.569175661 0.156018764
0.432562381 0.573537290 0.158236310
0.508256137 0.580067396 0.163427621
0.581616879 0.588487625 0.171907112
0.656797171 0.598168254 0.182978615
0.733100593 0.610315442 0.196733311
0.808852673 0.623136997 0.211246490
0.879578292 0.636979818 0.225117818
0.924662352 0.647276998 0.231406882
0.946235001 0.652211845 0.229805633
0.967782497 0.653915882 0.226515621
0.206544682 0.607788503 0.164408505
0.224344373 0.619473159 0.169557869
0.246030182 0.626840770 0.173626184
0.270278186 0.632539809 0.176246002
0.294833571 0.635840833 0.177849621
0.318691641 0.635092854 0.178019196
0.358735710 0.633345962 0.177746996
0.433957785 0.635436535 0.178457811
0.514400125 0.640381813 0.181411862
0.588831842 0.647324681 0.187852070
0.663455844 0.656600118 0.197499558
0.741106510 0.668092310 0.210077375
0.818623781 0.680084586 0.224073693
0.889401257 0.692395866 0.237507060
0.933037817 0.700887620 0.243595868
0.953716636 0.704354703 0.242336363
0.974396229 0.706368983 0.240397498
0.229460001 0.664765775 0.183997750
0.246033937 0.677808583 0.189396128
0.266693383 0.686133802 0.194539115
0.290292621 0.692664504 0.198438078
0.315800011 0.698243022 0.200961262
0.340483338 0.700138927 0.201335430
0.369447142 0.698600411 0.200447008
0.431848973 0.698647082 0.199941188
0.518343031 0.702331543 0.201232508
0.598351002 0.707893610 0.205421686
0.674027860 0.715645134 0.213283509
0.750113010 0.725955784 0.224243194
0.827193558 0.737643480 0.237331510
0.898682833 0.747814476 0.249864563
0.941723466 0.754974961 0.256120771
0.961451948 0.757585824 0.255923688
0.981475234 0.760282993 0.255810261
0.251314849 0.720073581 0.202291206
0.267550468 0.734811306 0.208179817
0.286471039 0.743415356 0.214817077
0.308669358 0.750652492 0.220369205
0.334265500 0.757775903 0.224017397
0.360772431 0.762701213 0.225381017
0.387311786 0.763871968 0.224934340
0.438780755 0.763880789 0.223687276
0.520716369 0.765912116 0.223361462
0.606101155 0.770152271 0.225421593
0.684399605 0.776421130 0.230926573
0.759507000 0.784482181 0.239803329
0.833966017 0.794894457 0.251431167
0.904559255 0.803946614 0.262991637
0.950428903 0.808969498 0.269601345
0.969570160 0.812395036 0.271493644
0.988397956 0.814403653 0.271855205
0.274237782 0.776780963 0.221343517
0.289695531 0.792742610 0.227549523
0.307183266 0.800946295 0.234877139
0.327524096 0.807944894 0.241079256
0.351942629 0.815055311 0.245290890
0.378602892 0.821399212 0.247839138
0.405215919 0.825613439 0.249264643
0.450049251 0.827920854 0.249098599
0.525370657 0.830283701 0.248333663
0.611210167 0.833672166 0.248840392
0.690225005 0.838438749 0.251953661
0.765924990 0.845107794 0.258499265
0.839280367 0.852161169 0.267680764
0.908970237 0.859604120 0.278088808
0.958630741 0.864614546 0.285507292
0.977269232 0.866059124 0.287378281
0.994512141 0.867310286 0.288191378
0.297021836 0.833358943 0.240899026
0.311734021 0.850037098 0.247701257
0.328270614 0.858600974 0.254956365
0.347094089 0.864630282 0.260809571
0.369338244 0.870738626 0.265231341
0.394629836 0.876501262 0.267906040
0.421074480 0.881591260 0.270297974
0.461726159 0.885375202 0.271681964
0.531632841 0.888343275 0.271711588
0.614053130 0.891477823 0.272062689
0.691672027 0.895693243 0.274053365
0.767525971 0.901234865 0.278168380
0.841681778 0.907106400 0.284633696
0.912063956 0.913246036 0.293051302
0.965796232 0.918621540 0.300587177
0.984027445 0.917448401 0.302592844
0.998873711 0.913772464 0.306087852
0.318874002 0.889082015 0.260549009
0.332851201 0.905826688 0.267360866
0.348641396 0.914690256 0.274267256
0.365705878 0.919062436 0.279066235
0.384564251 0.922353983 0.283041239
0.405768573 0.924660265 0.284998178
0.428909510 0.926018357 0.285709769
0.462908357 0.927305758 0.285809308
0.530543566 0.930139482 0.285299480
0.615927160 0.934329033 0.285424501
0.693220139 0.938969135 0.287200868
0.768733561 0.944672525 0.290709645
0.845040262 0.951501250 0.296398759
0.916932642 0.957846642 0.303170890
0.969750464 0.962758541 0.309847504
0.988032460 0.959438980 0.312176883
1.000128984 0.946554005 0.323965013
0.001404375 0.002694563 0.034258626
0.035195626 0.002347687 0.029329251
0.090806752 0.006421437 0.026134001
0.148020834 0.019670004 0.032685004
0.207153067 0.039834313 0.045201749
0.267484307 0.060377561 0.056695875
0.329782069 0.080934949 0.065930068
0.396888912 0.103734516 0.074942507
0.467935681 0.128504261 0.085727878
0.540572882 0.153924003 0.098709062
0.614503443 0.179799929 0.113336690
0.688244104 0.205482423 0.128215313
0.759326458 0.229698747 0.142043322
0.828681946 0.253272831 0.155202955
0.887531400 0.273133576 0.164441064
0.914339721 0.282323450 0.162377492
0.938732445 0.287613750 0.158606365
0.003255937 0.038408626 0.035844877
0.032930624 0.033310499 0.028795812
0.086838998 0.035819750 0.028480189
0.145587340 0.047987252 0.037348568
0.206391826 0.065414190 0.049575187
0.267850876 0.083972499 0.060177188
0.331602395 0.103811510 0.069053501
0.398597986 0.125531569 0.077887386
0.469630271 0.149425939 0.088658504
0.543335021 0.174694300 0.101991437
0.618970275 0.200814381 0.117252067
0.695271909 0.227233052 0.133069068
0.769865513 0.252802134 0.148281068
0.840853930 0.276880980 0.162065268
0.892846942 0.293748438 0.169037238
0.918102026 0.301249325 0.166434124
0.942864954 0.305825651 0.162992001
0.008786624 0.090634994 0.039544001
0.036750693 0.086063616 0.033191439
0.079031430 0.083825245 0.031564124
0.145333081 0.089479938 0.040877130
0.206600323 0.101039745 0.053109251
0.266812176 0.115307435 0.062462129
0.327964574 0.130686954 0.070061564
0.392383635 0.148409829 0.077901632
0.462066144 0.169714257 0.088022254
0.536377847 0.194038749 0.101218626
0.613225818 0.219997510 0.116531372
0.690836489 0.246620998 0.132516176
0.767273962 0.272878319 0.148199946
0.839517593 0.297537267 0.162327498
0.891773105 0.314779490 0.169227123
0.916852176 0.322090983 0.166331440
0.941556454 0.326437682 0.162568435
0.025110442 0.145518750 0.053049251
0.051653944 0.141921818 0.047355816
0.082818128 0.140466690 0.045817316
0.139502645 0.142655641 0.047253631
0.208043575 0.150207877 0.056571502
0.269910663 0.160654396 0.065761626
0.330117792 0.173002586 0.073165879
0.392160445 0.187260911 0.080720186
0.458564401 0.204337969 0.090219066
0.530194879 0.224627003 0.102463312
0.605908930 0.247396946 0.116970383
0.684058368 0.271921009 0.132695884
0.761853337 0.296852767 0.148344129
0.835248768 0.320413202 0.162414581
0.891210556 0.338418186 0.170426816
0.916407347 0.345710158 0.167434812
0.940779746 0.349431545 0.163505763
0.046595123 0.203684002 0.064137436
0.071085624 0.201495707 0.060435250
0.098699443 0.202090323 0.060734246
0.137199029 0.201504812 0.060120501
0.204389766 0.205070004 0.062036499
0.272284359 0.213319883 0.069479242
0.336614758 0.223983943 0.078169569
0.398388773 0.235478371 0.086452514
0.463240892 0.249379948 0.096165307
0.532059193 0.266114205 0.107715316
0.605133832 0.285908371 0.121160813
0.682029128 0.308031231 0.136140376
0.760869801 0.331436455 0.151785448
0.835970283 0.354140967 0.166077897
0.893093467 0.371672124 0.174278185
0.918172061 0.378585130 0.171534687
0.942359269 0.382256448 0.168306559
0.069160812 0.261024863 0.072617620
0.092938438 0.260777235 0.070266373
0.118870564 0.262536883 0.071326621
0.147842899 0.263262302 0.072807185
0.202316508 0.263960570 0.072965123
0.274849802 0.269566238 0.076868370
0.343003750 0.278746247 0.085112005
0.409009844 0.288982302 0.094626814
0.474224448 0.300475150 0.104659066
0.542643249 0.314772397 0.116206124
0.613456786 0.331713766 0.128822446
0.687764347 0.351267517 0.142767370
0.765774906 0.372807771 0.158120573
0.841428161 0.394661963 0.172991768
0.896501899 0.411048055 0.181070685
0.921264648 0.418490499 0.178811371
0.945427120 0.422889233 0.175765693
0.092248634 0.319227397 0.082626686
0.115618646 0.320809245 0.081037939
0.140491888 0.323608100 0.082689755
0.166316569 0.325815082 0.085616946
0.205827698 0.326673746 0.086925887
0.274770498 0.329666376 0.088556319
0.348203778 0.336339265 0.094057575
0.418093145 0.345588833 0.103310138
0.486084700 0.355552882 0.113817953
0.554679751 0.367552817 0.125594437
0.625434995 0.382375032 0.138602003
0.697974861 0.399636388 0.152517185
0.773577929 0.418775469 0.167467684
0.847972274 0.438878536 0.182220891
0.900947869 0.454093128 0.189871252
0.925397933 0.462113500 0.187781930
0.949455142 0.467155129 0.184670806
0.115704142 0.378095090 0.094982259
0.138494939 0.381849974 0.095105454
0.162580833 0.385891050 0.097552508
0.186973274 0.387981534 0.100202695
0.216986880 0.388415039 0.102030009
0.275313079 0.391647965 0.104270130
0.350525677 0.397103518 0.108074255
0.423403472 0.403793842 0.114786819
0.495726198 0.412213653 0.124814197
0.566524506 0.422749281 0.136767998
0.637848616 0.435987651 0.150153682
0.710254610 0.451719552 0.164369687
0.784040570 0.469059467 0.179134637
0.855577528 0.486707151 0.193010882
0.906389356 0.500457823 0.199933141
0.930269420 0.507988036 0.197717950
0.953902006 0.512797594 0.194556385
0.139158577 0.437118709 0.110474564
0.160734385 0.442708850 0.113251127
0.184245318 0.447803885 0.116162509
0.208438128 0.450540781 0.118399382
0.233080149 0.449836910 0.119333185
0.279583812 0.450896353 0.120742686
0.353751540 0.456511408 0.124116562
0.429469347 0.463394254 0.129737124
0.503673553 0.470642775 0.138089374
0.577495635 0.479022086 0.149118811
0.649968982 0.491010934 0.162507489
0.723086536 0.505527794 0.176977754
0.797135472 0.521719217 0.191954762
0.866293430 0.537728012 0.205262959
0.912938297 0.549799204 0.211124808
0.935807228 0.556087852 0.208755255
0.958869219 0.559960663 0.205549508
0.163258180 0.497386575 0.128928438
0.183211744 0.504012227 0.133771300
0.205837116 0.509551227 0.136929125
0.230527937 0.513688445 0.139052376
0.253780633 0.513539791 0.139654189
0.289293200 0.512066007 0.139834136
0.357953548 0.515169084 0.141487807
0.436533898 0.521636546 0.145680368
0.511177242 0.529393733 0.152995676
0.585864365 0.537821472 0.162924364
0.660561264 0.548075616 0.175402075
0.734144807 0.561010122 0.189532310
0.808914602 0.575538278 0.204476833
0.878424227 0.590561509 0.218106821
0.920305252 0.601186872 0.223037690
0.942139328 0.606404364 0.220799819
0.964357257 0.608864009 0.217636883
0.187709942 0.557874084 0.148601755
0.206437245 0.565619528 0.154484749
0.228419051 0.571873069 0.158003673
0.253103048 0.576997817 0.160207361
0.276976198 0.578618407 0.161302000
0.304811835 0.576772213 0.161329001
0.362514287 0.576952457 0.161642060
0.442372024 0.581434131 0.163724989
0.518316150 0.588041544 0.168956175
0.591988623 0.596627414 0.177656174
0.667114079 0.606506586 0.188897058
0.743424654 0.618630528 0.202659801
0.818975806 0.631289184 0.217028931
0.888360977 0.644724011 0.230435506
0.928162277 0.653652906 0.235104695
0.949148417 0.658191323 0.233444482
0.970178187 0.659583807 0.231337190
0.211200312 0.616673470 0.168209746
0.228975937 0.625625730 0.174845055
0.250691950 0.633310258 0.179110691
0.275023311 0.639272630 0.181865185
0.299885690 0.642975569 0.183566555
0.324194491 0.642339408 0.183641613
0.366391331 0.640937150 0.183396071
0.443845600 0.643317699 0.184026495
0.524684668 0.648358524 0.186900616
0.599213064 0.655311704 0.193411618
0.673883617 0.664736629 0.203229994
0.751175880 0.676151991 0.215793297
0.828345060 0.688007891 0.229671761
0.897645295 0.699909568 0.242703870
0.936489046 0.707050323 0.247457057
0.956514060 0.710325241 0.246638313
0.976394415 0.711893678 0.247537181
0.233899757 0.674178123 0.187328994
0.250652999 0.683957815 0.194745064
0.271194190 0.692477107 0.200164318
0.294755101 0.699362040 0.204361126
0.320509881 0.705183566 0.206873819
0.345409065 0.707163572 0.206935629
0.375969052 0.705866218 0.205976069
0.441212893 0.706335068 0.205517381
0.528830945 0.710186481 0.206724063
0.608814001 0.715789318 0.210913002
0.684204817 0.723531365 0.218859702
0.759945810 0.733805180 0.229889616
0.836321115 0.745293975 0.242873073
0.906085372 0.755177081 0.255088270
0.944806218 0.760989368 0.260473549
0.964176416 0.763281286 0.261231780
0.982827663 0.764203191 0.265940577
0.255781829 0.729676247 0.205539644
0.272203833 0.741313457 0.213808209
0.290985405 0.750047803 0.220717221
0.313008577 0.757430494 0.226591945
0.338558167 0.764406681 0.230201155
0.365228087 0.769346654 0.231247902
0.392697692 0.770741403 0.230583295
0.447517693 0.771243513 0.229362547
0.530745327 0.773573816 0.229047716
0.616037190 0.777866066 0.231045902
0.694056630 0.784100413 0.236568466
0.768555820 0.792147756 0.245494828
0.842725694 0.802137494 0.257121831
0.911857843 0.811060309 0.268646628
0.953413844 0.815285146 0.274702221
0.972012460 0.817492127 0.277486205
0.988515913 0.814602911 0.285535783
0.278747022 0.786688924 0.224751204
0.294177026 0.799114227 0.233265385
0.311624408 0.807637930 0.240910262
0.331965685 0.814726889 0.247271270
0.356112242 0.821499705 0.251398027
0.382628590 0.827594638 0.253854513
0.409211606 0.831874669 0.255141765
0.457771540 0.834680974 0.254929721
0.535349727 0.837560892 0.254255146
0.620653510 0.841167152 0.254862100
0.699257255 0.845914483 0.258001089
0.774358392 0.852277398 0.264525771
0.847431540 0.859107733 0.273700148
0.916297078 0.866180182 0.284044266
0.961621761 0.870832622 0.290880024
0.979478300 0.870441139 0.293704033
0.993562698 0.862703979 0.307099432
0.301339239 0.843080759 0.244354188
0.316059977 0.856801927 0.253156543
0.332534045 0.864882946 0.260879040
0.351341486 0.871156156 0.266844243
0.373342633 0.877124071 0.271162957
0.398348272 0.882592022 0.273731053
0.424605459 0.887339711 0.275950670
0.468639255 0.890956461 0.277120739
0.540937364 0.894074798 0.277141690
0.623140335 0.897417426 0.277659595
0.700345218 0.901741147 0.279787034
0.776005507 0.907286823 0.283937573
0.850192726 0.913211763 0.290463805
0.919741273 0.919365704 0.298768491
0.968935788 0.924257576 0.305733025
0.986029327 0.922010541 0.309562981
0.997822702 0.910046637 0.332189828
0.323075891 0.898369849 0.263827443
0.336853385 0.912771702 0.272329628
0.351893693 0.919676960 0.279501110
0.368519485 0.923434019 0.284146816
0.387038887 0.926606655 0.288021803
0.408052266 0.928726196 0.289921194
0.431167334 0.929936826 0.290602237
0.468915284 0.931441069 0.290504128
0.539579868 0.934703350 0.289946973
0.625217199 0.939021051 0.290186137
0.702292323 0.943713248 0.292054117
0.777851701 0.949621618 0.295683682
0.854180098 0.956489325 0.301620305
0.924834073 0.963101327 0.308708698
0.972400784 0.967463970 0.315259576
0.989748180 0.962598503 0.319882900
1.001557708 0.960989594 0.363968134
0.003223500 0.004506500 0.067896128
0.026652124 0.006590375 0.077521503
0.089836374 0.010465375 0.077083498
0.151377708 0.024400007 0.076679692
0.210886016 0.043952130 0.084247753
0.270516932 0.063774318 0.092057437
0.332313389 0.084125139 0.098932259
0.399764121 0.107334830 0.108736575
0.471019387 0.132367492 0.119292378
0.543270886 0.157718375 0.130346000
0.616136253 0.183187246 0.142692372
0.689203441 0.208607808 0.155763060
0.760257423 0.232812136 0.168699503
0.827944934 0.255388200 0.181123763
0.885362983 0.274408877 0.190065861
0.912604988 0.283435613 0.188560367
0.937032878 0.288650364 0.185306877
0.005908063 0.034351062 0.075061381
0.028284376 0.036183815 0.077887565
0.083458871 0.040764935 0.080639809
0.148200884 0.053066000 0.080453873
0.210523635 0.070274003 0.086954564
0.271968395 0.088499434 0.095484816
0.335379601 0.108045444 0.103023320
0.403136611 0.130174696 0.112065628
0.474607795 0.154288799 0.123072505
0.547415495 0.179180816 0.135067314
0.621551096 0.204745695 0.147983253
0.696719468 0.230667055 0.161699310
0.770322800 0.255634248 0.175326258
0.839923501 0.279004216 0.188215017
0.890934587 0.295444012 0.195116445
0.916223586 0.302744597 0.192963511
0.941029787 0.306879759 0.189982131
0.009404625 0.083184876 0.079479128
0.034951065 0.084765621 0.082407683
0.074032873 0.086999126 0.085225999
0.143139869 0.093215749 0.087253436
0.208875865 0.105335757 0.092577748
0.271118611 0.119261749 0.098662190
0.333149403 0.134593129 0.105598994
0.398190647 0.152752817 0.112759814
0.468390405 0.174582511 0.122311257
0.542463541 0.199050754 0.134787127
0.618092775 0.224732876 0.148755997
0.693962097 0.250737578 0.162797377
0.768821239 0.276208639 0.176439509
0.840074778 0.300420403 0.189394772
0.890153527 0.316678494 0.195730492
0.914996028 0.323403090 0.193299890
0.939707518 0.327428728 0.189956874
0.024705630 0.138565063 0.088626504
0.047910128 0.141164944 0.091987498
0.077702314 0.143935755 0.095325187
0.134335205 0.146979377 0.095937371
0.209759071 0.153306887 0.099787936
0.273937255 0.163155451 0.105154686
0.335353017 0.175616562 0.111120127
0.398260593 0.189921647 0.118543126
0.465584308 0.207079947 0.127020180
0.537732482 0.227588639 0.137716442
0.612626612 0.250466377 0.150587320
0.689147890 0.274900973 0.164357051
0.765982747 0.299848884 0.178106189
0.838130713 0.323368788 0.190887138
0.889602900 0.339918137 0.197365746
0.914503217 0.346570402 0.194732577
0.938995600 0.349922478 0.191063434
0.045003749 0.197308883 0.100531004
0.066340126 0.199784070 0.103082567
0.093042009 0.202726871 0.105929494
0.132240906 0.204681501 0.105843440
0.203416750 0.207801372 0.106495246
0.275334090 0.214751810 0.111430943
0.340248168 0.224900618 0.118507989
0.403526872 0.236895457 0.125731304
0.469688535 0.251479745 0.134380877
0.539912403 0.269244879 0.144510314
0.613402486 0.289541364 0.156335369
0.688981056 0.311414480 0.169291064
0.766120791 0.334448755 0.182714626
0.839091361 0.356638551 0.195235148
0.891311526 0.372735739 0.201717764
0.916210115 0.379225910 0.198987439
