hollywood-luts/The hobbit.cube
TITLE "17x17x17 Adobe/IRIDAS cube 3D LUT exported with GrossGrade v0.2.2 (beta) 64 bit"
DOMAIN_MIN 0 0 0
DOMAIN_MAX 1 1 1
LUT_3D_SIZE 17
-0.060270000 -0.059866000 -0.060128000
-0.001027498 -0.058908813 -0.059395812
0.036564000 -0.053636126 -0.056350999
0.089015827 -0.045928061 -0.053360377
0.150706500 -0.036614001 -0.050958499
0.218239367 -0.027499313 -0.048859686
0.289110661 -0.019613372 -0.047687501
0.362071961 -0.013061372 -0.047273874
0.437729001 -0.007155999 -0.047122501
0.516287148 -0.000033500 -0.046652187
0.596341372 0.005380000 -0.045754999
0.675926387 0.005813125 -0.044911560
0.753365755 0.005867750 -0.044317998
0.827293336 0.005816937 -0.044073500
0.896894574 0.005651749 -0.044288874
0.961166263 0.005321874 -0.044991814
1.000874996 0.004495000 -0.045889001
-0.060269061 0.009370249 -0.056768000
-0.000794061 0.010461502 -0.055991750
0.038346186 0.015630942 -0.052854188
0.092461325 0.022464689 -0.050589811
0.155244380 0.029434375 -0.049633436
0.222954184 0.035865061 -0.048455626
0.293735951 0.041540381 -0.047707189
0.366881371 0.047044381 -0.047441315
0.442921519 0.052325625 -0.047308441
0.521722853 0.057071626 -0.046813186
0.601748109 0.061133876 -0.045975875
0.681046009 0.063585311 -0.045360938
0.757921338 0.065021314 -0.045074500
0.831133842 0.065606184 -0.045107566
0.900062740 0.065418750 -0.045482311
0.963649154 0.064621374 -0.046092812
1.000895619 0.063437499 -0.046890251
-0.055434626 0.049187250 -0.040235750
0.000635749 0.052075751 -0.038507503
0.042222250 0.063586503 -0.037348874
0.104964636 0.076798312 -0.041593313
0.171693265 0.085393250 -0.044064749
0.240157381 0.091696128 -0.045193061
0.310546160 0.096867874 -0.045837499
0.383268714 0.101235248 -0.046310127
0.458609402 0.105120748 -0.046321500
0.536034644 0.107605062 -0.046038814
0.614230394 0.109193757 -0.045829624
0.691722155 0.111142382 -0.045985248
0.766974390 0.113452122 -0.046361752
0.838774562 0.115631692 -0.046888500
0.906662405 0.117212117 -0.047563750
0.969089985 0.118232444 -0.048243437
1.000945091 0.118738249 -0.048936252
-0.048265122 0.082935438 -0.027124934
0.003931001 0.087162130 -0.024448747
0.043420188 0.101870880 -0.020192306
0.109315388 0.116939574 -0.030583689
0.184088498 0.132335395 -0.039543748
0.255248994 0.141954333 -0.043078184
0.326341778 0.149186462 -0.044672124
0.399091959 0.155458704 -0.045292750
0.474079758 0.161139324 -0.045154124
0.550933480 0.166152447 -0.044727188
0.628160596 0.169901520 -0.044632126
0.704242408 0.172773957 -0.045102999
0.777929485 0.174563825 -0.045949250
0.848133087 0.174934894 -0.047008436
0.914281845 0.173885584 -0.048107442
0.974696755 0.171909690 -0.049215440
1.000978827 0.169313386 -0.050213501
-0.039567750 0.117051996 -0.015000249
0.008271000 0.121886313 -0.011296187
0.046705250 0.139559761 -0.004339000
0.113497205 0.158122435 -0.010082252
0.191410750 0.174421251 -0.030089997
0.267644167 0.191003054 -0.039820183
0.340103269 0.202498496 -0.043338750
0.412950277 0.210762754 -0.044195127
0.487601757 0.217842251 -0.044107504
0.563645422 0.224247456 -0.043855190
0.640005410 0.229828760 -0.043957502
0.715104699 0.234263867 -0.044633560
0.787733257 0.237191260 -0.045729749
0.857152462 0.238385260 -0.047011815
0.922476172 0.237877995 -0.048267376
0.980344474 0.236134633 -0.049494438
1.000985026 0.233825013 -0.050554000
-0.026708752 0.152740121 -0.003274000
0.015052941 0.157844126 -0.000753437
0.054612000 0.177538812 0.005853813
0.121741392 0.201609179 0.005107809
0.201004371 0.219874814 -0.007424941
0.279027879 0.234960809 -0.031159749
0.352695704 0.253326118 -0.039309435
0.425094783 0.267324239 -0.041966937
0.498936385 0.276920378 -0.042502686
0.574253142 0.284449369 -0.042733625
0.649627805 0.290770054 -0.043283064
0.723868132 0.295946002 -0.044289313
0.795792162 0.299567610 -0.045677751
0.864660978 0.301386178 -0.047177002
0.929447234 0.301382571 -0.048557438
0.985181570 0.300005674 -0.049865626
1.000985026 0.298184425 -0.050989062
-0.009330623 0.190501392 0.004823503
0.025670318 0.196062639 0.007506315
0.068844512 0.217141017 0.015584004
0.136001527 0.245172769 0.018060002
0.214631140 0.269374013 0.009757380
0.293366015 0.283639252 -0.007185679
0.367320418 0.297834873 -0.030299122
0.438120246 0.318376064 -0.036080312
0.509690642 0.335162759 -0.038918000
0.583129883 0.346625805 -0.040688559
0.657352388 0.354424894 -0.042153876
0.730810046 0.359952599 -0.043728061
0.802321613 0.363629907 -0.045471750
0.870824039 0.365315527 -0.047240999
0.935073078 0.364999890 -0.048833251
0.989141881 0.363288939 -0.050300252
1.000985026 0.361209750 -0.051539999
0.003096694 0.230801716 0.012317318
0.041783016 0.237234458 0.015882067
0.089926764 0.259944648 0.026085008
0.157395080 0.290174842 0.031648882
0.234039456 0.318788290 0.026533134
0.310787588 0.335624307 0.013853384
0.384673715 0.348003536 -0.003788119
0.454643667 0.363636911 -0.024405807
0.522987306 0.386638343 -0.030346993
0.592652202 0.405857146 -0.035201870
0.664225876 0.418797195 -0.039382804
0.736315072 0.426238030 -0.042569187
0.807360291 0.430092692 -0.045090374
0.875731111 0.431320965 -0.047206126
0.939683855 0.430305958 -0.049053874
0.992399037 0.427834868 -0.050701875
1.000985026 0.425140142 -0.052064624
0.015254004 0.273885012 0.021976503
0.063482821 0.281496763 0.026290629
0.117651753 0.306318760 0.038288753
0.185146213 0.337499559 0.045873627
0.258973241 0.367701769 0.043527752
0.332984269 0.387760520 0.033406630
0.404330552 0.398964643 0.019816123
0.473624110 0.413716018 0.001928811
0.540261507 0.433232009 -0.014484997
0.605716348 0.458104640 -0.023490872
0.672624648 0.478316784 -0.031697869
0.741795659 0.491469443 -0.038861625
0.811411262 0.497949004 -0.043862253
0.879461527 0.499600649 -0.047119692
0.943362653 0.497868657 -0.049330998
0.994978070 0.494348586 -0.051119752
1.000985026 0.490760505 -0.052594498
0.034743376 0.319562256 0.034353875
0.091505632 0.328571826 0.039381128
0.150555119 0.355517566 0.052575186
0.217260718 0.386522621 0.060905062
0.287583441 0.415912032 0.060202688
0.358083069 0.437638581 0.052242190
0.426842481 0.450928688 0.041173872
0.493816435 0.461846501 0.027855240
0.559478223 0.481720805 0.008844434
0.623012424 0.505497217 -0.004517375
0.685035884 0.530721545 -0.017055500
0.749034524 0.550463259 -0.029010750
0.815524518 0.562856317 -0.038770501
0.882177234 0.568035483 -0.045449629
0.945977986 0.567157686 -0.049300313
0.996988654 0.563035309 -0.051650375
1.000985026 0.558340907 -0.053227626
0.061170749 0.367126882 0.049664751
0.123404995 0.377454221 0.055307001
0.185991123 0.406004131 0.068785504
0.251039207 0.435930192 0.076557368
0.317486376 0.463367999 0.076425746
0.384083122 0.485358715 0.070234120
0.449867278 0.501251638 0.061187997
0.514514863 0.513210952 0.051014245
0.577937245 0.526971877 0.037584495
0.640178621 0.551178038 0.017064437
0.700586200 0.577830374 0.002831500
0.759476244 0.602279425 -0.011389436
0.820768297 0.620818138 -0.026344754
0.884442449 0.631659210 -0.038364008
0.947253406 0.634942174 -0.046576753
0.998202801 0.632352233 -0.051307689
1.000985026 0.627613485 -0.053876750
0.091970749 0.415453762 0.067426316
0.156398252 0.426833749 0.073395371
0.221074373 0.456259459 0.086206064
0.283818573 0.484639227 0.092707068
0.346449077 0.510361195 0.092666745
0.409074366 0.532318354 0.087896317
0.471408755 0.550438404 0.080610998
0.533182502 0.565236986 0.072019748
0.594253898 0.578313410 0.062048685
0.654187381 0.594060779 0.048042752
0.713221252 0.619690359 0.026410874
0.771074057 0.648096919 0.008736813
0.827737689 0.671417594 -0.005085005
0.887159228 0.687981546 -0.023066513
0.947708011 0.696744442 -0.037426885
0.998199165 0.698488235 -0.047157504
1.000985026 0.696374714 -0.052942686
0.123349756 0.464131504 0.086730756
0.188858002 0.476404130 0.092673190
0.254061371 0.505887747 0.104120627
0.313887835 0.532601595 0.109475002
0.372770518 0.557050288 0.109695509
0.431547314 0.579138279 0.106213063
0.490110159 0.598739028 0.100335129
0.548308969 0.615979910 0.092791118
0.606305480 0.630965233 0.083844252
0.664020121 0.644452870 0.073337317
0.721181750 0.660180688 0.059004880
0.778086901 0.685197115 0.037025698
0.835052252 0.714832246 0.015871251
0.890611410 0.736572921 0.001102985
0.947871208 0.751310289 -0.020052010
0.997390270 0.758422077 -0.036209568
1.000985026 0.760663986 -0.047209244
0.153013974 0.513467848 0.106580459
0.219181418 0.526116073 0.112068951
0.283657432 0.554682851 0.121938646
0.340367705 0.579713106 0.126609325
0.395561904 0.602841735 0.127302319
0.450575024 0.624583006 0.124946266
0.505533338 0.644704878 0.120151274
0.560295105 0.663103521 0.113376521
0.615107417 0.679743230 0.104911834
0.670138597 0.694603205 0.095045149
0.725294232 0.708153665 0.083776392
0.780557275 0.723452568 0.069289461
0.836208940 0.747226298 0.047495961
0.893727422 0.777400136 0.023580508
0.947806060 0.797813356 0.004479378
0.995767534 0.811315119 -0.016990744
1.000985026 0.818609834 -0.034327414
0.178444654 0.560025215 0.124896139
0.244748831 0.572550595 0.129869267
0.308389157 0.600215435 0.138789892
0.362534583 0.624017358 0.143454209
0.414567024 0.646148562 0.144840509
0.466138363 0.667219996 0.143422335
0.517678022 0.687254548 0.139534026
0.569233716 0.706201434 0.133503377
0.621021330 0.723817587 0.125647768
0.673300266 0.739967585 0.116234586
0.726115465 0.754715443 0.105551146
0.779501498 0.768400192 0.093711957
0.833460629 0.783171177 0.079315022
0.888516068 0.805785716 0.057651073
0.947056174 0.836637557 0.031090382
0.993693173 0.856129944 0.007975444
1.000985026 0.869611025 -0.012769973
0.200685263 0.604020476 0.141437769
0.265840590 0.615891635 0.146103144
0.328961521 0.642877162 0.154910207
0.380965441 0.665690958 0.159908831
0.430184513 0.686876237 0.161971509
0.478795111 0.707135677 0.161423519
0.527261853 0.726705432 0.158444330
0.575898707 0.745681465 0.153204829
0.625011861 0.763891935 0.146000013
0.674755692 0.781125724 0.137170836
0.725126743 0.797269464 0.126957715
0.776260197 0.812143624 0.115605958
0.828416705 0.825903654 0.103338078
0.881801367 0.840398788 0.088990130
0.937135100 0.862435460 0.067207001
0.991042793 0.893460512 0.038618505
1.000985026 0.912675500 0.013102596
0.221854001 0.647796988 0.157394007
0.284961820 0.658743262 0.161789000
0.347218275 0.684879482 0.170909867
0.397262931 0.706695974 0.176418751
0.444092751 0.726852238 0.179142743
0.490155101 0.746405303 0.179443493
0.535930753 0.765496850 0.177342251
0.582009792 0.784282863 0.172975376
0.628665984 0.802807987 0.166597009
0.676000297 0.820723236 0.158470824
0.724213839 0.837802291 0.148856759
0.773410738 0.854071617 0.138011128
0.823658526 0.869307280 0.126150250
0.875346303 0.883615017 0.113416545
0.928870261 0.898670316 0.098854974
0.982387841 0.920396745 0.077024095
1.000985026 0.951322019 0.047550999
-0.060218439 -0.057762250 -0.000082999
-0.000540934 -0.056886625 0.000984814
0.034980316 -0.051796813 0.004556376
0.086031392 -0.045351434 0.008779000
0.147646308 -0.037533123 0.012130372
0.214658439 -0.030960813 0.014578745
0.285632849 -0.024071498 0.016418435
0.359741926 -0.017357185 0.017968439
0.436641097 -0.011523562 0.019399062
0.515803397 -0.006152375 0.020812184
0.596069515 0.000179876 0.022284999
0.675913572 0.004854063 0.023521252
0.753593206 0.005426813 0.024214059
0.827559710 0.005574313 0.024345819
0.897127867 0.005476625 0.023818687
0.961588264 0.005167999 0.022785246
1.000877738 0.004365625 0.021606315
-0.060156561 0.011154316 0.002120126
-0.000299061 0.012861501 0.003684815
0.037519936 0.020173805 0.008862004
0.091608144 0.025668062 0.011334628
0.154349804 0.030140879 0.012424372
0.221559241 0.033566184 0.013057683
0.292418748 0.037449121 0.013589375
0.366272181 0.042428881 0.014092814
0.442698836 0.047536999 0.014850061
0.521407008 0.051967122 0.015928935
0.601315022 0.055703126 0.017150499
0.680567563 0.058055311 0.018190000
0.757371783 0.059691060 0.018932812
0.830596328 0.060788371 0.019419443
0.899747312 0.061415315 0.019562062
0.963460147 0.061673000 0.019540623
1.000894666 0.061553124 0.019425690
-0.056716871 0.050824311 0.012424998
0.000725621 0.053466879 0.014290690
0.040999625 0.065315381 0.017349817
0.103884079 0.079747878 0.017279439
0.170886561 0.088052884 0.016608439
0.239862502 0.093714193 0.015998624
0.310858220 0.098039374 0.015639819
0.383997262 0.101587810 0.015601691
0.459507704 0.104754746 0.015977621
0.536957741 0.106896125 0.016680561
0.615084887 0.108098499 0.017433494
0.692374825 0.109554060 0.017944314
0.767400324 0.111828245 0.018258307
0.839029908 0.114086002 0.018468883
0.906739235 0.116024315 0.018572006
0.969100893 0.117393062 0.018539123
1.000945926 0.118249498 0.018441066
-0.053068437 0.084384881 0.020552374
0.002350688 0.087288447 0.021874873
0.040531434 0.102480389 0.026799254
0.107463077 0.118939832 0.022189692
0.183096841 0.135330141 0.018510625
0.254799485 0.144426078 0.017274626
0.326340169 0.150961950 0.016815308
0.399395525 0.156533450 0.016868312
0.474588335 0.161616564 0.017364930
0.551568329 0.166275695 0.018097065
0.628833652 0.169952631 0.018736381
0.704814970 0.172721326 0.019058440
0.778334081 0.174597576 0.019109059
0.848444939 0.175153509 0.018947810
0.914601803 0.174350083 0.018680319
0.974928498 0.172535136 0.018364061
1.000978947 0.169733584 0.017995253
-0.046449937 0.118096940 0.027870314
0.005166939 0.121076122 0.029153936
0.042298317 0.139079690 0.036729254
0.108858012 0.159465805 0.033684246
0.189519450 0.177049622 0.022659376
0.266857475 0.193611443 0.018653311
0.339729786 0.204427615 0.017938193
0.412839472 0.212101698 0.018180311
0.487630576 0.218772382 0.018761314
0.563894689 0.224963248 0.019446187
0.640325606 0.230460241 0.019931998
0.715311587 0.234871894 0.020074561
0.787829876 0.237812400 0.019946061
0.857201755 0.239022568 0.019582383
0.922556877 0.238579512 0.019134004
0.980432391 0.236927450 0.018669378
1.000985026 0.234591693 0.018214997
-0.034638375 0.153340131 0.035735559
0.010621124 0.156471685 0.037280060
0.048887126 0.176504880 0.047328938
0.114581011 0.201591000 0.048235621
0.196640253 0.222030014 0.036968186
0.277098179 0.237943619 0.023315310
0.351878405 0.255708039 0.020213377
0.424644619 0.269036323 0.020001683
0.498711318 0.278216809 0.020484567
0.574136496 0.285589874 0.020951439
0.649653196 0.291882575 0.021161623
0.723845303 0.297012120 0.021031253
0.795673013 0.300593227 0.020648435
0.864519358 0.302326739 0.020063125
0.929341495 0.302236378 0.019447189
0.985092163 0.300891578 0.018855624
1.000985026 0.299080193 0.018322688
-0.017149996 0.191136375 0.044687562
0.020218130 0.194464818 0.046436936
0.061909195 0.215993956 0.058414254
0.127556294 0.244264573 0.063245311
0.208199888 0.270722210 0.055629317
0.289610058 0.286328822 0.039679881
0.365354449 0.300903976 0.025810570
0.437119156 0.320778847 0.023682445
0.509044528 0.337075442 0.023217630
0.582669020 0.348239690 0.022971563
0.657058537 0.355879039 0.022656184
0.730547488 0.361289442 0.022087246
0.801986337 0.364864111 0.021347810
0.870593667 0.366461307 0.020487312
0.934988141 0.366018087 0.019662749
0.988993764 0.364280403 0.018934555
1.000985026 0.362108529 0.018291254
-0.001483743 0.231899902 0.054680318
0.035347257 0.235543028 0.056543130
0.082270637 0.258703917 0.070130199
0.148358464 0.288902700 0.078185566
0.226388901 0.319065988 0.074805945
0.305571526 0.338093102 0.062770702
0.381317914 0.350645781 0.044736195
0.452452362 0.366866767 0.031492256
0.521625400 0.389317214 0.028881941
0.591713846 0.408073753 0.026859622
0.663565755 0.420635819 0.024931937
0.736007690 0.427785903 0.023364563
0.807077944 0.431410074 0.022052001
0.875462234 0.432481945 0.020900246
0.939502358 0.431367487 0.019867249
0.992244244 0.428866535 0.018984877
1.000985026 0.425996095 0.018230252
0.012129691 0.275429338 0.066590130
0.055764068 0.279583722 0.068401441
0.109384388 0.304988056 0.083317697
0.175898075 0.336071700 0.093284070
0.250569284 0.367352635 0.093331560
0.326388717 0.389454067 0.084865190
0.399655670 0.401617825 0.071900815
0.470274031 0.416136265 0.053559374
0.537780166 0.436430752 0.039930694
0.604115307 0.460911810 0.034780063
0.671530247 0.480623513 0.030085251
0.741120338 0.493270367 0.025963694
0.811156332 0.499354511 0.023118369
0.879255950 0.500701547 0.021259181
0.943078041 0.498823136 0.019992374
0.994814932 0.495265096 0.018968560
1.000985026 0.491552800 0.018118128
0.030381814 0.321166962 0.080946311
0.082189120 0.326121092 0.082658313
0.141457811 0.354018360 0.098505378
0.207757697 0.385075837 0.109287381
0.278613240 0.415364802 0.111283563
0.350383133 0.438788980 0.105552375
0.420840561 0.453201860 0.095860496
0.489469051 0.464235127 0.083511300
0.556243122 0.483881354 0.064050689
0.620671988 0.508322299 0.048696499
0.683576345 0.533353984 0.040037747
0.748063862 0.552611232 0.032355871
0.815008223 0.564392328 0.026393250
0.881984591 0.569126129 0.022425804
0.945798755 0.567984343 0.020207368
0.996839464 0.563729227 0.018848497
1.000985026 0.558993161 0.017912872
0.055044938 0.368286550 0.097943559
0.112502620 0.374237061 0.099611938
0.175888985 0.404199988 0.115697682
0.241073072 0.434447110 0.126138434
0.308105379 0.462791800 0.128831446
0.375766069 0.486076772 0.125001550
0.442957938 0.503075361 0.117509678
0.509247243 0.515542686 0.108283684
0.574188113 0.529084086 0.095763683
0.637542546 0.553051353 0.074569941
0.698824286 0.580214679 0.056824002
0.758375168 0.604539394 0.044619188
0.820077598 0.622606099 0.034426749
0.884093702 0.632880986 0.026868373
0.947115839 0.635784507 0.021913812
0.998049617 0.632923007 0.019159991
1.000985026 0.628097057 0.017673250
0.083925441 0.415852815 0.117145061
0.144035742 0.422906846 0.118791312
0.210100815 0.454150856 0.134285122
0.273368388 0.483085245 0.143548563
0.336817265 0.509654880 0.146265313
0.400559992 0.532651365 0.143805996
0.464255959 0.551641822 0.138001934
0.527456403 0.567138493 0.130295128
0.589969575 0.580528796 0.120882124
0.651325762 0.595971107 0.107493125
0.711293876 0.621375680 0.085397191
0.769896507 0.650086284 0.065105878
0.826946080 0.673151672 0.049614429
0.886662006 0.689407825 0.036855865
0.947420835 0.697767496 0.027635124
0.998012722 0.699131310 0.021670304
1.000985026 0.696784437 0.018273871
0.113858692 0.463668317 0.137681007
0.175010890 0.471927136 0.139350384
0.242595121 0.503587663 0.153535828
0.303269416 0.530994058 0.161485255
0.363120824 0.556135178 0.164177120
0.423063427 0.579069555 0.162822247
0.482978135 0.599410057 0.158339307
0.542593241 0.617231727 0.151616752
0.601847529 0.632636607 0.143158257
0.660832942 0.646355093 0.132945061
0.719134688 0.661875725 0.119023509
0.776621342 0.686675608 0.096892253
0.834252179 0.716339767 0.073847316
0.889969349 0.737829685 0.054942802
0.947600603 0.752400875 0.039374117
0.997256100 0.759204626 0.028541312
1.000985026 0.761143923 0.021706693
0.142171219 0.511943102 0.158324629
0.204215348 0.521238804 0.160088629
0.272091329 0.552272081 0.172622576
0.329917073 0.578004718 0.179515511
0.386159718 0.601725340 0.182236075
0.442388535 0.624079227 0.181624323
0.498611093 0.644831896 0.178134516
0.554690540 0.663746595 0.172206134
0.610680878 0.680758178 0.164295509
0.666734457 0.695897341 0.154784516
0.722846210 0.709608555 0.143779203
0.778876901 0.724758625 0.129666090
0.835074842 0.748285770 0.107857585
0.893005908 0.778467417 0.082570061
0.947375417 0.798723280 0.059712313
0.995563030 0.812025070 0.041885071
1.000985026 0.819258690 0.029812768
0.166765898 0.557578564 0.176849082
0.229631767 0.567843854 0.178966954
0.297068238 0.597754657 0.190246463
0.352436602 0.622180879 0.196666643
0.405562520 0.644832492 0.199655324
0.458381116 0.666410685 0.199653134
0.511118650 0.686962664 0.196970701
0.563877881 0.706276834 0.191849887
0.616761088 0.724216342 0.184614643
0.669969261 0.740703762 0.175654948
0.723552167 0.755683720 0.165299132
0.777563214 0.769434392 0.153681085
0.832189083 0.784122765 0.139539525
0.887671173 0.806682408 0.117984019
0.946452320 0.837431967 0.090746328
0.993225515 0.856625080 0.064400315
1.000985026 0.870228589 0.045191593
0.188910007 0.601117909 0.193021193
0.251839459 0.611782730 0.195744276
0.318094730 0.640357912 0.206523761
0.371322542 0.663751543 0.212913960
0.421650946 0.685296476 0.216244876
0.471469611 0.706098437 0.216878027
0.521025658 0.726184726 0.214954391
0.570713818 0.745414197 0.210666507
0.620780826 0.763811469 0.204190969
0.671367824 0.781299710 0.195889562
0.722550213 0.797596216 0.186101839
0.774391115 0.812608182 0.175079077
0.827014208 0.826648951 0.163052067
0.880789101 0.841077507 0.148974836
0.936263621 0.863032579 0.127463073
0.990819693 0.894015074 0.098665193
1.000985026 0.913192391 0.070627540
0.210206494 0.644801676 0.208286181
0.272410572 0.655202270 0.211712748
0.337017268 0.682525873 0.222296625
0.388269007 0.704786420 0.228854120
0.436047673 0.725222886 0.232621133
0.483167380 0.745149136 0.233926624
0.530013859 0.764613450 0.232770368
0.577015936 0.783756018 0.229388326
0.624498785 0.802457988 0.223789573
0.672627568 0.820528984 0.216216817
0.721506715 0.837873101 0.207069889
0.771271050 0.854318202 0.196576744
0.822130561 0.869599819 0.185016990
0.874243081 0.884010613 0.172700107
0.927971900 0.899157941 0.158438802
0.981945932 0.921022177 0.137066424
1.000985026 0.951987624 0.107778817
-0.055918749 -0.045870751 0.024156999
-0.000061496 -0.044572502 0.027175188
0.028770503 -0.037077501 0.038080625
0.078489892 -0.031797312 0.046916880
0.138977617 -0.027696999 0.054888878
0.204757303 -0.024585251 0.061808310
0.274037510 -0.022798501 0.066903874
0.347471178 -0.020777810 0.070686877
0.425687999 -0.017850375 0.073602125
0.507746518 -0.014481938 0.075700626
0.590914369 -0.011313750 0.077270746
0.672750115 -0.007811750 0.078877568
0.751892388 -0.004314374 0.080590375
0.826907694 -0.000079496 0.081776880
0.896830559 0.003888000 0.082194000
0.961295545 0.003967812 0.082114130
1.000874519 0.003146875 0.081960745
-0.056097500 0.020719193 0.028233502
0.000162879 0.023291744 0.032189563
0.029668624 0.029769994 0.043034624
0.082776949 0.036428504 0.052806184
0.145795509 0.040514752 0.059770871
0.212854505 0.043027494 0.065046445
0.282594204 0.043618873 0.068763062
0.355899334 0.043294437 0.071377568
0.433688402 0.043849312 0.073284253
0.515006483 0.046121247 0.074672185
0.597131014 0.049328879 0.075948872
0.677816093 0.052776437 0.077539250
0.755889714 0.055825125 0.079270378
0.829976022 0.058253121 0.080559745
0.899297476 0.059691437 0.081196874
0.963048816 0.060521811 0.081405625
1.000891447 0.060838372 0.081502132
-0.056722499 0.051691376 0.037213501
-0.000141004 0.054764435 0.040453810
0.030333126 0.066100121 0.052892998
0.092625149 0.082948491 0.065549873
0.163376004 0.093135253 0.069693744
0.234939322 0.097849876 0.070657253
0.307530671 0.099797621 0.070742130
0.381939918 0.100698315 0.070534945
0.458586276 0.101165876 0.070225880
0.536630034 0.101455621 0.070295125
0.614713371 0.101826124 0.071123630
0.691670477 0.102748118 0.072576120
0.766417384 0.104761742 0.074210629
0.837884665 0.107465751 0.075757563
0.905549169 0.110167749 0.077041879
0.968374372 0.112971194 0.078187749
1.000938058 0.115039505 0.079115883
-0.054359939 0.084262379 0.049578503
0.001044000 0.088283822 0.052932940
0.031511378 0.101617627 0.063377813
0.094643459 0.121353634 0.070354566
0.175426066 0.142347157 0.074060440
0.249577120 0.151605755 0.074938565
0.323059320 0.156538516 0.074527316
0.397885203 0.159895077 0.073730126
0.474444449 0.162594631 0.073214680
0.552099109 0.165349141 0.073490366
0.629435658 0.168179139 0.074615255
0.705140471 0.170802951 0.076100312
0.778326273 0.172985584 0.077470556
0.848342538 0.174226642 0.078572318
0.914517343 0.174336269 0.079336494
0.974862814 0.173434377 0.079827502
1.000978470 0.171437323 0.080146626
-0.050714873 0.118886754 0.058782503
0.002650627 0.122830443 0.061739128
0.033580128 0.136591017 0.070739746
0.090943575 0.158512130 0.078004256
0.179053888 0.183235735 0.074006498
0.261187911 0.202103764 0.075116500
0.336093515 0.211389393 0.075946495
0.410737455 0.217090815 0.075794317
0.486750007 0.222017273 0.075887375
0.563613713 0.226916760 0.076669939
