hollywood-luts/The Shape of Water.cube
TITLE "17x17x17 Adobe/IRIDAS cube 3D LUT exported with GrossGrade v0.2.2 (beta) 64 bit"
DOMAIN_MIN 0 0 0
DOMAIN_MAX 1 1 1
LUT_3D_SIZE 17
0.000000000 0.000000000 0.000213000
0.067768127 0.035779689 0.001573312
0.144015878 0.063658126 0.005714375
0.219000578 0.078832626 0.009863130
0.286659777 0.088923499 0.027730003
0.349621743 0.095076062 0.044681877
0.409718007 0.098085754 0.056116253
0.467099220 0.099012747 0.064453065
0.522066534 0.098367497 0.072106004
0.575507402 0.096335374 0.080062121
0.628136754 0.093198501 0.088358998
0.680237353 0.089120373 0.096655875
0.732177258 0.083735995 0.104558252
0.784641862 0.076687306 0.111987755
0.838482559 0.069098867 0.120054513
0.894255280 0.062844992 0.130010203
0.955999017 0.056620002 0.139748007
0.039300937 0.056590311 0.000013312
0.101540625 0.078962818 0.017191125
0.155913383 0.099114999 0.025259187
0.219614819 0.113111183 0.026142688
0.283740759 0.121101692 0.031185063
0.345529884 0.126084998 0.042529628
0.405199885 0.128879815 0.052928749
0.462959975 0.130179182 0.061450630
0.518667519 0.130410314 0.069872439
0.572941840 0.129910320 0.078598998
0.626471996 0.128781691 0.087235495
0.679440498 0.126964122 0.095709942
0.732294798 0.124233127 0.103931062
0.785849571 0.119812489 0.111581631
0.840983748 0.113534302 0.118160881
0.898468852 0.105677307 0.124264263
0.961754322 0.097074062 0.130733937
0.066640623 0.111848876 0.000000000
0.127604559 0.123102754 0.005272562
0.180263862 0.137034982 0.028976999
0.227656752 0.147820815 0.037044000
0.285354882 0.155983880 0.040807873
0.343693465 0.160883427 0.045607500
0.401302516 0.163513362 0.052687377
0.457877845 0.164742738 0.059943005
0.513669014 0.165453121 0.068014622
0.568848073 0.165866554 0.077180058
0.623486400 0.166122258 0.086575374
0.677690864 0.166027695 0.095661812
0.731893778 0.165142998 0.104218625
0.786618233 0.163002938 0.112087131
0.842990041 0.158996493 0.119136259
0.901656747 0.153498814 0.125638261
0.965764880 0.147453249 0.132241756
0.087366134 0.165228888 0.000000000
0.145231053 0.173060954 0.000985313
0.200527638 0.176960081 0.021695998
0.247049123 0.188022584 0.040567499
0.288786650 0.193804890 0.046587374
0.343771815 0.199109450 0.051499873
0.399607658 0.202299759 0.056435127
0.454959720 0.204153568 0.062653564
0.510009408 0.205138579 0.070014440
0.565026462 0.205786645 0.078676119
0.620172977 0.206285954 0.087840185
0.675498545 0.206827834 0.096902184
0.731142044 0.207104385 0.105657123
0.787361324 0.206539825 0.113759950
0.845244229 0.204535887 0.121306323
0.905383706 0.201187700 0.128625572
0.970549464 0.197704509 0.136089563
0.108514249 0.216160253 0.000585000
0.160085946 0.220376566 0.001814063
0.213489756 0.224736124 0.012816499
0.266002744 0.226921499 0.038459256
0.306757003 0.236661002 0.051895499
0.342668265 0.240491569 0.056251939
0.396925747 0.244583622 0.062502369
0.452107310 0.247027129 0.068447880
0.506755292 0.248659998 0.074860498
0.561680377 0.249841005 0.082761057
0.617264509 0.250743508 0.091756500
0.673615336 0.251472950 0.100793689
0.730755270 0.251994997 0.109572999
0.788865089 0.251822174 0.117837325
0.848622203 0.250862122 0.125726387
0.910473466 0.249219745 0.133713201
0.976912975 0.248070747 0.141693741
0.134378552 0.265360743 0.006051750
0.178476319 0.266742647 0.005601188
0.227480561 0.272146255 0.011043251
0.276169509 0.273231745 0.027433816
0.326430559 0.275370121 0.054015875
0.361160874 0.284567684 0.064508252
0.392395288 0.288642377 0.068380438
0.447175890 0.292479366 0.074887127
0.502893269 0.294796646 0.081268378
0.558211625 0.296511561 0.088147812
0.614291728 0.297998816 0.096578881
0.671546102 0.299241602 0.105677933
0.729887545 0.300298452 0.114681631
0.789485514 0.300774187 0.123387322
0.850986004 0.300557494 0.131851763
0.914913774 0.299976021 0.140488401
0.983620942 0.300085366 0.149204940
0.162257627 0.313167632 0.010418002
0.199627638 0.312287003 0.008745189
0.242985740 0.317605019 0.012285376
0.289313078 0.320646912 0.022183942
0.334560990 0.319798917 0.044980500
0.384452432 0.323127717 0.068678871
0.412764013 0.332411140 0.077895127
0.440132827 0.337975383 0.081942134
0.496240884 0.342399508 0.088098377
0.553526461 0.345245332 0.094675504
0.610738158 0.347452402 0.102275632
0.668998957 0.349350393 0.111118563
0.728555739 0.350999534 0.120354883
0.789487123 0.352322131 0.129570141
0.852441788 0.353006750 0.138675898
0.917856991 0.353475839 0.148119643
0.988224387 0.354912281 0.157549009
0.189505130 0.359493464 0.014498004
0.221366256 0.356624693 0.012561878
0.259376317 0.361478388 0.015320378
0.302324980 0.365460902 0.023452383
0.346651107 0.366363525 0.039499938
0.389983535 0.364481330 0.065075308
0.440883934 0.370164096 0.082495824
0.462517679 0.380335033 0.091643944
0.487613499 0.388447016 0.096679069
0.545326233 0.394437581 0.102571256
0.605140328 0.398384511 0.109453134
0.665304899 0.401337922 0.117617883
0.726446033 0.403762162 0.126633316
0.788891673 0.405863702 0.136155322
0.853320837 0.407519966 0.145863950
0.920128047 0.409115016 0.156141892
0.991658092 0.412049711 0.166363373
0.215384513 0.404336005 0.021228503
0.243028879 0.400422752 0.018905252
0.276351511 0.403841525 0.021359002
0.315404058 0.408003390 0.028749879
0.358117998 0.410316497 0.042085003
0.400773555 0.409513593 0.061962377
0.443070650 0.407382905 0.086770885
0.494839370 0.415548712 0.099283256
0.510696530 0.428691506 0.105891004
0.535238028 0.440486372 0.113249689
0.595167518 0.448933631 0.119228885
0.658728540 0.454353869 0.126218826
0.722576737 0.458201021 0.134344757
0.787191331 0.461300075 0.143553644
0.853356123 0.463986009 0.153674394
0.921708703 0.466833264 0.164008021
0.994423032 0.471668005 0.171734005
0.239885315 0.447901487 0.031213125
0.264514029 0.443856567 0.028535500
0.293711066 0.445156991 0.030297186
0.329058439 0.448855072 0.037217882
0.369166493 0.451773673 0.048928000
0.411393374 0.452451080 0.065270185
0.452569693 0.450620323 0.087178193
0.494052827 0.448902547 0.110634319
0.545016289 0.459483355 0.120328628
0.556372344 0.477549374 0.123309940
0.583517492 0.494448751 0.132412881
0.647100627 0.506225944 0.138386071
0.715129077 0.513365567 0.144927248
0.783139527 0.518323421 0.152521566
0.851902843 0.522733867 0.160162702
0.922023594 0.527667522 0.166097313
0.995890319 0.534853280 0.167400435
0.263161749 0.490234852 0.043556627
0.285555452 0.486450195 0.041022375
0.311216772 0.485583276 0.041845750
0.343146622 0.488542438 0.047892816
0.380373269 0.491522789 0.058184505
0.421049863 0.493041396 0.072594941
0.462357759 0.492385387 0.090763763
0.502485394 0.490435362 0.114185885
0.543221593 0.489861727 0.136206746
0.591731548 0.503274739 0.144303560
0.600424767 0.528232098 0.144186750
0.634540677 0.551522434 0.152582049
0.702705383 0.567804515 0.156049624
0.775629342 0.577278137 0.158757061
0.848139524 0.584271252 0.161370739
0.920678020 0.591827273 0.158825248
0.995725513 0.600731015 0.154689625
0.285339892 0.531321764 0.056574129
0.305832684 0.527905166 0.054396313
0.328717321 0.525193930 0.054618999
0.357499957 0.527261436 0.059646748
0.391781539 0.530040085 0.068708122
0.430252075 0.531944215 0.081814319
0.470572710 0.532344222 0.098224945
0.510882914 0.531493008 0.117986396
0.550089121 0.531227112 0.141375005
0.589614153 0.535240829 0.159341946
0.634612858 0.553631544 0.163374886
0.649202585 0.588251173 0.155885816
0.692953765 0.617048621 0.161035374
0.765663743 0.637220800 0.158564612
0.842355847 0.648553550 0.153020680
0.917738497 0.657377541 0.146775186
0.994047999 0.666831017 0.139901191
0.303465724 0.572540283 0.068796501
0.322485298 0.569563687 0.066730440
0.343220383 0.566168904 0.066335499
0.368857861 0.567529380 0.070069492
0.399853230 0.570650518 0.077514246
0.435434759 0.573631406 0.088456675
0.473820001 0.575998366 0.102823123
0.513159513 0.577599227 0.119603947
0.552445769 0.579862058 0.138192758
0.590913177 0.585243344 0.157141685
0.630113602 0.596707284 0.167587996
0.673841596 0.620513082 0.164001435
0.708033025 0.663056731 0.145136997
0.762977481 0.693284273 0.144295305
0.836609423 0.711641431 0.142488599
0.914245248 0.722450495 0.133959055
0.991809249 0.732547760 0.124215245
0.300386190 0.621432662 0.076419681
0.320608497 0.619332612 0.073577181
0.341458172 0.617147744 0.071772799
0.365618795 0.618474901 0.072788417
0.394529790 0.622862756 0.076887541
0.427842706 0.628268063 0.083922043
0.464586735 0.633895218 0.094051108
0.503229380 0.639470935 0.106805421
0.543074012 0.645444810 0.120710105
0.584341705 0.653471053 0.134731829
0.626401126 0.663827777 0.147898465
0.670265257 0.677609265 0.153442219
0.717856109 0.700761199 0.145609111
0.772937298 0.741256535 0.122393966
0.837169051 0.769203067 0.119541273
0.912083864 0.786180019 0.117757596
0.990494549 0.798533916 0.109758042
0.246742308 0.692826569 0.069399595
0.275711954 0.691520810 0.064476229
0.304708958 0.690434217 0.059651472
0.335553616 0.690952420 0.056959469
0.369970858 0.694865584 0.057772588
0.407699406 0.700271606 0.062038213
0.448250234 0.706160724 0.069799468
0.490639389 0.712509334 0.080956154
0.534518540 0.719625950 0.093879588
0.580374181 0.728592455 0.106272832
0.627952516 0.740159929 0.116489448
0.675305009 0.752822757 0.123725325
0.722955287 0.766840994 0.123315819
0.774795175 0.787410259 0.111071825
0.841629922 0.821519196 0.089052461
0.913699031 0.846611738 0.085257336
0.990529001 0.864185452 0.090877198
0.183880419 0.773300052 0.048126835
0.224917695 0.772646368 0.040454898
0.264003932 0.772471964 0.033043154
0.303269148 0.773024023 0.026763475
0.344361782 0.776528895 0.024599729
0.387694955 0.781742752 0.026158098
0.433013827 0.787890196 0.031577658
0.479703456 0.794739664 0.041301899
0.528216064 0.802801251 0.053180885
0.578649998 0.812486827 0.064764626
0.629782736 0.823621392 0.073975816
0.680514872 0.835461378 0.079361252
0.731125712 0.847356856 0.080091313
0.783614576 0.860272706 0.073769748
0.842482507 0.878419697 0.060351077
0.914603829 0.904034972 0.045708902
0.993271291 0.926310956 0.041163906
0.102542996 0.868399024 0.008270000
0.164003626 0.868412077 0.000986563
0.217089623 0.868842602 0.000382875
0.267201662 0.869924486 0.000165312
0.316825986 0.873202741 0.000029750
0.366982818 0.878190756 0.000000000
0.418111891 0.884480119 0.000141250
0.470269918 0.891670585 0.000345250
0.523532033 0.900012970 0.000599000
0.577577233 0.909404099 0.004100750
0.631883979 0.919440627 0.011391500
0.686296821 0.929904997 0.016946813
0.741154015 0.940410733 0.017498249
0.797726572 0.951198757 0.014402432
0.858054459 0.962952614 0.009510498
0.923928261 0.977221847 0.006680812
0.995975971 0.990749002 0.006708000
0.000000000 0.000000000 0.003242062
0.054134998 0.024300938 0.003242062
0.129601359 0.048257627 0.003229500
0.199340016 0.065361187 0.027771069
0.267645210 0.079638682 0.055031691
0.334504128 0.090285309 0.073446192
0.398416132 0.097280122 0.085406564
0.458938837 0.101239309 0.094898574
0.516171634 0.102991812 0.103589378
0.571081161 0.102965184 0.111962438
0.624304414 0.101998441 0.121020943
0.675981760 0.101191938 0.131529316
0.727087617 0.100172438 0.142456815
0.778922737 0.097466245 0.152367577
0.832539797 0.092924051 0.160866812
0.889138639 0.085385866 0.167460948
0.951607764 0.077856250 0.173634887
0.025489688 0.046369687 0.003251438
0.079195321 0.066639379 0.026779875
0.133271426 0.087432057 0.031556189
0.196332574 0.102683000 0.045542564
0.263284504 0.114382245 0.062194943
0.329486877 0.123730503 0.076380692
0.393300474 0.130598560 0.087629691
0.454120994 0.135331124 0.097169943
0.512027085 0.138170123 0.105870627
0.567884684 0.139384255 0.114382818
0.622582853 0.139337003 0.122866318
0.676597059 0.138173491 0.131111816
0.730299890 0.135797754 0.138992310
0.784187973 0.132094875 0.146310002
0.839378119 0.127010062 0.152963758
0.896496177 0.121213384 0.159591749
0.958965302 0.116190627 0.166831434
0.040575877 0.101646625 0.003218000
0.098348491 0.112091810 0.018343812
0.150421560 0.122802317 0.046061873
0.200669512 0.136430502 0.060642369
0.262255281 0.148129672 0.070244379
0.325836301 0.156542063 0.079296380
0.388490379 0.162574992 0.088260941
0.449050188 0.166751623 0.096774571
0.507448196 0.169566691 0.105178446
0.564196110 0.171374559 0.113664314
0.619925261 0.172355935 0.122131690
0.675007045 0.172527060 0.130480498
0.729930818 0.171772242 0.138451755
0.785293818 0.169649258 0.145656377
0.841820419 0.165951759 0.151788384
0.900654614 0.160687506 0.157114252
0.964528918 0.155357569 0.162238747
0.050231688 0.155448839 0.011955005
0.107246689 0.157705888 0.022801628
0.162731305 0.163937524 0.040299565
0.217461079 0.174768254 0.062519245
0.266267329 0.185216829 0.076649874
0.325952619 0.194471076 0.085089937
0.385985196 0.200740635 0.092230693
0.444879532 0.204748824 0.099369258
0.502524316 0.207192823 0.106555745
0.559512973 0.208784997 0.114280000
0.616217792 0.209992960 0.122457065
0.672679365 0.210910961 0.130692199
0.729107618 0.211332515 0.138668627
0.785962701 0.210860386 0.146099806
0.844080746 0.208962694 0.152643442
0.904209554 0.205918700 0.158573508
0.969487786 0.202771008 0.164255738
0.065083437 0.208433196 0.029621623
0.120767936 0.206960008 0.033521250
0.173019126 0.211080819 0.041496061
0.229794219 0.214618936 0.059009634
0.283118695 0.226967454 0.075529881
0.326684266 0.234616622 0.088105246
0.384871364 0.241834998 0.096681438
0.442706406 0.246366769 0.103814878
0.499584556 0.249250129 0.110717431
0.556246877 0.251251251 0.117810816
0.613136709 0.252767771 0.125315249
0.670446396 0.253918588 0.133015245
0.728304923 0.254647255 0.140654624
0.786884487 0.254806429 0.147996679
0.846884012 0.254170448 0.154913366
0.908787429 0.252860308 0.161596239
0.975392342 0.251817375 0.168187320
0.089866817 0.260399491 0.040196937
0.140691251 0.257557034 0.040936559
0.187785625 0.258805305 0.044194315
0.242101118 0.263299078 0.055048257
0.297252297 0.265324980 0.074595258
0.344694823 0.278302312 0.087425247
0.381552696 0.284269243 0.099121936
0.439235449 0.290261507 0.107838005
0.496522129 0.293995768 0.115308754
0.553285480 0.296567023 0.122505374
0.610557914 0.298677266 0.129882440
0.668607116 0.300424069 0.137417123
0.727518499 0.301766634 0.144990310
0.787503183 0.302540064 0.152395442
0.849383175 0.302689761 0.159586757
0.913468659 0.302409351 0.166800573
0.982232034 0.302765697 0.174133629
0.120176390 0.310815781 0.046553314
0.164942965 0.307531089 0.046684563
0.206528962 0.306330591 0.047509253
0.256720155 0.311277986 0.055341631
0.308647603 0.312814206 0.069910564
0.362826258 0.315539837 0.089632004
0.401209950 0.328054905 0.100091383
0.432154596 0.334163636 0.111194938
0.490481019 0.340061277 0.119749129
0.549042821 0.344005406 0.127381191
0.607379913 0.346908599 0.134819180
0.666415811 0.349386930 0.142417938
0.726501644 0.351498216 0.150188684
0.787781477 0.353141010 0.157969952
0.851034701 0.354212403 0.165662006
0.916702628 0.355010450 0.173553318
0.987043381 0.356708825 0.181643069
0.152251124 0.359139085 0.051065568
0.191150099 0.355697542 0.051434193
0.227629632 0.352695823 0.051264375
0.272857249 0.357156485 0.057754315
0.322206020 0.360112280 0.069069065
0.370823801 0.359533668 0.087642625
0.424517483 0.363961786 0.105523884
0.453511715 0.376628906 0.114252135
0.480691880 0.384738654 0.124913380
0.540698230 0.391895980 0.133011371
0.601964056 0.396771669 0.140420258
0.663056135 0.400398791 0.147928745
0.724704564 0.403398782 0.155798078
0.787533164 0.405886769 0.163976014
0.852170885 0.407974154 0.172310382
0.919147015 0.409923702 0.181035891
0.990792334 0.413066506 0.189911872
0.183864266 0.405207992 0.055975188
0.217681557 0.401777446 0.056698687
0.249790043 0.397772580 0.056198563
0.290100187 0.401105940 0.061693810
0.336046398 0.404761702 0.071803316
0.382845342 0.405206531 0.086584687
0.428474903 0.403661966 0.107812062
0.481913984 0.410242975 0.123019196
0.502474606 0.424790800 0.130019814
0.528972626 0.436784714 0.140395075
0.591524661 0.446366012 0.147821501
0.656505048 0.452567428 0.154870197
0.721105874 0.457132012 0.162402749
0.786059141 0.460728139 0.170586899
0.852488518 0.463859707 0.179430202
0.921007097 0.467044830 0.188475519
0.993991792 0.472059786 0.195595995
0.213975564 0.449417919 0.062331192
0.243627012 0.446006626 0.063373625
0.272137612 0.441692650 0.062708065
0.307913423 0.443517506 0.067326061
0.350082040 0.447160423 0.076784499
0.394968867 0.448818564 0.090080753
0.438964337 0.447591931 0.107964508
0.482586980 0.445971698 0.129980326
0.534694791 0.455010802 0.142779619
0.548966885 0.473573834 0.147466317
0.578250349 0.491024673 0.157628372
0.644192159 0.503808200 0.164540365
0.713513196 0.511618972 0.171238810
0.782149315 0.517279923 0.178431645
0.851211965 0.522144735 0.185550392
0.921773970 0.527383089 0.191351563
0.996030033 0.534735799 0.192856684
0.242192879 0.492083430 0.070310816
0.268479794 0.488718003 0.071521498
0.294029266 0.484391570 0.070872873
0.325819135 0.484589010 0.074598998
0.364180386 0.487881690 0.083365940
0.406539738 0.490179509 0.095947623
0.449717909 0.490031987 0.112043440
0.491724551 0.488269389 0.132160008
0.534037530 0.487528890 0.153869018
0.583562851 0.499512553 0.164804563
0.594497859 0.524603069 0.166894495
0.630245030 0.548629642 0.176038295
0.700412214 0.565678239 0.180788323
0.774618924 0.575819731 0.184553131
0.847716510 0.583372056 0.187951565
0.920951307 0.591211796 0.186795935
0.996739864 0.600413561 0.181248620
0.268361449 0.533279002 0.079429440
0.291930825 0.530114293 0.080661312
0.315045893 0.525992155 0.080205128
0.343446016 0.524524510 0.083166435
0.378257632 0.527250111 0.091138557
0.417754948 0.529784739 0.102872752
0.459322065 0.530658603 0.118063696
0.500895679 0.529895484 0.135940194
0.541402876 0.529708683 0.157572746
0.582171917 0.533273935 0.176729128
0.628265738 0.550462186 0.184189051
0.644549370 0.585089266 0.180601776
0.689785898 0.614885211 0.186420709
0.764242530 0.635601401 0.186111555
0.842092276 0.647520065 0.183302388
0.918215513 0.656618237 0.179261550
0.995709300 0.666709423 0.168771192
0.289664060 0.574445367 0.088935688
0.311144561 0.571708620 0.090209186
0.332115859 0.568338931 0.089850999
0.357446194 0.566045284 0.091936931
0.388743699 0.568729579 0.098722070
0.425021231 0.572182477 0.109072998
0.464280516 0.574959993 0.122608565
0.504578590 0.576695025 0.138526261
0.544847071 0.578879356 0.156331941
0.584664762 0.584390223 0.175799131
0.625216842 0.595557630 0.188911185
0.669620037 0.618290603 0.190167367
0.704475284 0.660714447 0.177631930
0.761032641 0.691911340 0.177503496
0.835915267 0.710659206 0.177150309
0.914392114 0.721661925 0.171288431
0.993131876 0.732598484 0.160479501
0.288982242 0.623282671 0.097645819
0.311483383 0.621454358 0.098651946
0.332200170 0.619565785 0.097659364
0.356404811 0.618216097 0.098233998
0.385553211 0.621891081 0.102579936
0.419473320 0.627556384 0.110043243
0.456937820 0.633513510 0.120266482
0.496459723 0.639286637 0.133064240
0.537477374 0.645438313 0.146950245
0.580074549 0.653563738 0.161117107
0.623822033 0.664400220 0.175474852
0.668915927 0.678236067 0.183620870
0.715850174 0.699890494 0.181087479
0.770301402 0.739799380 0.164546236
0.835946858 0.768489301 0.161719054
0.911860228 0.785720050 0.160666987
0.991265893 0.798679292 0.153588429
0.236920252 0.694569528 0.100672364
0.269491643 0.693562865 0.101023741
0.297447890 0.692665696 0.098411739
0.328367472 0.691935003 0.096687801
0.362878978 0.694838583 0.098161921
0.401028007 0.700185835 0.102729924
0.442088008 0.706371129 0.110084549
0.485172838 0.712940335 0.120233111
0.530269504 0.720363557 0.132157922
0.577545941 0.729626179 0.143842846
0.626094401 0.741233647 0.154270098
0.674231827 0.754029393 0.163013965
0.722631693 0.767930925 0.165353090
0.774139524 0.787743628 0.158335090
0.839774668 0.820765257 0.142092228
0.913040757 0.846303940 0.137806773
0.990914822 0.864430964 0.142209962
0.173385471 0.774748385 0.094345480
0.220179632 0.774512053 0.094651297
0.257708460 0.774519444 0.090802357
0.297034353 0.774524033 0.087215796
0.338408619 0.777103901 0.086036861
0.382041454 0.782174170 0.088248789
0.427745372 0.788368702 0.093297482
0.475178599 0.795447767 0.100954294
0.524516582 0.803715885 0.110589035
0.575658023 0.813468754 0.120395847
0.627460003 0.824551940 0.128620908
0.678939402 0.836414695 0.134080350
0.730321944 0.848443925 0.135975853
0.783409357 0.861300409 0.132478148
0.842163503 0.878952086 0.123126134
0.913566113 0.903987885 0.111373216
0.992951930 0.926423907 0.105765097
0.087735184 0.869464934 0.078466251
0.159883320 0.869673073 0.079430938
0.211207941 0.870422065 0.074698128
0.261513472 0.871570587 0.070599250
0.311501920 0.873851299 0.067772187
0.362168580 0.878782809 0.067843437
0.413798153 0.885151684 0.070832811
0.466529638 0.892466903 0.075836129
0.520318508 0.900736094 0.082370631
0.574877858 0.910096526 0.089344814
0.629719317 0.920204341 0.095504940
0.684707761 0.930575311 0.099051505
0.740198731 0.941049576 0.098916069
0.797123194 0.951848269 0.095457546
0.857784688 0.963462412 0.089845248
0.923910797 0.977494955 0.083764747
0.995884120 0.990803361 0.078172699
0.000000000 0.000601125 0.006197625
0.037087373 0.018029813 0.006197625
0.117433876 0.026515124 0.016794750
0.179476768 0.052161507 0.049137820
0.246287227 0.072210625 0.076211378
0.315414250 0.088445067 0.098430939
0.382405281 0.101110622 0.116535127
0.445538968 0.110470876 0.131452948
0.504863799 0.116162002 0.143513754
0.561341584 0.118436873 0.153694242
0.616003752 0.118168503 0.163066998
0.669279158 0.116250001 0.172417253
0.721932054 0.112921752 0.181477755
0.774937272 0.108040810 0.189566374
0.829390049 0.101529121 0.196617872
0.886374474 0.093543932 0.202297866
0.948892117 0.086137250 0.207601368
0.007719314 0.041132811 0.006198250
0.062163431 0.056099128 0.010059312
0.118415065 0.071805805 0.031921189
0.176194385 0.090831816 0.057206880
0.243967324 0.106874682 0.081707507
0.313422501 0.120340683 0.101695314
0.381071270 0.131059945 0.117017239
0.445254028 0.138699949 0.129291818
0.505695045 0.143841699 0.139703497
0.563184619 0.146889493 0.149051622
0.618531883 0.148469314 0.158216998
0.672279894 0.149238378 0.167842746
0.725345552 0.149134189 0.177577361
0.778553605 0.147880197 0.186734632
0.833215892 0.144998252 0.194794446
0.890411079 0.139813557 0.201191947
0.952799499 0.134582251 0.207224816
0.025025999 0.089157127 0.010386625
0.070819885 0.097017556 0.036344938
0.118995495 0.107050635 0.065381505
0.172248006 0.124978811 0.080841631
0.238845885 0.140816748 0.096211374
0.307838440 0.153586820 0.110942997
0.375104278 0.163725257 0.123710632
0.439441085 0.171488434 0.134760305
0.500600874 0.177020505 0.144415006
0.559195757 0.180664748 0.153190494
0.616154253 0.182817131 0.161553264
0.672163904 0.183724806 0.169594750
0.727719784 0.183489248 0.177268758
0.783217728 0.182042301 0.184446007
0.839796722 0.179264635 0.190728754
0.898226142 0.175062984 0.196111947
0.961399496 0.171546370 0.202103108
0.035162628 0.139310062 0.035402257
0.079247445 0.145224005 0.050806440
0.126917318 0.147962689 0.065706566
0.183845252 0.158390254 0.088731319
0.239991993 0.174926713 0.107960813
0.305149823 0.188127324 0.119968623
0.370628506 0.198170751 0.129521251
0.434157550 0.205299839 0.138363928
0.495359182 0.210240886 0.146674633
0.554677486 0.213726506 0.154644549
0.612740278 0.216301382 0.162451684
0.669994116 0.218093768 0.170192882
0.726912022 0.219027698 0.177667379
0.784094632 0.218814835 0.184485763
0.842371225 0.217194647 0.190438628
0.902673244 0.214425832 0.195468247
0.967701077 0.211504579 0.200178444
0.041040249 0.194206759 0.058549125
0.088955618 0.198247567 0.063343629
0.137659624 0.195359007 0.069348246
0.192242697 0.200411439 0.083532006
0.251609862 0.211527765 0.104840375
0.304884762 0.224960059 0.124283686
0.368728906 0.236696884 0.135217741
0.430935889 0.244721264 0.143358186
0.491127521 0.249946862 0.150613248
0.550203323 0.253484964 0.157609254
0.608888626 0.255986750 0.164733753
0.667472243 0.257852077 0.171963617
0.726130605 0.259164661 0.179124877
0.785156250 0.259833694 0.185945243
0.845174074 0.259680867 0.192066014
0.906992435 0.258751929 0.197642133
