hollywood-luts/The Amazing Spider-Man.cube
TITLE "17x17x17 Adobe/IRIDAS cube 3D LUT exported with GrossGrade v0.2.2 (beta) 64 bit"
DOMAIN_MIN 0 0 0
DOMAIN_MAX 1 1 1
LUT_3D_SIZE 17
0.000000000 0.002366000 0.001577000
0.079138122 0.006094437 -0.000163000
0.146214381 0.015288999 -0.000524000
0.211068943 0.029839190 -0.000785688
0.273813754 0.043468751 -0.001048000
0.335895747 0.053561438 -0.001309813
0.394771397 0.063413627 -0.001572000
0.450581133 0.074334763 -0.001833938
0.505120516 0.084651008 -0.002095500
0.558807194 0.093992934 -0.002357500
0.610805213 0.103703000 -0.002619625
0.661548376 0.112022378 -0.002881500
0.711901784 0.115718253 -0.003143750
0.759409606 0.117868498 -0.003405500
0.804611444 0.118778124 -0.003667750
0.849081814 0.119090252 -0.003928313
0.897962987 0.119034000 -0.004188000
-0.000419063 0.072243504 0.022948250
0.095009059 0.072610065 -0.000372063
0.163470447 0.078154124 -0.000620187
0.227510691 0.085430875 -0.000248187
0.289142251 0.091924563 0.002264750
0.347131759 0.098635748 0.002196250
0.403107017 0.105243936 -0.000415438
0.457373917 0.112056002 -0.001819500
0.510786891 0.119039372 -0.002115563
0.563447237 0.126409501 -0.002374500
0.614606619 0.134643301 -0.002633875
0.664605260 0.142260194 -0.002894000
0.714156032 0.146720573 -0.003154750
0.761359632 0.149465814 -0.003415625
0.806502640 0.151143432 -0.003677125
0.851028085 0.152145386 -0.003937563
0.899883926 0.152532741 -0.004195500
-0.000838125 0.133555621 0.047640126
0.105849504 0.132834569 0.018253436
0.177851245 0.135178626 0.015554250
0.241718248 0.138999879 0.013972938
0.300629109 0.143464863 0.011427127
0.356868684 0.147709563 0.008973187
0.411334664 0.151823252 0.005763249
0.465098917 0.155618116 0.001757186
0.518136561 0.159478992 -0.001187251
0.570247531 0.164017439 -0.002440938
0.620784521 0.169635743 -0.002691875
0.669612885 0.175789565 -0.002945188
0.717607260 0.180452630 -0.003200375
0.764389813 0.182870686 -0.003456500
0.809311748 0.184480116 -0.003714000
0.853768826 0.185522497 -0.003971250
0.902779639 0.186023623 -0.004226625
-0.001257188 0.192106068 0.058418687
0.110012814 0.191546187 0.031633377
0.186968252 0.191513211 0.023332564
0.251431257 0.193633705 0.022580003
0.310507238 0.196331441 0.020980440
0.365798503 0.199320704 0.018907940
0.419460475 0.202304140 0.016212001
0.472533852 0.205096766 0.012634874
0.525497079 0.207633257 0.007029938
0.577714384 0.210152268 0.000768252
0.627876163 0.213587075 -0.002519937
0.675628841 0.218007639 -0.003043375
0.722346902 0.221775576 -0.003287937
0.768668950 0.223428756 -0.003535438
0.813307345 0.224450827 -0.003785688
0.857706904 0.225152940 -0.004036501
0.906838596 0.225477695 -0.004286250
-0.001676250 0.248966008 0.064659253
0.111018002 0.248415112 0.040290065
0.192284495 0.247289881 0.030098625
0.257886887 0.248416126 0.032314438
0.317652524 0.250083745 0.033091251
0.373648643 0.251986116 0.031379562
0.427264273 0.254228503 0.028993998
0.479855716 0.256584257 0.025286812
0.532196760 0.258828253 0.019009247
0.584085047 0.260807127 0.009510938
0.634289742 0.262972862 0.000394751
0.681846440 0.266115308 -0.003190188
0.727977455 0.269108772 -0.003420500
0.773984432 0.270345569 -0.003656000
0.818588972 0.271064878 -0.003895750
0.863081694 0.271516800 -0.004137001
0.912414253 0.271643758 -0.004379250
-0.002094625 0.304993063 0.072151378
0.110610314 0.304362386 0.052892253
0.193412989 0.302873641 0.041024499
0.261836201 0.303283483 0.041206434
0.322843581 0.304598510 0.044300504
0.379525065 0.305918097 0.044584811
0.433696300 0.307284296 0.041363873
0.486219496 0.308877409 0.036630623
0.538021445 0.310655564 0.029296311
0.589378655 0.312367618 0.017733812
0.639499366 0.314152241 0.004175625
0.687337518 0.316557884 -0.003382812
0.733486414 0.319119066 -0.003596625
0.779453933 0.320372105 -0.003817500
0.824270904 0.321219325 -0.004044250
0.869068623 0.321781635 -0.004273875
0.918742299 0.321881950 -0.004506375
0.014581631 0.360284656 0.081045754
0.110894442 0.360016853 0.065714508
0.191466123 0.358899772 0.053082753
0.263469338 0.358646244 0.049110692
0.325954765 0.359470993 0.051688127
0.383574128 0.360476196 0.053301688
0.437940985 0.361366510 0.051720124
0.490883708 0.362170160 0.045645680
0.542561531 0.363240242 0.036722500
0.593510211 0.364529252 0.023093125
0.643469393 0.366019130 0.006724375
0.691782236 0.367959768 -0.003616250
0.738444269 0.370131791 -0.003812250
0.784684598 0.371511579 -0.004016813
0.829988956 0.372579783 -0.004229250
0.875433862 0.373366654 -0.004446063
0.925664485 0.373537272 -0.004666375
0.036643259 0.414757550 0.089936249
0.114682622 0.414978594 0.076320753
0.188959688 0.414701968 0.062118568
0.262347311 0.414165407 0.055599503
0.326605231 0.414636016 0.055235188
0.385386825 0.415380657 0.056706689
0.440556258 0.416064411 0.056240372
0.493428409 0.416628957 0.052190743
0.545579910 0.417061687 0.041118305
0.596516848 0.417838335 0.024959497
0.646357596 0.418937087 0.007389624
0.695147753 0.420393407 -0.003883500
0.742701948 0.422085553 -0.004062125
0.789454401 0.423512459 -0.004249875
0.835436285 0.424726158 -0.004447187
0.881733775 0.425671846 -0.004650438
0.932674408 0.425903976 -0.004857625
0.053328503 0.468420506 0.097296000
0.118777372 0.469249189 0.084324375
0.187340498 0.469868004 0.069147870
0.258891523 0.469721198 0.059752561
0.325124741 0.469891995 0.056497753
0.384742320 0.470692366 0.056339875
0.441164136 0.471377879 0.055377245
0.494895071 0.471913218 0.051320367
0.546864986 0.472306013 0.039732493
0.598350167 0.472599208 0.018621624
0.648608923 0.473194391 0.004655371
0.697786927 0.474222332 -0.004178000
0.746309757 0.475433230 -0.004340750
0.793824196 0.476751328 -0.004512813
0.840699673 0.477977395 -0.004694625
0.887915969 0.478972733 -0.004883938
0.939535975 0.479207516 -0.005078000
0.065626934 0.521736145 0.102678254
0.122133754 0.523162007 0.090061441
0.186044812 0.524614990 0.074920692
0.253978670 0.525467634 0.061379373
0.321454078 0.525619686 0.055405561
0.382396936 0.526373863 0.052301124
0.439721644 0.527318239 0.049409185
0.494792819 0.528026521 0.040864803
0.547768950 0.528519511 0.024562873
0.599110663 0.528812170 0.014329500
0.649997056 0.529026806 -0.003375000
0.700021625 0.529470086 -0.004495750
0.749334514 0.530289590 -0.004642750
0.797754228 0.531330585 -0.004800813
0.845716715 0.532417178 -0.004967875
0.893934965 0.533363819 -0.005143187
0.946204245 0.533566296 -0.005323750
0.075705625 0.575256109 0.106112875
0.125751808 0.577075601 0.093587317
0.185322881 0.579251111 0.078524381
0.249133095 0.581420243 0.060011938
0.316031039 0.582061112 0.050573375
0.378733635 0.582788467 0.042965688
0.436813533 0.583924115 0.034112372
0.493001848 0.584832788 0.022390243
0.547215998 0.585521996 0.011425618
0.599654436 0.585936666 -0.002787000
0.650691748 0.586160481 -0.003950250
0.701357722 0.586331725 -0.004529000
0.751645684 0.586609364 -0.004866125
0.801087558 0.587201715 -0.005108313
0.850190699 0.588004231 -0.005262500
0.899523795 0.588808954 -0.005424688
0.952572465 0.588925481 -0.005591875
0.084081873 0.629453301 0.107527249
0.129892185 0.631556749 0.094684437
0.185412675 0.634264588 0.079267628
0.245548651 0.637697458 0.055266995
0.310220838 0.639336526 0.036805313
0.373951137 0.640116274 0.024202250
0.433231443 0.641193748 0.014991309
0.489889681 0.642308533 0.004041684
0.545184612 0.643087745 -0.004164688
0.598708749 0.643654525 -0.004894500
0.650803268 0.643974602 -0.004783063
0.701972663 0.644183934 -0.004157750
0.752822280 0.644348085 -0.004306875
0.803583443 0.644495070 -0.005246563
0.853985429 0.644925714 -0.005574500
0.904624701 0.645518064 -0.005725125
0.958550632 0.645469248 -0.005880313
0.089539498 0.684883296 0.106814995
0.132922679 0.687178195 0.093199432
0.184991866 0.690265477 0.076680496
0.242481574 0.694544792 0.046185613
0.304392010 0.697370529 0.017177997
0.368122667 0.698307753 0.001699438
0.428739607 0.699096382 -0.004111000
0.486023724 0.700075924 -0.004794125
0.541679561 0.701013803 -0.005276750
0.596303463 0.701719165 -0.005351688
0.649638772 0.702206016 -0.005401000
0.702008367 0.702551126 -0.005220313
0.753670454 0.702816486 -0.004343000
0.805094123 0.703047097 -0.004296126
0.857057929 0.703251779 -0.005712500
0.909225643 0.703662276 -0.006028812
0.964009762 0.703495026 -0.006185000
0.090736493 0.741205513 0.101303980
0.134434491 0.743536830 0.086733356
0.183947623 0.747014284 0.067044474
0.240140617 0.751626909 0.029007228
0.299242288 0.755456448 0.003171616
0.361701280 0.756808817 -0.005206063
0.422952831 0.757486343 -0.005560751
0.481275469 0.758382022 -0.005610625
0.537494779 0.759383619 -0.005670438
0.592714131 0.760260880 -0.005740751
0.647269130 0.760954916 -0.005818938
0.701060414 0.761507094 -0.005866438
0.754246354 0.761937380 -0.005693938
0.806834340 0.762300551 -0.004802001
0.859566391 0.762698710 -0.004745000
0.913041472 0.763015509 -0.005990374
0.968825340 0.762696862 -0.006249311
0.083433352 0.797263324 0.085458346
0.132477760 0.799835443 0.069563210
0.181523129 0.803457320 0.043869331
0.237969518 0.808042705 0.005245488
0.295149893 0.812819242 -0.005437001
0.355463564 0.815204144 -0.005933438
0.416439503 0.816143453 -0.005969501
0.475533545 0.816929877 -0.006014876
0.532701671 0.817880213 -0.006069375
0.588606596 0.818896115 -0.006132938
0.643975377 0.819717705 -0.006206376
0.698963284 0.820443511 -0.006286876
0.753577888 0.821159184 -0.006352876
0.807793021 0.821713984 -0.006273063
0.861975193 0.822306454 -0.005402251
0.916302621 0.822892904 -0.004789375
0.972751856 0.822727680 -0.005347250
0.065061547 0.852074742 0.053917635
0.125688747 0.854620636 0.031802278
0.179675683 0.857926607 0.001332431
0.235627517 0.862531364 -0.005660814
0.291257918 0.868534744 -0.006320125
0.348878056 0.872727275 -0.006345125
0.409073651 0.874316037 -0.006377812
0.468831271 0.875039399 -0.006418813
0.526913106 0.875831425 -0.006468500
0.583686352 0.876799285 -0.006527251
0.639795244 0.877798617 -0.006594938
0.695824206 0.878737211 -0.006670751
0.751847088 0.879692674 -0.006754563
0.807626605 0.880637884 -0.006829563
0.863557637 0.881579578 -0.006757875
0.919535458 0.882520795 -0.005877939
0.976701319 0.882444859 -0.004887940
0.053309999 0.903940022 -0.001647000
0.127140939 0.905982792 -0.003625125
0.180330619 0.909473777 -0.006336500
0.233495444 0.914848328 -0.006714750
0.287897259 0.922334969 -0.006731250
0.342465252 0.929422557 -0.006753875
0.401279658 0.932208478 -0.006784500
0.461357266 0.932857454 -0.006822750
0.520227015 0.933639050 -0.006868500
0.578061163 0.934736013 -0.006922125
0.635167122 0.935919523 -0.006984000
0.692126811 0.937093556 -0.007054313
0.749298036 0.938377500 -0.007132750
0.806534886 0.939633548 -0.007219000
0.864062071 0.940914750 -0.007298875
0.921694517 0.942275107 -0.007312312
0.980516016 0.943072021 -0.007317000
0.014328750 0.016268188 0.048637625
0.080031559 0.014150376 0.064865753
0.147576824 0.004709188 0.066433258
0.215402901 0.020330813 0.065615438
0.280743212 0.032477498 0.062623627
0.342609614 0.041528188 0.057472497
0.401889533 0.049679257 0.052389562
0.457796693 0.059892192 0.050402060
0.512553692 0.068960190 0.048664879
0.567370415 0.074902311 0.045022748
0.621619880 0.078328997 0.038853873
0.674764633 0.078435495 0.028702877
0.725965142 0.074464999 0.015236873
0.773129702 0.069975182 0.003616559
0.815671682 0.069411688 -0.000111688
0.855789959 0.071823001 -0.000244437
0.901787996 0.073730253 -0.000261750
0.017388750 0.075640999 0.081430435
0.091140933 0.075714126 0.069274813
0.167184204 0.072741814 0.062337317
0.232607782 0.073217370 0.053006373
0.292913079 0.076536059 0.045221560
0.350484997 0.081090510 0.038516246
0.406485170 0.086700194 0.033022687
0.460789382 0.093664683 0.029616185
0.514440954 0.100623429 0.027137876
0.567754924 0.106952749 0.024436809
0.620131493 0.112886935 0.020870935
0.671478093 0.117130175 0.015529439
0.721658289 0.118011445 0.008489936
0.768685997 0.117921755 0.002251374
0.812446058 0.119066618 -0.000122250
0.854610443 0.122536622 -0.000244437
0.902693629 0.132247135 -0.000261750
0.001210064 0.135913625 0.095350184
0.081219375 0.136921242 0.072728686
0.171938255 0.136577308 0.062718876
0.240454838 0.137686670 0.056199934
0.301334202 0.140087754 0.050101683
0.358408004 0.143064007 0.044883877
0.413364410 0.146338999 0.039877120
0.467294097 0.149678305 0.035051376
0.520559669 0.153146550 0.031145435
0.573317170 0.156828195 0.027826188
0.625024021 0.160782382 0.024080187
0.675361395 0.164311260 0.018501189
0.724466681 0.166074127 0.010911437
0.771255970 0.166611612 0.003548246
0.815001309 0.168095812 0.000037625
0.857193708 0.171224564 -0.000245063
0.905115008 0.172723129 -0.000262250
-0.001127688 0.194740012 0.109374687
0.073034935 0.194937691 0.078219444
0.176463634 0.193385869 0.062729061
0.246604770 0.194619700 0.060138065
0.308625758 0.196207076 0.056050129
0.365523905 0.198262006 0.052210439
0.420111090 0.200494453 0.048285250
0.473712116 0.202724129 0.044041809
0.526906908 0.204837024 0.038802378
0.579468191 0.206892565 0.033075504
0.630639970 0.209206507 0.027956188
0.680052161 0.211532891 0.022187378
0.728198886 0.212894827 0.014008437
0.774768353 0.213031769 0.005191308
0.818424463 0.213909179 0.000253937
0.860805273 0.216076314 -0.000247438
0.909270167 0.216055334 -0.000264437
-0.001676250 0.250984818 0.117283754
0.069031872 0.251055866 0.082873374
0.178836763 0.249206752 0.065364435
0.251951396 0.249597013 0.064702630
0.314676851 0.250841260 0.064103186
0.372411758 0.252194941 0.061268564
0.427037001 0.253929466 0.058246996
0.480332702 0.255828828 0.054512624
0.533056915 0.257668138 0.049163938
0.585213423 0.259274572 0.041652624
0.636088610 0.260793179 0.033479877
0.685096502 0.262471706 0.026282314
0.732748270 0.263560116 0.017663872
0.779160976 0.263542712 0.007288743
0.822931945 0.264103502 0.000543624
0.865707874 0.265494138 -0.000252125
0.914828300 0.265047520 -0.000268687
-0.002096500 0.305568606 0.124384061
0.067575499 0.306186914 0.090599939
0.178747430 0.304658294 0.072658189
0.255592436 0.304424196 0.069819689
0.319602311 0.305431098 0.071870126
0.378018707 0.306499690 0.071701497
0.433200091 0.307547331 0.068425439
0.486319244 0.308846861 0.064327061
0.538518310 0.310336530 0.058573373
0.590145648 0.311784565 0.049974810
0.640772521 0.313154817 0.039373502
0.689750016 0.314600885 0.029978879
0.737321079 0.315732032 0.020990811
0.783820927 0.315954804 0.009247616
0.828027546 0.316597372 0.000826624
0.871483088 0.317710370 -0.000259375
0.921271443 0.317268193 -0.000275375
-0.001242114 0.360320568 0.130956694
0.071269132 0.361155242 0.099742316
0.177311569 0.360383451 0.082622565
0.257088989 0.359712571 0.076185942
0.322669506 0.360265166 0.077789754
0.381931007 0.361111820 0.079139374
0.437344134 0.361845911 0.077979803
0.490855932 0.362426490 0.072920308
0.542870998 0.363304466 0.066184059
0.594114959 0.364409536 0.056425378
0.644529581 0.365610719 0.044186000
0.693722785 0.366940409 0.032906562
0.741533875 0.368130505 0.023274183
0.788275540 0.368712187 0.010358677
0.833131373 0.369559348 0.000865874
0.877559900 0.370626658 -0.000269250
0.927993894 0.370331019 -0.000284500
0.022327637 0.414769709 0.137086302
0.082926691 0.415604472 0.108624563
0.176596746 0.415769279 0.091530316
0.255803943 0.415153235 0.082782313
0.323288560 0.415356219 0.081556253
0.383674234 0.415959537 0.083022565
0.439837545 0.416558087 0.083008066
0.493338287 0.417029649 0.080249742
0.545823097 0.417309284 0.071968809
0.597051799 0.417928874 0.060603749
0.647372007 0.418810904 0.047275752
0.696830869 0.419853479 0.034626376
0.745177150 0.420956582 0.023831749
0.792278171 0.421864331 0.010020741
0.837949634 0.422900021 0.000534812
0.883687437 0.423861831 -0.000281625
0.934839070 0.423722953 -0.000295938
0.048467755 0.468264073 0.142644554
0.094560198 0.469306827 0.116210058
0.177140817 0.470481247 0.099288940
0.252396941 0.470608652 0.087973624
0.321716756 0.470553219 0.084238186
0.382951587 0.471202523 0.084203124
0.440389544 0.471812874 0.084055372
0.494730145 0.472308010 0.081722118
0.547058165 0.472624600 0.074628621
0.598839998 0.472812772 0.060373813
0.649550617 0.473248482 0.047702871
0.699361384 0.473980695 0.034349062
0.748427272 0.474819958 0.021506248
0.796152353 0.475821495 0.007510617
0.842759669 0.476931244 0.000026125
0.889767289 0.477784216 -0.000296188
0.941673040 0.477751255 -0.000309562
0.065068565 0.521213055 0.147356555
0.103283376 0.522668362 0.122309372
0.177425385 0.524749219 0.106099367
0.248071328 0.526108861 0.091683127
0.317889988 0.526217520 0.085601002
0.380628198 0.526818097 0.083163753
0.438878834 0.527695835 0.081734248
0.494581014 0.528380156 0.077246740
0.547919273 0.528864324 0.068171814
0.599590063 0.529121518 0.059851624
0.650908351 0.529251158 0.043810874
0.701476455 0.529526830 0.031926248
0.751220822 0.530081630 0.017003749
0.799785137 0.530895412 0.003552496
0.847532094 0.531831264 -0.000286188
0.895648181 0.532607794 -0.000312750
0.948309362 0.532618463 -0.000325188
0.077564500 0.574376941 0.151022315
0.111054815 0.576187611 0.126947492
0.178047508 0.578945398 0.111268684
0.244266674 0.581655860 0.093688816
0.312538087 0.582547307 0.084729873
0.376889288 0.583159447 0.079251185
0.435975403 0.584224641 0.074198127
0.492744356 0.585182309 0.067785680
0.547406793 0.585906088 0.060234684
0.600209773 0.586366296 0.048808999
0.651662469 0.586587608 0.039362252
0.702764153 0.586646855 0.025659123
0.753343701 0.586734354 0.011092750
0.802834272 0.587130666 0.000522499
0.851788282 0.587742269 -0.000319938
0.901059151 0.588356137 -0.000331000
0.954490662 0.588349879 -0.000342438
0.087466873 0.628380775 0.153430074
0.118391559 0.630407691 0.129968196
0.179410264 0.633642137 0.114377253
0.241923779 0.637482047 0.094086997
0.306952417 0.639702559 0.078963563
0.371912539 0.640528262 0.070337132
0.432289273 0.641593456 0.063661620
0.489587575 0.642796636 0.055868618
0.545371652 0.643718481 0.047686994
0.599416971 0.644352794 0.039295562
0.651931524 0.644659877 0.028422313
0.703407407 0.644746125 0.017797563
0.754376411 0.644720256 0.003353187
0.805092096 0.644651830 -0.000119250
0.855375230 0.644899130 -0.000340438
0.905920684 0.645297170 -0.000350688
0.960116863 0.645175815 -0.000361250
0.094586745 0.683720767 0.154423937
0.124028191 0.685880423 0.131277308
0.180140868 0.689421415 0.115374506
0.239883944 0.693962336 0.092449993
0.301374376 0.697670341 0.069532499
0.365731895 0.698961914 0.057257436
0.427437335 0.699890316 0.050061114
0.485546350 0.701070130 0.043718301
0.541827977 0.702140868 0.034408435
0.596970797 0.702874839 0.025573373
0.650774300 0.703285158 0.013890688
0.703377426 0.703399956 0.002622625
0.755081058 0.703366578 0.001057062
0.806432068 0.703385293 0.001051249
0.858263135 0.703414738 -0.000173938
0.910239398 0.703689814 -0.000359125
0.965248525 0.703396440 -0.000381062
0.098383680 0.739899337 0.152722314
0.127500191 0.742069483 0.129060000
0.180102944 0.745889783 0.112008430
0.237742662 0.750846326 0.085386544
0.296188682 0.755864263 0.059381109
0.358833790 0.757951558 0.045452293
0.421160012 0.758857131 0.037013035
0.480471641 0.759915113 0.028161664
0.537451088 0.760992527 0.015975986
0.593250096 0.761761606 0.004715620
0.648192048 0.762194455 0.000587000
0.702174842 0.762460887 -0.000211750
0.755396724 0.762593091 -0.000056188
0.807926118 0.762716949 0.000933625
0.860593021 0.762956381 0.001083001
0.913907111 0.763129592 -0.000058249
0.969797671 0.762674928 -0.000226812
0.095358171 0.795876920 0.146419421
0.126241788 0.798162341 0.119851224
0.178007692 0.802272201 0.100721478
0.234497637 0.807480633 0.071890920
0.291328996 0.813596368 0.044166159
0.351767153 0.816987574 0.026782792
0.413931429 0.818117261 0.012688991
0.474314600 0.818794727 0.004163433
0.532389820 0.819551647 0.000917310
0.588851690 0.820344448 -0.000147062
0.644584239 0.820926905 -0.000372000
0.699827254 0.821348011 -0.000385812
0.754536271 0.821780384 -0.000366187
0.808723450 0.822155535 -0.000192813
0.862782896 0.822603345 0.000776750
0.916938305 0.823023558 0.001381438
0.973440647 0.822752118 0.000714626
0.081227466 0.850475848 0.133374244
0.117672995 0.852801263 0.099747352
0.173848808 0.856954277 0.076902673
0.229464948 0.862582207 0.055196159
0.286218494 0.869618177 0.021282669
0.344812155 0.874633789 0.004535122
0.406353533 0.876221240 0.000416937
0.467341959 0.876679063 -0.000191813
0.526287019 0.877234042 -0.000375438
0.583657622 0.877987325 -0.000404438
0.640139997 0.878817618 -0.000408750
0.696371078 0.879555941 -0.000413625
0.752472758 0.880236983 -0.000418188
0.808318377 0.880906403 -0.000405375
0.864074767 0.881681621 -0.000239688
0.919895887 0.882521629 0.000728936
0.977167606 0.882483363 0.001797685
0.048077814 0.903188109 0.109974563
0.105525941 0.905413747 0.072768942
0.167019367 0.909799814 0.057224818
0.222734645 0.916025639 0.022597123
0.281639069 0.923321486 0.003970500
0.338653773 0.930645227 -0.000150000
0.398724020 0.933589160 -0.000422625
0.459782094 0.934221089 -0.000424875
0.519425094 0.934850872 -0.000427625
0.577799559 0.935709417 -0.000430937
0.635269523 0.936708510 -0.000434813
0.692444623 0.937749207 -0.000439312
0.749703705 0.938821256 -0.000444375
0.806931019 0.939887047 -0.000449312
0.864356816 0.941024244 -0.000440687
0.921820402 0.942175269 -0.000358937
0.980541348 0.942703545 -0.000259500
0.026883876 0.031950999 0.096628375
0.078759059 0.032734685 0.121703625
0.146022886 0.028411875 0.118855000
0.214311451 0.033812001 0.120342687
0.280500263 0.044924125 0.120113246
0.342980444 0.052690998 0.117545255
0.402382642 0.058200750 0.113531128
0.459888816 0.062102377 0.109408751
0.516144276 0.064688243 0.105551876
0.572134018 0.065203495 0.100787684
0.627539277 0.063386872 0.094789118
0.681703091 0.057573624 0.086487874
0.733797491 0.045287371 0.074842498
0.782520771 0.027185049 0.061524749
0.826407075 0.012727249 0.054978512
0.865080535 0.010057066 0.064203382
0.909292340 0.010356877 0.075206250
0.031854875 0.081704937 0.134462059
0.080353685 0.084123939 0.132540435
0.156776994 0.080827504 0.127112314
0.229039580 0.077633567 0.123223945
0.293049395 0.078394443 0.117856324
0.352795303 0.079937756 0.112050317
0.410193920 0.082109064 0.106239252
0.466203660 0.084612124 0.100994185
0.521248877 0.087180376 0.096460752
0.575983942 0.088976443 0.091728128
0.630094767 0.089533061 0.086170189
0.683013380 0.087390497 0.078419685
0.734110892 0.080703683 0.067472562
0.782263577 0.070004791 0.054597300
0.826769650 0.059238177 0.043567926
0.869028449 0.050510123 0.033597536
0.922854006 0.050123379 0.003808875
0.025724750 0.137784243 0.146925122
0.067539446 0.142088011 0.145421743
0.159956232 0.141142622 0.128654867
0.239444464 0.136817440 0.121703625
0.303970367 0.135489389 0.113709755
0.364090085 0.133622244 0.103876382
0.421154022 0.131846622 0.093473248
0.476106137 0.130875051 0.083565049
0.529819906 0.130882367 0.074562371
0.582960665 0.131309867 0.065526001
0.635387361 0.131603122 0.055010624
0.686652064 0.130778059 0.041062437
0.735976279 0.128213748 0.024002623
0.781706989 0.125974685 0.009186745
0.823252559 0.127311498 0.002251752
0.863351107 0.133275121 0.002164271
0.920622766 0.135858893 0.024509624
0.011886499 0.196344644 0.157045558
0.055380691 0.199397251 0.148813009
0.153580114 0.198830649 0.130721688
0.237766519 0.197390258 0.121872246
0.306893826 0.196046829 0.113368496
0.367684007 0.195575401 0.105226934
0.424654961 0.195286512 0.097122431
0.479549170 0.195239767 0.089191183
0.533335924 0.195387959 0.081251740
0.586340129 0.195589393 0.072780058
0.638426840 0.195546135 0.062574819
0.689219058 0.194780901 0.048529189
0.738214195 0.193039060 0.030099373
0.784166694 0.191373140 0.012134678
0.826003909 0.192410201 0.002676689
0.866723597 0.196132571 0.002378273
0.922977567 0.191452563 0.025887625
0.000246624 0.253119886 0.169997111
0.047145747 0.255060196 0.157371759
0.144186988 0.254874647 0.127741873
0.239226043 0.252724141 0.117273688
0.309806019 0.252746761 0.112959996
0.371976614 0.252439022 0.106560931
0.429175884 0.252591491 0.100490876
0.484064758 0.252987385 0.094324753
0.537647426 0.253454626 0.087615751
0.590316236 0.253775090 0.079667002
