hollywood-luts/The Lost City of Z.cube
TITLE "17x17x17 Adobe/IRIDAS cube 3D LUT exported with GrossGrade v0.2.2 (beta) 64 bit"
DOMAIN_MIN 0 0 0
DOMAIN_MAX 1 1 1
LUT_3D_SIZE 17
0.000000000 0.000000000 0.000000000
0.029222813 0.002416875 -0.000261562
0.070398122 0.007380875 -0.000524000
0.120145127 0.013093937 -0.000785688
0.180501014 0.015479499 -0.001048000
0.248168439 0.012616187 -0.001309813
0.316496253 0.007702124 -0.001572000
0.382931828 0.004579500 -0.001833938
0.447085023 0.004019500 -0.002095500
0.510680795 0.004622375 -0.002357500
0.575231612 0.005671250 -0.002619625
0.639596343 0.008991250 -0.002881500
0.701874018 0.018827256 -0.003143750
0.760505497 0.037391085 -0.003405500
0.816149592 0.057930768 -0.003667750
0.865349412 0.076654255 -0.003928313
0.913339972 0.086842999 -0.004188000
0.007680000 0.030752812 -0.000419063
0.046063125 0.030877501 -0.000470625
0.085848063 0.034509752 -0.000641187
0.132574022 0.039891250 -0.000859750
0.188919380 0.042885438 -0.001099188
0.252279699 0.042277500 -0.001347750
0.319650024 0.037805565 -0.001601063
0.385113209 0.035217375 -0.001857375
0.448468119 0.035351127 -0.002115563
0.511988223 0.036463689 -0.002374500
0.576437414 0.038149815 -0.002633875
0.640918493 0.040818438 -0.002894000
0.704017341 0.046538942 -0.003154750
0.763570011 0.059279457 -0.003415625
0.818579316 0.077878386 -0.003677125
0.866643429 0.095533945 -0.003937563
0.913429022 0.105149567 -0.004195500
0.010985000 0.076957248 0.018453000
0.054476373 0.077130936 0.003590312
0.097659752 0.075761124 -0.000942125
0.146736085 0.076777816 -0.001087500
0.201956123 0.077950120 -0.001274000
0.261636496 0.077974379 -0.001485438
0.324696153 0.076358251 -0.001712750
0.388105720 0.075275749 -0.001949688
0.450781405 0.075587496 -0.002193000
0.514165878 0.076510310 -0.002440938
0.578501523 0.077936620 -0.002691875
0.642968178 0.079761811 -0.002945188
0.706604362 0.082678251 -0.003200375
0.767423928 0.089711577 -0.003456500
0.822924852 0.103141762 -0.003714000
0.868794262 0.119091384 -0.003971250
0.913412213 0.127951875 -0.004226625
0.031538881 0.129922822 0.047864757
0.068885379 0.129204646 0.040447757
0.110542938 0.128303066 0.026359446
0.156421393 0.127398521 -0.001412868
0.208000571 0.126523450 -0.001548618
0.269352943 0.124925762 -0.001716874
0.330688953 0.124149136 -0.001908188
0.392158031 0.123775825 -0.002116688
0.453797191 0.124151066 -0.002337125
0.516871750 0.124724142 -0.002566500
0.581138432 0.125547826 -0.002802562
0.645503938 0.126637518 -0.003043375
0.709486008 0.128031582 -0.003287937
0.771736741 0.130811647 -0.003535438
0.828660429 0.137993336 -0.003785688
0.872280717 0.150355905 -0.004036501
0.913535714 0.158409759 -0.004286250
0.058786754 0.184597254 0.076169752
0.088836253 0.183751807 0.071700498
0.126130626 0.182796121 0.064151123
0.170107961 0.181574568 0.050306182
0.217403501 0.180882499 0.026067503
0.271411300 0.179561451 0.000314441
0.333927751 0.177475378 -0.002171750
0.396441102 0.176401436 -0.002349000
0.458164006 0.176254258 -0.002542750
0.520591199 0.176521063 -0.002749250
0.584344387 0.177012622 -0.002965875
0.648442626 0.177722245 -0.003190188
0.712337792 0.178693250 -0.003420500
0.775034904 0.179889381 -0.003656000
0.833060026 0.182797626 -0.003895750
0.875496507 0.189865693 -0.004137001
0.913807988 0.195678756 -0.004379250
0.084561124 0.240762815 0.107204124
0.110034443 0.240093946 0.104532816
0.143505499 0.239042133 0.099961564
0.185108006 0.237678826 0.092863560
0.231433123 0.236552060 0.081690058
0.280418396 0.236165434 0.064280443
0.334847450 0.235678881 0.029140115
0.399213672 0.232695743 0.002692936
0.462935954 0.230832189 -0.002799312
0.525784552 0.230370313 -0.002982375
0.589163303 0.230335876 -0.003177500
0.652737021 0.230503991 -0.003382812
0.716141820 0.231062248 -0.003596625
0.778335989 0.232109189 -0.003817500
0.836032212 0.234124675 -0.004044250
0.877652645 0.238612622 -0.004273875
0.915121019 0.242104188 -0.004506375
0.109354258 0.298365653 0.138853505
0.131747067 0.297819406 0.137080699
0.161930755 0.296802282 0.133895889
0.201150775 0.295473337 0.129287884
0.246523365 0.294093281 0.122927502
0.295017749 0.293134540 0.114003256
0.345070243 0.293264508 0.100670755
0.398729622 0.293527573 0.071873002
0.464175791 0.289892763 0.031144649
0.530046523 0.286921382 0.006896714
0.594906509 0.285252273 -0.002513733
0.658611774 0.284395903 -0.003616244
0.721465945 0.284334391 -0.003812250
0.782918155 0.285088718 -0.004016813
0.839622676 0.287061155 -0.004229250
0.880603731 0.290662140 -0.004446063
0.918195367 0.292877644 -0.004666375
0.134364337 0.356703281 0.169437006
0.154422879 0.356286854 0.168160900
0.181787014 0.355368793 0.165750325
0.218505219 0.354148656 0.162198067
0.262130290 0.352686346 0.157386452
0.310189933 0.351317167 0.151430190
0.360411346 0.350564361 0.143596455
0.410933971 0.351063669 0.132284567
0.464027017 0.351677984 0.110397965
0.530052125 0.348044604 0.071170598
0.598139346 0.344154477 0.029608035
0.664183795 0.341091931 0.006211024
0.727983534 0.339288175 -0.004062118
0.789216995 0.338906288 -0.004249875
0.844889164 0.340521961 -0.004447187
0.885457158 0.343473256 -0.004650438
0.923208952 0.345172912 -0.004857625
0.158674002 0.416853517 0.198992014
0.177126825 0.416518331 0.198052764
0.202271134 0.415680766 0.196251392
0.236877441 0.414472878 0.193435386
0.278713495 0.413044274 0.189521998
0.325387686 0.411618352 0.184338391
0.375323892 0.410439372 0.178262502
0.426564395 0.409860462 0.170646995
0.477834523 0.410503030 0.159859002
0.531689703 0.411409140 0.139640570
0.597425699 0.408341378 0.102108769
0.665958166 0.404062271 0.053599518
0.732533753 0.400142789 0.008731013
0.795593381 0.397440463 -0.004512813
0.852006674 0.397278607 -0.004694625
0.892459393 0.399226815 -0.004883938
0.930030465 0.400600523 -0.005078000
0.182224616 0.480945200 0.228622258
0.199387252 0.480603844 0.227875069
0.222646877 0.479839504 0.226443619
0.255360633 0.478726268 0.224096939
0.295607954 0.477344543 0.220855370
0.341172248 0.475888431 0.216509447
0.390194476 0.474573076 0.210938305
0.441151857 0.473576069 0.204350054
0.493311852 0.473312527 0.195998505
0.545758784 0.474298537 0.184438318
0.600203395 0.475838691 0.162888750
0.663888812 0.473829508 0.120738626
0.733027935 0.469051480 0.059628863
0.799046874 0.464758694 0.006593176
0.858712614 0.461744249 -0.004967875
0.900496185 0.461691171 -0.005143187
0.938053906 0.462451518 -0.005323750
0.206056625 0.550054908 0.260066390
0.221963003 0.549687982 0.259298950
0.243327618 0.549073637 0.257943392
0.274054348 0.548129022 0.255764931
0.312668890 0.546855867 0.252805263
0.357023180 0.545463979 0.248967439
0.405247152 0.544019520 0.243950501
0.455658406 0.542762101 0.237745747
0.507632971 0.542139530 0.230151117
0.560815275 0.542381108 0.220149934
0.614230990 0.543722868 0.206213623
0.667837918 0.546098232 0.181593627
0.729766607 0.545029998 0.122927099
0.799512267 0.539537430 0.042477451
0.863070905 0.534879386 -0.005262500
0.908283234 0.532640755 -0.005424688
0.947113514 0.532517672 -0.005591875
0.229713187 0.623094261 0.293787301
0.244681627 0.622757077 0.292943567
0.264418066 0.622288346 0.291612476
0.293181062 0.621479869 0.289541304
0.329932898 0.620360315 0.286725134
0.372675061 0.619069278 0.283137143
0.419721037 0.617697775 0.278366834
0.469435751 0.616299510 0.272307336
0.521236420 0.615357339 0.264822811
0.574453712 0.615184605 0.255432695
0.628471911 0.615751684 0.242589876
0.682665348 0.617130399 0.223488629
0.736399770 0.619723797 0.189383358
0.797119498 0.619176447 0.103180408
0.865212679 0.613161504 0.009654613
0.914389491 0.609891593 -0.005725125
0.955795050 0.608882964 -0.005880313
0.251602262 0.697370231 0.328924507
0.266000599 0.697104931 0.328265131
0.284648627 0.696685016 0.327095032
0.311816514 0.695969820 0.325190574
0.346745759 0.695025027 0.322493255
0.387749672 0.693874717 0.319017261
0.433155030 0.692614794 0.314628989
0.481885254 0.691297174 0.308752388
0.533395231 0.690202236 0.301023781
0.586888194 0.689582825 0.291099757
0.641262531 0.689635634 0.278298765
0.696193218 0.690400541 0.260217488
0.751550019 0.691844523 0.231173486
0.806650281 0.694091320 0.171935767
0.865873933 0.693651736 0.071576558
0.917593062 0.690238893 -0.004212877
0.961809218 0.688201487 -0.006142250
0.271620542 0.770722389 0.365653902
0.285455585 0.770498157 0.365093261
0.303095102 0.770119190 0.363910705
0.328965664 0.769498765 0.362036973
0.362535477 0.768665075 0.359290272
0.402353317 0.767638624 0.355593592
0.446463585 0.766460598 0.351121783
0.494013757 0.765347004 0.345555276
0.544808745 0.764444709 0.338070542
0.598292589 0.763788462 0.327717394
0.653257072 0.763488293 0.313666910
0.708965182 0.763915360 0.294693530
0.765124619 0.765078664 0.266828299
0.821638286 0.766626298 0.213025659
0.875689924 0.769086897 0.106621295
0.921948671 0.770322561 0.004805114
0.967894375 0.769089460 -0.006276875
0.290531665 0.841274798 0.403372765
0.303987980 0.841191292 0.402870655
0.320652544 0.840793610 0.401694387
0.345346689 0.840238035 0.399785757
0.377646506 0.839605331 0.396947026
0.416250765 0.838804424 0.393104970
0.459482670 0.837683558 0.388051897
0.506516695 0.836670518 0.381792516
0.556676745 0.836031556 0.374213398
0.609308779 0.835724175 0.364251137
0.664033353 0.835620046 0.349866033
0.720381856 0.835940957 0.328809410
0.777621806 0.836838722 0.298279524
0.834916174 0.838383317 0.246845722
0.889874220 0.840476274 0.138691545
0.932892203 0.843617380 0.020202307
0.973427773 0.845228195 -0.006286854
0.309086829 0.906216204 0.440866739
0.322037131 0.905983508 0.440232664
0.337789029 0.905730784 0.439250112
0.361332089 0.905475736 0.437426895
0.392299771 0.905092835 0.434756041
0.429447770 0.904468715 0.430959880
0.471619129 0.903583646 0.425698698
0.518257201 0.902879298 0.418715209
0.568376660 0.902462661 0.409922481
0.620787084 0.902420163 0.398982167
0.674945414 0.902797282 0.384448290
0.730955482 0.903384745 0.363125026
0.788460910 0.904140949 0.330162942
0.846316457 0.904983044 0.276618659
0.900725365 0.906239033 0.183479577
0.938706338 0.908230662 0.063292228
0.974411905 0.909160733 0.004933844
0.330518991 0.953948975 0.477986991
0.343005568 0.953765273 0.477348566
0.357950002 0.953370571 0.476460755
0.380108714 0.952964187 0.474756449
0.409429759 0.952521503 0.472341239
0.444693387 0.951914966 0.468969852
0.485324621 0.951146483 0.464341104
0.530906796 0.950343847 0.457747489
0.580296993 0.949294508 0.448501498
0.632322669 0.948204041 0.436359674
0.686152637 0.947457254 0.420885116
0.741392970 0.946801305 0.400121987
0.797928512 0.945727229 0.369839221
0.854298532 0.943891644 0.323405951
0.905673683 0.941330254 0.256361932
0.938355684 0.939315319 0.192038044
0.970719993 0.938989997 0.169343993
0.005808750 0.006376875 0.021013126
0.034500938 0.010100625 0.044494689
0.085579500 0.000635000 0.026005998
0.140410006 0.000276625 0.021560498
0.198622867 0.000511187 0.015787063
0.258887947 0.000261624 0.013579061
0.320050657 -0.000453812 0.016181752
0.382234335 -0.001140750 0.019850628
0.444898397 -0.001511000 0.022786314
0.508188367 -0.001689062 0.024065625
0.572727919 -0.001835312 0.022644499
0.637426615 -0.001836875 0.017351000
0.700269818 -0.001237375 0.008026250
0.759666443 0.001697823 -0.000209562
0.816184878 0.011169892 -0.000227062
0.866949499 0.029777385 -0.000244437
0.916314721 0.041606750 -0.000261750
0.013348125 0.033700310 0.046525311
0.046969686 0.033446249 0.034983750
0.099291623 0.025308002 0.006824560
0.149903074 0.025471810 0.003273500
0.204529688 0.026692372 0.002790688
0.263764143 0.024619311 0.002803437
0.325959712 0.020345252 0.003480501
0.388574302 0.017246624 0.004279125
0.450922996 0.015883375 0.004889438
0.513824403 0.015933687 0.005120499
0.577851295 0.017587062 0.004769374
0.641971588 0.020808123 0.003564436
0.704490066 0.026670754 0.001497063
0.763583481 0.038086142 -0.000209562
0.819061220 0.054184701 -0.000227062
0.868029356 0.071390942 -0.000244437
0.916382194 0.078663304 -0.000261750
0.020128625 0.078714751 0.050885502
0.050490811 0.079730310 0.037950940
0.100638315 0.077017374 0.015480123
0.154692143 0.074031875 0.001221188
0.211039677 0.073188066 0.000148000
0.269285470 0.072186880 0.000112688
0.329985082 0.070110068 0.000104063
0.391715974 0.068139441 0.000153375
0.453548580 0.067436248 0.000190125
0.516366482 0.067844436 0.000210938
0.580304563 0.069323249 0.000191126
0.644443393 0.071517378 0.000121625
0.707704663 0.074785694 -0.000039313
0.768168986 0.081800893 -0.000210250
0.823678732 0.093944699 -0.000227687
0.870159030 0.107454434 -0.000245063
0.916080117 0.111055620 -0.000262250
0.036193065 0.131722078 0.071468815
0.060613818 0.131888270 0.060319755
0.108574130 0.130198509 0.046910696
0.157773450 0.128316447 0.020255569
0.212244883 0.125752777 0.001384070
0.273492008 0.123205006 -0.000078246
0.334297627 0.121682383 -0.000098687
0.395272046 0.120492153 -0.000113875
0.456666559 0.119995758 -0.000129687
0.519376338 0.120238885 -0.000145938
0.583223403 0.121136576 -0.000162500
0.647200704 0.122391194 -0.000179250
0.710801721 0.123934641 -0.000196188
0.772730052 0.126881585 -0.000213187
0.829413414 0.133612394 -0.000230313
0.873322189 0.144043148 -0.000247438
0.915919244 0.148189887 -0.000264437
0.058572065 0.186427996 0.098712318
0.079191059 0.186181068 0.087574258
0.122199558 0.184809133 0.080428503
0.168741137 0.183130503 0.067673370
0.217715293 0.181936815 0.044893436
0.273615360 0.179528013 0.012361440
0.336960703 0.176343888 0.001533126
0.399304003 0.174579129 -0.000126938
0.460897893 0.173730314 -0.000140812
0.523301244 0.173387930 -0.000155500
0.586850464 0.173679993 -0.000170812
0.650590539 0.174472883 -0.000186563
0.714067459 0.175580427 -0.000202625
0.776479423 0.176913366 -0.000218937
0.834257603 0.179730952 -0.000235500
0.876489401 0.185776755 -0.000252125
0.915497601 0.189079136 -0.000268687
0.082538001 0.242650181 0.127247572
0.100505248 0.242166325 0.117458761
0.138742119 0.240926355 0.112805754
0.182521328 0.239294946 0.105803497
0.230362743 0.237869948 0.095239125
0.280402243 0.237146363 0.078466311
0.336194813 0.235866681 0.043389738
0.401268244 0.232129440 0.013180746
0.465182126 0.229679257 0.001983374
0.528271794 0.228495687 -0.000169250
0.591763556 0.227792993 -0.000183000
0.655177355 0.227612808 -0.000197438
0.718236804 0.228090182 -0.000212375
0.780236065 0.229124174 -0.000227750
0.837901711 0.230846927 -0.000243500
0.879034400 0.234299555 -0.000259375
0.916403890 0.235372752 -0.000275375
0.106527388 0.300051868 0.155499443
0.122901753 0.299557537 0.147640392
0.157046437 0.298449516 0.144362196
0.198158473 0.296997219 0.139712065
0.244776681 0.295399755 0.133396074
0.294193745 0.294268459 0.124676384
0.344995886 0.294089824 0.111660764
0.399792761 0.293754101 0.083705887
0.465494215 0.289786726 0.045557082
0.531611681 0.286463380 0.019437900
0.596745849 0.284267038 0.004763769
0.660786152 0.282664329 -0.000118117
0.723811686 0.281899452 -0.000225249
0.785304308 0.282233268 -0.000239500
0.842139006 0.283729911 -0.000254250
0.882531345 0.286468983 -0.000269250
0.919772863 0.286596715 -0.000284500
0.131420776 0.358262926 0.183657393
0.146489024 0.357763231 0.177318588
0.177095383 0.356798470 0.174845383
0.215350598 0.355463356 0.171245202
0.260092735 0.353912950 0.166439518
0.308955282 0.352381110 0.160526127
0.359764993 0.351459086 0.152734324
0.410829306 0.351753652 0.141604066
0.464604527 0.352047205 0.120232210
0.530898571 0.348205209 0.084474102
0.599172473 0.344113946 0.044538662
0.665449023 0.340711296 0.014018089
0.729845762 0.338064432 0.001248821
0.791700661 0.336762965 -0.000253875
0.847843945 0.337530762 -0.000267562
0.887691855 0.339854270 -0.000281625
0.925184965 0.339900017 -0.000295938
0.156283319 0.418275297 0.212020263
0.170138955 0.417783439 0.206594691
0.197969511 0.416926116 0.204719186
0.233812571 0.415652722 0.201904505
0.276536137 0.414165437 0.197899386
0.323918462 0.412634760 0.192766681
0.374414027 0.411290079 0.186746821
0.426104158 0.410602331 0.179174513
0.477667153 0.411130041 0.168494135
0.531886339 0.411851972 0.148767889
0.598103106 0.408541530 0.113362014
0.666843891 0.404041946 0.065460451
0.733805060 0.399715036 0.016755074
0.797651649 0.396197855 -0.000016501
0.854752898 0.395082712 -0.000283125
0.894651771 0.396480352 -0.000296188
0.932263017 0.396637738 -0.000309562
0.180286750 0.482200682 0.241009995
0.193245068 0.481747776 0.236181170
0.218718007 0.480975091 0.234678000
0.252446055 0.479816794 0.232382804
0.293501556 0.478373170 0.229086548
0.339644611 0.476865441 0.224723518
0.389121264 0.475465238 0.219165072
0.440464407 0.474353611 0.212616444
0.492935747 0.473988563 0.204388618
0.545612454 0.474866509 0.192950055
0.600472271 0.476186514 0.171712995
0.664723098 0.473884076 0.131424502
0.734141886 0.468813717 0.070261985
0.800713003 0.464035988 0.013182987
0.860783100 0.460434824 -0.000300688
0.902399123 0.459833711 -0.000312750
0.940334558 0.459753126 -0.000325188
0.204192877 0.551226020 0.271967024
0.216519684 0.550800383 0.267582685
0.239685804 0.550157726 0.266134888
0.271237433 0.549180210 0.264031321
0.310563058 0.547841191 0.261074364
0.355501562 0.546361029 0.257241756
0.404163659 0.544891357 0.252235442
0.454927713 0.543557644 0.246011123
0.507206738 0.542790949 0.238386497
0.560658157 0.542930007 0.228559822
0.614337921 0.544181705 0.214818373
0.668227136 0.546381831 0.190492317
0.730648518 0.544985056 0.134254098
0.800668597 0.539252639 0.054332137
0.864478350 0.534248948 0.001890810
0.909559906 0.531619847 -0.000331000
0.948722422 0.530998886 -0.000342438
0.228101000 0.624190152 0.305390745
0.239916623 0.623849213 0.301385164
0.261124104 0.623313129 0.299934506
0.290583014 0.622507334 0.297904879
0.327929646 0.621337533 0.295070738
0.371252090 0.619954348 0.291459739
0.418745428 0.618500888 0.286702752
0.468800843 0.617032111 0.280684650
0.520886719 0.615992904 0.273228496
0.574409664 0.615685880 0.263854563
0.628658652 0.616189897 0.251202494
0.682988822 0.617514789 0.232508004
0.736656666 0.620036185 0.199434847
0.797673225 0.619256854 0.115541898
0.866129220 0.612990439 0.021357730
0.915010571 0.609557927 -0.000350688
0.956331015 0.608478546 -0.000361250
0.250560313 0.698328197 0.340249449
0.261983812 0.698126197 0.336731464
0.281789005 0.697615385 0.335513711
0.309559345 0.696913779 0.333600998
0.345028311 0.695932686 0.330866814
0.386579692 0.694741964 0.327359498
0.432395160 0.693405211 0.322946519
0.481420606 0.691973805 0.317093700
0.533110559 0.690823495 0.309493929
0.586766362 0.690192342 0.299782246
0.641342223 0.690171599 0.287226140
0.696373641 0.690839887 0.269511282
0.751736045 0.692216933 0.241410121
0.806936264 0.694384992 0.183769837
0.866423130 0.693727672 0.081818670
0.918046474 0.690264344 0.002063373
0.962028444 0.688237727 -0.000317312
0.270887434 0.771539867 0.376487821
0.281996429 0.771342278 0.373397797
0.300558954 0.770898163 0.372243166
0.326947153 0.770295441 0.370380014
0.360964596 0.769450605 0.367666274
0.401181012 0.768418729 0.364016026
0.445578396 0.767214000 0.359601349
0.493398994 0.765998185 0.354084820
0.544451535 0.765014589 0.346682280
0.598103225 0.764357150 0.336516887
0.653190494 0.764062941 0.322788417
0.708990633 0.764419138 0.304348618
0.765217066 0.765428126 0.277363777
0.821781576 0.766930938 0.227825999
0.876028717 0.769320190 0.122058995
0.922280788 0.770495534 0.016313298
0.968161762 0.769358516 0.000002688
0.289829642 0.842057288 0.413849592
0.300861865 0.841846168 0.411070973
0.318319112 0.841508746 0.409889728
0.343458474 0.840977311 0.408036470
0.376164764 0.840258598 0.405309439
0.415125936 0.839409053 0.401504159
0.458582163 0.838280320 0.396544337
0.505787313 0.837230682 0.390446097
0.556135356 0.836563587 0.383028239
0.608972430 0.836219013 0.373249024
0.663860023 0.836088121 0.359120905
0.720332563 0.836372077 0.338606060
0.777642131 0.837260246 0.309193194
0.834998965 0.838665903 0.261184812
0.890036464 0.840715826 0.165141627
0.933086812 0.843869269 0.047523163
0.973786354 0.845596254 0.000667711
0.308171719 0.906711578 0.450963587
0.319167644 0.906542063 0.448452741
0.335508287 0.906307220 0.447365850
0.359458655 0.906030715 0.445583075
0.390799761 0.905539632 0.442958027
0.428306341 0.904959559 0.439160168
0.470705420 0.904098511 0.433999360
0.517525434 0.903289080 0.427223653
0.567787588 0.902822077 0.418683112
0.620325804 0.902766168 0.408071250
0.674627185 0.903136253 0.393948287
0.730750084 0.903754950 0.373140544
0.788378894 0.904460132 0.341201186
0.846329868 0.905270576 0.290413648
0.900749087 0.906478703 0.204609320
0.938731790 0.908404768 0.084071979
0.974435627 0.909381151 0.013073359
0.329588979 0.954291165 0.487690121
0.340440542 0.954295874 0.485503882
0.355721861 0.953979135 0.484497935
0.378344983 0.953561187 0.482958257
0.408007562 0.953022897 0.480613172
0.443564415 0.952329099 0.477309763
0.484371215 0.951591194 0.472726762
0.530161142 0.950729370 0.466178805
0.579745054 0.949628174 0.457088441
0.631875336 0.948503554 0.445246756
0.685789585 0.947705150 0.430242300
0.741082966 0.947057605 0.410140127
0.797619700 0.946022630 0.380790591
0.854162037 0.944160879 0.336107582
0.905688882 0.941473365 0.272245347
0.938398659 0.939388752 0.211497426
0.970787525 0.939054728 0.192775875
0.015176125 0.015548501 0.054193124
0.036038816 0.026184751 0.100656562
0.087242991 0.014515501 0.084022872
0.138280451 0.000201188 0.076168686
0.194014013 -0.000996500 0.072682247
0.255354911 -0.001242562 0.066665627
0.318188995 -0.001523375 0.062461004
0.380808532 -0.001808375 0.061501309
0.443472385 -0.002076375 0.062306382
0.506639600 -0.002333125 0.064058691
0.570875168 -0.002588625 0.065544754
0.635443449 -0.002839938 0.064382434
0.698496401 -0.003063125 0.055009987
0.758715391 -0.003120624 0.033237353
0.817080319 -0.001829621 0.008993242
0.871146023 0.001789939 0.000635187
0.923437715 0.004054751 0.000634375
0.026005501 0.041494690 0.098697193
0.037579689 0.045312002 0.114265755
0.093528122 0.038689755 0.092438936
0.150682315 0.021703685 0.073247008
0.208246946 0.007123811 0.060574248
0.267488539 0.004265251 0.049567562
0.327707708 0.003537564 0.042869125
0.388607442 0.002827250 0.041098438
0.450044841 0.002317624 0.041526124
0.512452841 0.002134876 0.042465374
0.576209664 0.002507250 0.042249501
0.640329242 0.003251564 0.038276747
0.703171015 0.004163502 0.028411683
0.763411701 0.006017318 0.014619052
0.820959508 0.009785939 0.003776872
0.873077750 0.014975872 0.000551500
0.923885047 0.012743816 0.000634375
0.028115500 0.082077876 0.104670629
0.052094560 0.083468817 0.100325935
0.101524740 0.082046628 0.083608747
0.161793500 0.072028309 0.053944375
0.221503511 0.061333250 0.031455126
0.281283170 0.053128812 0.018184375
0.341332525 0.046413250 0.013371622
0.401857436 0.040328745 0.011395814
0.462887913 0.035209376 0.009485748
0.524917066 0.032113504 0.007523941
0.588058949 0.031776998 0.005384501
0.651399016 0.033612750 0.003051627
0.713410676 0.037892628 0.001113998
0.772171378 0.047185324 0.000146937
0.826861024 0.061203510 0.000025875
0.874064982 0.071914583 0.000057563
0.923565745 0.026046753 0.000635250
0.041586880 0.134292513 0.105571315
0.062534876 0.135376826 0.101049140
0.106281191 0.134790391 0.089630693
0.160258189 0.130867273 0.065083191
0.221311808 0.123765074 0.025582572
0.283777863 0.117292009 0.007933008
0.344228804 0.113084577 0.005615127
0.404578775 0.109756261 0.006991125
0.465570152 0.107283510 0.007595562
0.527750015 0.105803460 0.005874688
0.590976357 0.105179951 0.002979125
0.654393435 0.105215952 0.000881062
0.717238843 0.106428951 0.000127812
0.777905405 0.110451452 0.000047062
0.833158970 0.118370518 0.000021250
0.876492918 0.127020121 0.000054563
0.922818124 0.108946756 0.000635250
0.060240377 0.189397752 0.124964878
0.077461250 0.189803943 0.120604187
0.113711625 0.189582005 0.109201506
0.165766776 0.186863512 0.097406119
0.218894124 0.184224635 0.075529620
0.279381752 0.179079205 0.036097065
0.344564110 0.173398137 0.013531000
0.406989098 0.169937819 0.008792812
0.468557745 0.167578638 0.008175750
0.530968070 0.165935874 0.006244250
0.594277263 0.165198252 0.002992875
