hollywood-luts/The Fast and the Furious.cube
TITLE "17x17x17 Adobe/IRIDAS cube 3D LUT exported with GrossGrade v0.2.2 (beta) 64 bit"
DOMAIN_MIN 0 0 0
DOMAIN_MAX 1 1 1
LUT_3D_SIZE 5
0.000000000 0.000000000 0.000000000
0.192021757 0.012491250 0.010433250
0.419712514 0.058844004 0.048847005
0.669588208 0.117510006 0.101039000
0.930961013 0.180102006 0.155463994
0.063818753 0.171731755 0.044370003
0.215690762 0.177236259 0.037162498
0.460366249 0.174726516 0.044942755
0.706614494 0.208532512 0.103282511
0.946448505 0.256140769 0.154704243
0.164067507 0.365709007 0.124670006
0.271535754 0.370571256 0.124747507
0.477896512 0.381412029 0.113813013
0.757461309 0.374848008 0.104112506
0.979206502 0.401264012 0.146911502
0.286473274 0.591320515 0.207266748
0.375889510 0.593942761 0.208910510
0.530028045 0.602885008 0.203159019
0.761294246 0.612283826 0.191241756
0.976543486 0.631746233 0.257624269
0.461677998 0.884595990 0.348208010
0.538802505 0.885521770 0.354272008
0.660329998 0.892670512 0.361233503
0.825853467 0.904785514 0.365791261
0.974793971 0.918729007 0.543973982
0.010891750 0.013208001 0.113248251
0.186434999 0.023705002 0.142942742
0.432824254 0.040652003 0.146771014
0.683375001 0.098303750 0.170377508
0.945924997 0.156470001 0.208741501
0.053634249 0.176003754 0.157738492
0.203133002 0.182586491 0.157493263
0.431295514 0.204632267 0.175788000
0.699308753 0.234121010 0.204256758
0.956743956 0.253349006 0.216756254
0.162649006 0.367790490 0.204773009
0.259151012 0.377992749 0.199293762
0.470990777 0.385942280 0.202900007
0.742398024 0.389740497 0.213619009
0.976472974 0.409122288 0.232437998
0.283643275 0.593013287 0.273082018
0.366872489 0.600026011 0.270849764
0.530110300 0.605552256 0.274040520
0.756187797 0.615530491 0.267068505
0.973983526 0.636491001 0.331727266
0.459647000 0.885897517 0.410478503
0.543852270 0.887169719 0.423426509
0.673495293 0.890461981 0.446024507
0.829118252 0.903563261 0.458519995
0.974921763 0.920300245 0.601287246
0.035865001 0.042143002 0.247806996
0.165511504 0.054636501 0.266516268
0.410779029 0.069409505 0.301248521
0.694237709 0.085910752 0.312792510
0.956361473 0.142307997 0.332510531
0.043051250 0.172244251 0.308396012
0.204097003 0.187338248 0.305593997
0.424307257 0.203777000 0.315870285
0.703440785 0.224416733 0.325942248
0.973059237 0.230470762 0.330764771
0.139613003 0.375967026 0.334346533
0.248616517 0.383306503 0.337212265
0.455055535 0.393832028 0.335152030
0.706129491 0.416593254 0.351629496
0.963894963 0.421534538 0.361064553
0.279275775 0.597229004 0.388238788
0.358793736 0.604580045 0.386975020
0.490433991 0.621939480 0.365338266
0.746023297 0.622990251 0.372934759
0.974501252 0.640637755 0.432131529
0.465196490 0.887349486 0.515143514
0.551232755 0.888149738 0.524497986
0.668977022 0.894626975 0.538322568
0.830482006 0.904425502 0.570860505
0.976297975 0.924362004 0.665971518
0.064408749 0.072761253 0.383079261
0.176517010 0.079933003 0.406195253
0.381508261 0.102599755 0.434243768
0.662623048 0.116190508 0.499822527
0.962370515 0.130547762 0.535195231
0.073097497 0.180904239 0.458428770
0.215829760 0.199125499 0.465015769
0.417252302 0.212962523 0.478091270
0.674816728 0.235636741 0.517152786
0.973288000 0.230434254 0.541730523
0.118403256 0.373398483 0.537715197
0.239825010 0.384302020 0.541007280
0.457154036 0.397173047 0.538266003
0.701761961 0.413922727 0.544846535
0.971936703 0.419779003 0.555783987
0.244618759 0.607584774 0.566967249
0.336777747 0.612830222 0.569173515
0.485279024 0.625054240 0.572493672
0.723247766 0.633184016 0.562569737
0.977768481 0.636070788 0.575724483
0.457347512 0.894455791 0.649191499
0.548816979 0.894291520 0.655736029
0.672098458 0.899581015 0.667505562
0.808212042 0.916231036 0.667887568
0.980147243 0.931462288 0.743638515
0.102297001 0.108805001 0.571286976
0.203599751 0.112160750 0.603927732
0.392582536 0.135822996 0.627861023
0.642512798 0.159064502 0.680275261
0.938733995 0.164673001 0.764725029
0.115086496 0.205145493 0.644757032
0.239475757 0.221632510 0.653858066
0.424776524 0.237055004 0.677376270
0.668962240 0.258285254 0.710824251
0.952482998 0.261227250 0.786784232
0.118995994 0.388611019 0.777737975
0.258154750 0.398187011 0.770640254
0.459086508 0.404560030 0.802422047
0.719521523 0.414366752 0.799762726
0.966746509 0.427274019 0.811432958
0.231057003 0.620791256 0.843709528
0.331826538 0.626940250 0.845117748
0.491088033 0.636656821 0.849851012
0.726589262 0.634046733 0.846537292
0.974219739 0.642782986 0.838628769
0.442490995 0.904721975 0.850660026
0.544834733 0.903701782 0.845559776
0.669035017 0.909402490 0.849586964
0.803974032 0.925234795 0.871205986
0.985921979 0.940469980 0.896081984
