hollywood-luts/The Fast and the Furious.cube
TITLE "17x17x17 Adobe/IRIDAS cube 3D LUT exported with GrossGrade v0.2.2 (beta) 64 bit"
DOMAIN_MIN 0 0 0
DOMAIN_MAX 1 1 1
LUT_3D_SIZE 17
0.000000000 0.000000000 0.000000000
0.043501876 0.001428750 0.000930000
0.088094875 0.003239000 0.002567875
0.138020262 0.006673876 0.005647314
0.192021757 0.012491250 0.010433250
0.247427315 0.021079250 0.017012687
0.303978920 0.032279253 0.025914878
0.361554742 0.045264572 0.036926754
0.419712514 0.058844004 0.048847005
0.478395313 0.072494753 0.061021876
0.539095223 0.086633749 0.073715255
0.603201449 0.101697497 0.087113068
0.669588208 0.117510006 0.101039000
0.736982524 0.133661643 0.115268201
0.804271281 0.149635896 0.129369885
0.869396389 0.164926693 0.142832145
0.930961013 0.180102006 0.155463994
0.011358750 0.044364378 0.006697500
0.052384689 0.045041248 0.005240625
0.099886186 0.041992623 0.003104625
0.150975645 0.041728061 0.004636439
0.203830495 0.045252942 0.009380250
0.258340627 0.051669061 0.016736001
0.314179212 0.060178939 0.026399568
0.370994598 0.070380569 0.038018569
0.428557247 0.081585504 0.050431695
0.486930311 0.093630195 0.063065939
0.547399640 0.106858440 0.076269940
0.611207128 0.121212184 0.090129316
0.677367210 0.136103690 0.104129501
0.744545341 0.151105896 0.117901452
0.811106980 0.166170269 0.131602898
0.874822319 0.180799142 0.144667208
0.932655036 0.196205437 0.156346187
0.027481001 0.086515002 0.016057625
0.058251936 0.087656498 0.015668251
0.101862624 0.088403374 0.012579500
0.156060457 0.084959373 0.008642563
0.213363260 0.083516747 0.008596625
0.268365324 0.086055189 0.014596875
0.323749900 0.091466881 0.024444381
0.380259961 0.098822884 0.036562569
0.437367916 0.107707128 0.049551632
0.495509505 0.117943183 0.062594377
0.556126535 0.129664376 0.076005749
0.619978726 0.142751008 0.090049192
0.685784221 0.156718373 0.104362383
0.752329588 0.171110645 0.118634701
0.818379819 0.185493380 0.132695273
0.881410420 0.199124202 0.145925269
0.935889125 0.213180378 0.156441748
0.044987567 0.128608271 0.028231503
0.071053691 0.129451454 0.028341690
0.106162757 0.131020457 0.026816066
0.156696141 0.132021755 0.023030628
0.215369195 0.128778383 0.019168317
0.276448995 0.126653254 0.016929567
0.335002691 0.127806813 0.022264818
0.391434222 0.132192269 0.033880632
0.447630525 0.138586894 0.047346439
0.505504429 0.146616012 0.061093561
0.566325307 0.156426951 0.075145565
0.630115807 0.167859763 0.089584939
0.695531726 0.180400133 0.104214884
0.761450529 0.193652824 0.118772015
0.826706886 0.207102716 0.132929832
0.888730407 0.219846576 0.146103814
0.940451145 0.232881755 0.155848190
0.063818753 0.171731755 0.044370003
0.087575004 0.172496200 0.045026816
0.118442625 0.173965380 0.043888874
0.160871774 0.175788566 0.040997438
0.215690762 0.177236259 0.037162498
0.277090937 0.173998505 0.033742689
0.340733767 0.171620250 0.030658253
0.402393222 0.171608314 0.034070756
0.460366249 0.174726516 0.044942755
0.518079638 0.180377573 0.058609564
0.578408003 0.188170508 0.073252380
0.641679168 0.197722763 0.088230625
0.706614494 0.208532512 0.103282511
0.771924853 0.220230207 0.118148386
0.836334288 0.232311636 0.132479399
0.897235930 0.243886441 0.145652577
0.946448505 0.256140769 0.154704243
0.085036434 0.216763064 0.063590497
0.107809752 0.217279255 0.064512059
0.136150002 0.218574435 0.063919812
0.173611447 0.220434874 0.062069245
0.220512941 0.222585678 0.058150373
0.277438074 0.224595994 0.055089187
0.341398418 0.221300378 0.050662626
0.406832904 0.218680307 0.047092628
0.469867557 0.217956632 0.048833750
0.531335235 0.219991565 0.057467688
0.593077123 0.225031495 0.070723258
0.655817449 0.232525259 0.085969813
0.719649792 0.241617262 0.101325311
0.783890426 0.251656771 0.116409205
0.847001255 0.262207925 0.130990952
0.906125009 0.272767514 0.144560009
0.953475654 0.284200311 0.152747184
0.109400511 0.263904631 0.083793633
0.131222069 0.264243066 0.084697694
0.157636389 0.265405655 0.084534258
0.191333458 0.267247349 0.083540186
0.233437389 0.269439012 0.081137635
0.283762753 0.271982580 0.076640449
0.342562169 0.274366021 0.074261382
0.407766223 0.271023631 0.069645695
0.473788023 0.268060386 0.065028511
0.539457619 0.266966343 0.065273628
0.605606854 0.268472522 0.071939625
0.670761824 0.272916198 0.084219195
0.734901130 0.279636145 0.098674752
0.798032820 0.287812263 0.113726512
0.859066606 0.296917766 0.128496006
0.915388465 0.306939483 0.142959937
0.961572468 0.317659408 0.149758115
0.136007518 0.313535899 0.104191385
0.156888828 0.313800663 0.105081826
0.181696206 0.314844072 0.105210818
0.212580964 0.316603333 0.104681760
0.250756890 0.318790346 0.103331946
0.296496391 0.321392030 0.100157768
0.349442065 0.324250400 0.095163882
0.409780890 0.326848596 0.094006255
0.475186080 0.323213100 0.089413077
0.543006659 0.320269704 0.084202573
0.612592578 0.319149673 0.083136946
0.681693912 0.320327133 0.087944195
0.748803020 0.323760211 0.097677253
0.812776864 0.329189777 0.110526636
0.872520506 0.336365640 0.124879636
0.925838947 0.345955104 0.140648127
0.970864594 0.356437027 0.145642310
0.164067507 0.365709007 0.124670006
0.184090570 0.365893155 0.125575185
0.207670763 0.366826773 0.125944749
0.236490399 0.368421257 0.125662565
0.271535754 0.370571256 0.124747507
0.313512504 0.373104960 0.122951820
0.362052381 0.375969648 0.118854627
0.416702330 0.379014701 0.114387125
0.477896512 0.381412029 0.113813013
0.544704795 0.377879322 0.109330505
0.615480304 0.375382900 0.104259506
0.687218904 0.374292850 0.101867817
0.757461309 0.374848008 0.104112506
0.824212849 0.377113342 0.110700831
0.885095298 0.381403625 0.121034883
0.937146664 0.389499366 0.135859251
0.979206502 0.401264012 0.146911502
0.193349436 0.419901192 0.145227373
0.212585002 0.420034558 0.146095812
0.235252753 0.420793116 0.146663249
0.262457013 0.422203362 0.146548495
0.295050621 0.424198210 0.145868123
0.333834291 0.426580757 0.144740567
0.378733575 0.429282486 0.142286867
0.429277182 0.432179183 0.137661189
0.484437346 0.435128629 0.133817628
0.547519326 0.437196940 0.133417621
0.616715074 0.434396267 0.129571244
0.689055443 0.432296276 0.124486879
0.760978281 0.431200564 0.120959058
0.830196381 0.431190461 0.120170817
0.893488646 0.432803869 0.123353012
0.946625531 0.438237190 0.132909581
0.984288573 0.452081233 0.158972070
0.223663881 0.475356370 0.165877879
0.242165819 0.475512743 0.166675687
0.264174879 0.476033479 0.167401493
0.290002257 0.477263153 0.167418748
0.320623994 0.479012847 0.166942865
0.356634319 0.481193423 0.166046575
0.398370624 0.483638018 0.164544255
0.445162952 0.486297697 0.161387682
0.496809870 0.489037514 0.156217366
0.553207517 0.491920322 0.153067246
0.618799865 0.493763655 0.153105497
0.689254880 0.491634876 0.149755180
0.761458755 0.489882976 0.144697115
0.831814885 0.488859445 0.139710009
0.896601319 0.489106894 0.137689382
0.950430095 0.492977947 0.144168228
0.985119760 0.507552028 0.181843504
0.254785120 0.531927645 0.186552569
0.272562653 0.532085121 0.187285051
0.294046700 0.532410860 0.188132003
0.318722755 0.533470690 0.188267052
0.347700894 0.534999132 0.187953323
0.381367445 0.536997795 0.187160939
0.420170575 0.539236248 0.186020941
0.463691473 0.541651964 0.183968738
0.512124777 0.544220507 0.180154681
0.565396547 0.547020316 0.174640507
0.623818338 0.549925148 0.172409251
0.690378904 0.551373661 0.172609568
0.760633945 0.549680293 0.169482008
0.831119835 0.548265696 0.164060310
0.896180391 0.548121989 0.161155462
0.947660327 0.552887201 0.174339607
0.981830060 0.566995144 0.214917243
0.286473274 0.591320515 0.207266748
0.303608745 0.591393292 0.207924262
0.324508011 0.591632009 0.208826870
0.348306447 0.592530787 0.209098056
0.375889510 0.593942761 0.208910510
0.407606184 0.595822752 0.208252266
0.443692744 0.598007441 0.207207501
0.484472156 0.600324094 0.205756187
0.530028045 0.602885008 0.203159019
0.580851555 0.605658829 0.198765829
0.635915995 0.608722270 0.193032131
0.695236266 0.611449838 0.191251069
0.761294246 0.612283826 0.191241756
0.829978049 0.610919356 0.187985450
0.894781053 0.610679984 0.186382025
0.942258239 0.617152572 0.211974427
0.976543486 0.631746233 0.257624269
0.318577230 0.657478988 0.228229076
0.335237145 0.657487035 0.228812397
0.355446905 0.657694042 0.229696140
0.378590345 0.658456981 0.230154514
0.404957712 0.659853280 0.230082512
0.434965611 0.661706567 0.229596525
0.468747109 0.663999557 0.228575215
0.507241607 0.666513205 0.227314666
0.550680935 0.669293463 0.225487471
0.598902345 0.672344148 0.222277030
0.651621521 0.675484240 0.217179850
0.707665682 0.678649187 0.210925415
0.767009854 0.681009710 0.208903521
0.831055582 0.680982113 0.208434969
0.894483864 0.680729210 0.210735321
0.939105272 0.687953293 0.246554732
0.972358882 0.704389989 0.308787823
0.351615161 0.734137595 0.250702292
0.367813081 0.734198153 0.251306474
0.387385279 0.734341323 0.252206892
0.409928113 0.734991491 0.252924412
0.435143769 0.736356556 0.252969027
0.463637412 0.738214612 0.252609789
0.495793313 0.740655303 0.251716167
0.532485545 0.743498147 0.250468612
0.574135959 0.746561527 0.249037907
0.620033920 0.749878049 0.246728972
0.669951022 0.753273785 0.242934793
0.723507881 0.756612301 0.236969978
0.779767394 0.759609401 0.229445413
0.837862968 0.761111259 0.227569118
0.896321952 0.760189176 0.236194223
0.939354599 0.766781688 0.286084414
0.970329642 0.783310652 0.370568454
0.390684009 0.817208588 0.281879932
0.406411916 0.817249775 0.282510340
0.425258040 0.817290545 0.283608556
0.447122931 0.817669094 0.284739912
0.471299589 0.818702817 0.285156935
0.498752445 0.820239127 0.285155177
0.529937148 0.822311401 0.284767449
0.564894021 0.824874222 0.283897042
0.604270399 0.827577353 0.283123761
0.647714555 0.830380559 0.282097459
0.694260895 0.833400846 0.279711246
0.743911147 0.836502612 0.275424421
0.796156526 0.839569867 0.268609136
0.850006223 0.842047930 0.262980878
0.903068423 0.842731953 0.277348071
0.941663682 0.844504356 0.349872291
0.970803082 0.856911242 0.446935326
0.461677998 0.884595990 0.348208010
0.476900190 0.884570658 0.349080831
0.494826972 0.884597003 0.350564361
0.515833020 0.884819567 0.352693617
0.538802505 0.885521770 0.354272008
0.564546466 0.886736572 0.355744511
0.593356133 0.888353705 0.357256383
0.625144899 0.890422821 0.358843178
0.660329998 0.892670512 0.361233503
0.698775828 0.895036340 0.364394695
0.739459038 0.897836983 0.366969258
0.781801522 0.901172340 0.367590815
0.825853467 0.904785514 0.365791261
0.870661378 0.908290446 0.366129726
0.913513541 0.911180079 0.390220225
0.948387444 0.912971795 0.467444062
0.974793971 0.918729007 0.543973982
0.001403437 0.001595625 0.023864999
0.042409688 0.002751563 0.028291874
0.090785310 0.002547563 0.028769499
0.142450705 0.004584876 0.029599940
0.195850313 0.009387376 0.032179877
0.251336932 0.016456751 0.036866628
0.308414519 0.025850503 0.043365188
0.366343856 0.037521757 0.051074006
0.424350888 0.051232565 0.060773753
0.482541054 0.065987118 0.072246879
0.542620301 0.081337251 0.084751502
0.606114030 0.097441562 0.098135248
0.672094226 0.113930069 0.112131312
0.739185095 0.130556077 0.126344204
0.806255400 0.146949440 0.140419140
0.871212900 0.162443131 0.153916150
0.932706654 0.177603573 0.166534007
0.008965313 0.045477189 0.033546563
0.048056252 0.047221873 0.032921251
0.093585499 0.048431002 0.033401500
0.143568009 0.051198125 0.036646880
0.200007766 0.054482624 0.040501311
0.258767039 0.058856186 0.045764439
0.317873299 0.064878948 0.052488633
0.376826048 0.072651759 0.060289260
0.435966313 0.081437945 0.068851508
0.495097995 0.092241004 0.078957438
0.555372357 0.105618879 0.090953432
0.618488014 0.120314062 0.104034625
0.683523893 0.135523319 0.117636941
0.749392807 0.150975779 0.131433517
0.815114796 0.166364387 0.145157561
0.878266156 0.181237578 0.158188015
0.935198545 0.196560755 0.169790879
0.026268812 0.086996056 0.038925439
0.055978872 0.089413628 0.038323753
0.099397063 0.089856878 0.037859999
0.150449380 0.089086249 0.038486063
0.207284018 0.089487687 0.041273192
0.266170502 0.091465816 0.045783252
0.325894713 0.095178001 0.052074566
0.385370195 0.101039439 0.060405757
0.444578826 0.108473442 0.069903068
0.504035950 0.117697619 0.080932371
0.564924419 0.129160300 0.093531743
0.628434956 0.142110437 0.106757313
0.693622589 0.155867130 0.120375946
0.759181440 0.170156091 0.134211764
0.823895097 0.184648275 0.147854581
0.885581255 0.198515519 0.160576269
0.938168287 0.212571427 0.170455188
0.044443939 0.129124627 0.049696937
0.069592074 0.131193757 0.049350441
0.104966052 0.132147148 0.048998691
0.154960006 0.133051187 0.047141939
0.211307064 0.131505817 0.046923630
0.271928757 0.130568460 0.048398629
0.332758844 0.131594136 0.053095378
0.393416613 0.134538576 0.059677757
0.453031182 0.139522448 0.068869695
0.513214111 0.146586016 0.080102995
0.574900091 0.156052440 0.092939876
0.638387442 0.167429134 0.106564626
0.703211308 0.179940134 0.120458320
0.768256962 0.193158448 0.134437516
0.832351029 0.206531331 0.148162335
0.893296599 0.219237581 0.160971522
0.942785382 0.231949627 0.169952616
0.063180499 0.172345996 0.064537689
0.086679876 0.173951373 0.064757437
0.117475629 0.175019443 0.065089002
0.160147503 0.176549628 0.063467875
0.214407891 0.178001434 0.060297564
0.274170637 0.176035509 0.059150815
0.337298036 0.174478307 0.058960810
0.399908662 0.174654260 0.062737629
0.461174160 0.176765427 0.069479004
0.522571802 0.181113258 0.078982688
0.585337758 0.188047141 0.091212437
0.649189174 0.197295636 0.105186880
0.713920474 0.208018899 0.119552068
0.778573036 0.219663769 0.133826762
0.841827035 0.231692016 0.147704154
0.901289403 0.243455574 0.160616711
0.948652327 0.255253494 0.168832928
0.083969124 0.217338875 0.081700251
0.106962629 0.218661368 0.082801186
0.135587692 0.219580740 0.083481625
0.173273638 0.221175760 0.082790062
0.220127374 0.223171443 0.079815939
0.276353478 0.225320429 0.077165373
0.338953465 0.222978547 0.074896559
0.404059798 0.220949262 0.072768062
0.467641979 0.220376045 0.074566938
0.531194210 0.221898690 0.081094936
0.596031129 0.225922883 0.090939872
0.660992861 0.232545301 0.103513755
0.725696802 0.241170943 0.117593244
0.789808095 0.250993967 0.132049009
0.851994991 0.261472404 0.146266013
0.909405768 0.272493988 0.159959063
0.955446780 0.283395946 0.167078003
0.107665196 0.264491200 0.100029252
0.130394563 0.265601218 0.101810195
0.157197252 0.266360253 0.102814749
0.191571027 0.267887950 0.102796875
0.233358309 0.270032287 0.100939691
0.283286333 0.272513896 0.097070016
0.341412455 0.275090694 0.095456690
0.405734807 0.272424698 0.092485942
0.471436292 0.269918829 0.088834696
0.537350774 0.268982053 0.089162439
0.604817867 0.270263642 0.094585627
0.672345817 0.273898065 0.103927627
0.738394141 0.279802680 0.116104320
0.802430749 0.287399501 0.129581094
0.863183677 0.296234608 0.143654466
0.917993665 0.306742251 0.158513457
0.963274360 0.316938788 0.164179698
0.133745134 0.314178646 0.119023770
0.156124011 0.315146923 0.121281825
0.181188390 0.315783560 0.122453883
0.213089481 0.317155898 0.122934885
0.250951290 0.319338202 0.121795446
0.296464205 0.321885467 0.119173512
0.348885477 0.324729472 0.114650756
0.408652186 0.327528656 0.114210889
0.473488897 0.324410409 0.110811576
0.540971696 0.321818829 0.106512710
0.610612810 0.320910633 0.105842814
0.680635571 0.321943849 0.109522566
0.749224007 0.324856639 0.117459878
0.814692140 0.329578847 0.128135324
0.875350714 0.335981488 0.140302822
0.928402960 0.345322549 0.154594064
0.972373784 0.355845451 0.159842625
0.161354512 0.366412401 0.138404250
0.183378249 0.367255390 0.141061068
0.206957325 0.367772639 0.142306015
0.236980140 0.368947446 0.143145189
0.271888793 0.371053457 0.142466009
0.313574433 0.373564750 0.140859812
0.361951709 0.376378596 0.137186125
0.416166574 0.379470885 0.133042499
0.476893991 0.382060528 0.133047372
0.543237150 0.378905863 0.129599139
0.613756239 0.376681656 0.125401631
0.685473740 0.375817835 0.123508818
0.756120622 0.376364589 0.125201136
0.823722243 0.378337979 0.130657509
0.886055529 0.381789446 0.138347194
0.939184725 0.388911813 0.149606705
0.980222046 0.401131094 0.161925063
0.190215990 0.420646995 0.158077866
0.211943120 0.421330333 0.161056682
0.234266132 0.421741486 0.162315816
0.262824416 0.422707766 0.163410500
0.295565546 0.424611568 0.163072258
0.333930671 0.426993340 0.161905184
0.378701329 0.429678231 0.159692109
0.429055512 0.432536304 0.155327618
0.483948022 0.435576379 0.151781499
0.546619594 0.437791228 0.151898190
0.615441263 0.435263097 0.148900196
0.687574744 0.433424801 0.144692495
0.759427965 0.432525873 0.141528949
0.828701913 0.432618260 0.140922248
0.892680407 0.433969557 0.143230066
0.946702182 0.438813508 0.150662720
0.984400690 0.452626437 0.176006436
0.220213696 0.476128697 0.178057119
0.241661429 0.476644874 0.181272179
0.262892872 0.476970851 0.182481989
0.290249705 0.477723122 0.183737621
0.321257174 0.479357123 0.183662996
0.356919438 0.481522262 0.182716429
0.398356140 0.484018773 0.181232482
0.445067704 0.486625850 0.178324372
0.496519297 0.489377379 0.173370928
0.552763283 0.492336482 0.170496434
0.617979527 0.494271189 0.170966938
0.688150406 0.492394269 0.168262064
0.760176420 0.490868956 0.163926259
0.830477834 0.489970744 0.159471184
0.895132065 0.490409970 0.158234805
0.948330402 0.494746238 0.166634142
0.984493136 0.508481801 0.200253382
0.251071990 0.532737911 0.198224112
0.272259802 0.533112586 0.201634109
0.292510688 0.533345819 0.202760369
0.318812966 0.533904374 0.204082802
0.348327994 0.535293818 0.204224691
0.381840795 0.537237346 0.203503191
0.420266509 0.539554000 0.202259064
0.463660985 0.541974723 0.200317487
0.511975348 0.544525445 0.196711048
0.565112948 0.547353268 0.191365987
0.623419821 0.550295234 0.189363688
0.689676106 0.551822662 0.189906120
0.759691000 0.550363898 0.187302545
0.830052853 0.549079418 0.182458639
0.894963384 0.549110889 0.180336401
0.944974601 0.554723918 0.196987033
0.981144428 0.567804515 0.232862562
0.282529533 0.592204332 0.218515679
0.303502828 0.592450380 0.222102061
0.322884291 0.592596650 0.223150834
0.348161161 0.593015373 0.224462196
0.376427174 0.594231963 0.224798620
0.408157825 0.596039057 0.224308014
0.443946153 0.598263919 0.223171145
0.484466761 0.600634098 0.221666932
0.529979110 0.603192210 0.219227642
0.580677032 0.605982125 0.214982808
0.635679662 0.609028935 0.209366262
0.694878042 0.611783266 0.207803264
0.760721326 0.612689376 0.208063185
0.829174280 0.611534417 0.205234587
0.893856168 0.611460149 0.204166099
0.940292478 0.618431091 0.231520563
0.976212859 0.632288158 0.274305433
0.314551800 0.658502519 0.239156201
0.335275203 0.658635318 0.242870197
0.353915334 0.658734202 0.243873775
0.378158450 0.659067869 0.245153069
0.405369461 0.660179138 0.245677277
0.435519218 0.661961079 0.245366573
0.469138473 0.664261460 0.244329840
0.507310987 0.666831553 0.242968842
0.550607502 0.669619322 0.241182640
0.598822832 0.672659218 0.238134593
0.651433110 0.675808430 0.233127087
0.707392991 0.678973794 0.226979211
0.766666293 0.681356728 0.225121081
0.830522656 0.681340575 0.225019351
0.893794775 0.681269348 0.227734953
0.937717915 0.688898265 0.264458895
0.972189188 0.704830647 0.324661195
0.347762436 0.735336959 0.261522532
0.368013650 0.735416353 0.265322655
0.385976464 0.735466182 0.266353220
0.409255832 0.735718071 0.267697334
0.435437143 0.736717880 0.268458843
0.464186549 0.738479018 0.268327206
0.496316284 0.740905404 0.267494380
0.532748222 0.743806362 0.266192049
0.574121773 0.746931195 0.264677346
0.619977593 0.750222683 0.262443900
0.669853389 0.753592134 0.258758962
0.723266184 0.756917596 0.252833903
0.779417217 0.759929478 0.245382488
0.837589085 0.761384368 0.243945003
0.895777822 0.760460973 0.253301233
0.938420892 0.767361403 0.303512692
0.970141530 0.783551574 0.385776460
0.387295306 0.818281233 0.292747170
0.406937480 0.818239510 0.296719104
0.424192876 0.818249464 0.297915995
0.446467310 0.818372965 0.299589902
0.471705317 0.819018424 0.300843626
0.499431014 0.820440471 0.301206917
0.530663371 0.822475314 0.301019192
0.565590978 0.824985743 0.300307810
0.604718029 0.827719986 0.299514294
0.647967458 0.830564618 0.298476100
0.694465101 0.833584905 0.296219409
0.744000077 0.836660981 0.292039037
0.796116292 0.839715838 0.284994781
0.849769592 0.842238605 0.279473782
0.902490795 0.842885733 0.295646727
0.940980434 0.844736159 0.367828578
0.970695496 0.857142985 0.461904347
0.459370822 0.885225058 0.359426141
0.478312999 0.885136962 0.363630831
0.494774193 0.885175526 0.365233362
0.515690148 0.885205507 0.367558002
0.539643586 0.885621488 0.370044887
0.565730631 0.886723399 0.371949762
0.594829559 0.888200343 0.374095142
0.626901567 0.890077055 0.376461238
0.661930442 0.892332315 0.379173219
0.700029373 0.894809723 0.382408321
0.740485013 0.897649705 0.385282725
0.782527089 0.900950432 0.386350811
0.826147377 0.904594719 0.384250373
0.870625794 0.908420384 0.383231044
0.913305581 0.911263943 0.408131897
0.948100448 0.913042545 0.483929455
0.974754632 0.918924034 0.558338404
0.003464000 0.004332250 0.049539499
0.039008502 0.006679937 0.054640125
0.086860754 0.007379125 0.061601877
0.142387584 0.005622000 0.062773563
0.198493257 0.007852750 0.062992752
0.254218638 0.014417063 0.064957127
0.310843527 0.023557130 0.069117501
0.368556589 0.035150755 0.074904755
0.426872134 0.047956128 0.081950754
0.485760629 0.061254874 0.090204567
0.546749413 0.075051747 0.099524379
0.610865831 0.090120248 0.110499062
0.676796973 0.106696382 0.123367250
0.743531644 0.123915628 0.137361452
0.810229957 0.140828013 0.151456013
0.874887645 0.156767458 0.164969087
0.936102509 0.172320873 0.177680999
0.007078751 0.044279814 0.066046059
0.047618687 0.048616253 0.065675378
0.091423184 0.050161563 0.066318750
0.142793879 0.052142128 0.066291377
0.198445693 0.055483252 0.068494812
0.258314162 0.058187187 0.070756748
0.319214642 0.061762191 0.073894322
0.379823297 0.067409940 0.078370064
0.440049946 0.074571513 0.083890505
0.499683440 0.084918752 0.091731191
0.559944868 0.098765627 0.102373570
0.622727513 0.114065684 0.114743687
0.687479377 0.129821748 0.127941877
0.753023386 0.145871580 0.141554818
0.818366230 0.161726952 0.155177072
0.881309748 0.176888317 0.168168947
0.938164771 0.192057684 0.179886997
0.022007251 0.088439628 0.070966750
0.053707939 0.090321690 0.071316183
0.094996877 0.091624498 0.070051253
0.145401314 0.093414307 0.069813624
0.198513627 0.097447366 0.075092882
0.256152064 0.101880193 0.080432065
0.316391528 0.106774122 0.085958123
0.377406806 0.112766750 0.092422314
0.438161671 0.119901501 0.099841125
0.499995202 0.128015056 0.108105242
0.564518571 0.137251124 0.117299631
0.632172763 0.146882311 0.126852751
0.700370669 0.157453880 0.137023509
0.766297460 0.170383155 0.148871019
0.830357790 0.184278622 0.161372393
0.891190588 0.198109254 0.173427999
0.942011118 0.211998373 0.183280379
0.042649813 0.129996568 0.077874810
0.067022815 0.132150128 0.077419117
0.100354373 0.134334639 0.074982621
0.151950642 0.134593830 0.075444557
0.206049070 0.135310009 0.077534065
0.264342904 0.136832327 0.081836559
0.324586451 0.139336750 0.086913005
0.385860771 0.143028066 0.092990436
0.446922660 0.148087695 0.100196749
0.509187937 0.154557467 0.108477436
0.574073553 0.162680253 0.118056692
0.641571462 0.172064006 0.128332809
0.709625304 0.182597190 0.139335200
0.775715888 0.194628447 0.151581779
0.839424968 0.207244948 0.164170399
0.898952842 0.219663888 0.176076561
0.946239650 0.231185004 0.183565930
0.063022375 0.172806397 0.090315752
0.084585130 0.174852893 0.088926494
0.113392994 0.177204505 0.087839000
0.157668635 0.178059071 0.088005692
0.212467372 0.179207370 0.086828254
0.269708663 0.179182693 0.088505439
0.331486017 0.179274753 0.090593621
0.393852532 0.180500001 0.094711751
0.455726385 0.183158517 0.100656494
0.518377900 0.187518001 0.108522497
0.583653748 0.193728775 0.117991872
0.651092947 0.201529011 0.128469676
0.719153643 0.210586384 0.139546514
0.785434246 0.220997497 0.151505828
0.848399878 0.232365385 0.164091006
0.905869246 0.244288266 0.176623434
