hollywood-luts/The Amazing Spider-Man.cube
TITLE "17x17x17 Adobe/IRIDAS cube 3D LUT exported with GrossGrade v0.2.2 (beta) 64 bit"
DOMAIN_MIN 0 0 0
DOMAIN_MAX 1 1 1
LUT_3D_SIZE 5
0.000000000 0.002366000 0.001577000
0.273813754 0.043468751 -0.001048000
0.505120516 0.084651008 -0.002095500
0.711901784 0.115718253 -0.003143750
0.897962987 0.119034000 -0.004188000
-0.001676250 0.248966008 0.064659253
0.317652524 0.250083745 0.033091251
0.532196760 0.258828253 0.019009247
0.727977455 0.269108772 -0.003420500
0.912414253 0.271643758 -0.004379250
0.053328503 0.468420506 0.097296000
0.325124741 0.469891995 0.056497753
0.546864986 0.472306013 0.039732493
0.746309757 0.475433230 -0.004340750
0.939535975 0.479207516 -0.005078000
0.089539498 0.684883296 0.106814995
0.304392010 0.697370529 0.017177997
0.541679561 0.701013803 -0.005276750
0.753670454 0.702816486 -0.004343000
0.964009762 0.703495026 -0.006185000
0.053309999 0.903940022 -0.001647000
0.287897259 0.922334969 -0.006731250
0.520227015 0.933639050 -0.006868500
0.749298036 0.938377500 -0.007132750
0.980516016 0.943072021 -0.007317000
0.048818752 0.060678255 0.220705003
0.275886476 0.067739755 0.225243747
0.518212795 0.097973756 0.220410764
0.732996821 0.069902241 0.213149995
0.913300276 -0.004187750 0.213254750
0.034215502 0.255259246 0.268491507
0.289992243 0.262565017 0.238188997
0.551536262 0.244562760 0.205977008
0.761503577 0.215467244 0.156524003
0.935909033 0.237141266 0.182845250
0.048075259 0.469851017 0.297239482
0.265893012 0.479303777 0.219141990
0.550550699 0.475585014 0.192499250
0.762596726 0.469790787 0.148693755
0.952202260 0.472945750 0.181973249
0.132369503 0.676544547 0.306047261
0.237397999 0.694858551 0.203339502
0.532697797 0.706234813 0.158604994
0.760478795 0.705411732 0.086747497
0.974503756 0.703016758 0.105001733
0.126341254 0.891457498 0.295470506
0.216595501 0.912931681 0.174553007
0.497890711 0.942591488 0.015876250
0.746621013 0.943064988 0.000118750
0.986259222 0.945349753 0.000214750
0.062947504 0.112538502 0.429126024
0.265623987 0.114634499 0.420300782
0.520063043 0.134192497 0.420865029
0.721042991 0.180199236 0.414601266
0.889376521 0.126406014 0.428144008
0.061015252 0.270209730 0.462386012
0.231882006 0.286473989 0.471735775
0.541766286 0.277370751 0.447697043
0.751205802 0.254929483 0.427701771
0.919610262 0.262595773 0.433826268
0.138817012 0.472708493 0.486653507
0.219542250 0.483707786 0.488968253
0.547042012 0.488273531 0.451920509
0.790253282 0.468384743 0.428701520
0.959969461 0.475865513 0.437691510
0.207625255 0.674937248 0.515691996
0.250516236 0.679556251 0.498494267
0.515743554 0.709859014 0.435907722
0.766989708 0.705585778 0.399921775
0.969289541 0.703338027 0.439707011
0.269997001 0.854805470 0.529523492
0.292662263 0.869480729 0.499805987
0.508833528 0.922470987 0.444236517
0.751042962 0.942366242 0.387564778
0.984109521 0.939386010 0.361019015
0.075561754 0.157669008 0.617789984
0.236301497 0.160828501 0.610130489
0.508036494 0.176095486 0.585782528
0.722838998 0.204914004 0.600999832
0.846166492 0.240019754 0.597121537
0.074894503 0.294689745 0.632760048
0.194867760 0.304369003 0.658423483
0.515958488 0.301250756 0.631392539
0.737004519 0.296872765 0.625683248
0.856939495 0.336439997 0.616033316
0.180675760 0.477534264 0.652499020
0.233061001 0.485674262 0.670985579
0.489912271 0.503710270 0.665123284
0.747788012 0.498190790 0.658118844
0.899950743 0.505381763 0.647382259
0.262995750 0.678051293 0.687696517
0.287689000 0.684420764 0.691384554
0.484425247 0.697291970 0.687919021
0.767521024 0.699744225 0.657446802
0.958279252 0.704068005 0.678396463
0.327586263 0.852244020 0.711010039
0.346042752 0.853862464 0.705090761
0.527387798 0.855304480 0.693629980
0.761852980 0.911197543 0.674104273
0.956947505 0.907795727 0.662621260
0.109056003 0.207188994 0.786130011
0.211898759 0.210563749 0.784275472
0.488425493 0.221744999 0.763185501
0.706473231 0.254100263 0.763684511
0.892232001 0.269634992 0.819819987
0.116133250 0.325726002 0.794660509
0.203337505 0.331926227 0.812752306
0.483464003 0.340445489 0.805787742
0.713375747 0.341138244 0.794369280
0.896117210 0.372570515 0.833622515
0.219651014 0.494625509 0.809391499
0.258948267 0.500378013 0.826955199
0.467641503 0.519475996 0.826475024
0.711715817 0.519977510 0.824409962
0.904984474 0.537878513 0.851626992
0.305758506 0.679299235 0.833724260
0.327188998 0.684058785 0.843750954
0.473566532 0.693975329 0.849319756
0.732703745 0.704864502 0.857470036
0.916941285 0.714507759 0.864440262
0.379685014 0.856079996 0.863810003
0.394335240 0.858539522 0.865357995
0.513756990 0.860187531 0.864199042
0.756267309 0.860579789 0.858370721
0.918242991 0.863636017 0.859241009
