hollywood-luts/The Shape of Water.cube
TITLE "17x17x17 Adobe/IRIDAS cube 3D LUT exported with GrossGrade v0.2.2 (beta) 64 bit"
DOMAIN_MIN 0 0 0
DOMAIN_MAX 1 1 1
LUT_3D_SIZE 5
0.000000000 0.000000000 0.000213000
0.286659777 0.088923499 0.027730003
0.522066534 0.098367497 0.072106004
0.732177258 0.083735995 0.104558252
0.955999017 0.056620002 0.139748007
0.108514249 0.216160253 0.000585000
0.306757003 0.236661002 0.051895499
0.506755292 0.248659998 0.074860498
0.730755270 0.251994997 0.109572999
0.976912975 0.248070747 0.141693741
0.215384513 0.404336005 0.021228503
0.358117998 0.410316497 0.042085003
0.510696530 0.428691506 0.105891004
0.722576737 0.458201021 0.134344757
0.994423032 0.471668005 0.171734005
0.303465724 0.572540283 0.068796501
0.399853230 0.570650518 0.077514246
0.552445769 0.579862058 0.138192758
0.708033025 0.663056731 0.145136997
0.991809249 0.732547760 0.124215245
0.102542996 0.868399024 0.008270000
0.316825986 0.873202741 0.000029750
0.523532033 0.900012970 0.000599000
0.741154015 0.940410733 0.017498249
0.995975971 0.990749002 0.006708000
0.000000000 0.011203500 0.012004001
0.196250007 0.033194751 0.118218519
0.475605756 0.124762252 0.218685001
0.712942004 0.133123755 0.263261497
0.940283000 0.106871501 0.290063500
0.028218251 0.159388751 0.091403253
0.195665255 0.194529742 0.152720511
0.476327002 0.259341508 0.228308767
0.721564770 0.277347535 0.264618486
0.966463804 0.277743012 0.288097739
0.044844255 0.390186787 0.164526254
0.245389253 0.380116284 0.173329011
0.464301020 0.407324493 0.230504006
0.713151932 0.450743020 0.289261997
0.992272735 0.478602767 0.301873267
0.197405994 0.578471482 0.190532506
0.337880522 0.567282975 0.194602489
0.519111812 0.579695463 0.233944744
0.692870259 0.652684093 0.291030496
0.995617509 0.734338760 0.293084264
0.036151998 0.875129759 0.229249999
0.302019000 0.880692959 0.234141752
0.514337003 0.904328704 0.249103755
0.740435541 0.944831967 0.269238025
0.995691478 0.991201222 0.262092263
0.000000000 0.055897005 0.081058510
0.012398750 0.076533750 0.122638002
0.341832489 0.080240510 0.293649554
0.659758806 0.207950249 0.400780767
0.914302468 0.191533014 0.492168546
0.000000000 0.133823007 0.124352008
0.012869501 0.172771513 0.158193231
0.369697750 0.240557268 0.336814046
0.670037746 0.319677532 0.431113005
0.940455258 0.327646971 0.482463002
0.000000000 0.312993020 0.257246494
0.105513245 0.349384487 0.290939242
0.399153024 0.417366028 0.376129985
0.711475015 0.484415025 0.459724009
0.983060479 0.496583521 0.488123000
0.000000000 0.554247975 0.333938509
0.206240982 0.580288768 0.359786987
0.447719276 0.600103736 0.389748752
0.712065518 0.670919776 0.465837300
0.999529541 0.736841798 0.500198543
0.000000000 0.893231988 0.439803004
0.257463992 0.900442719 0.448573023
0.495168507 0.915153503 0.454852015
0.743295074 0.954611301 0.481145978
0.999237001 0.993780017 0.493818521
0.000000000 0.128427759 0.257035255
0.012240000 0.138774276 0.263364762
0.024430750 0.172977507 0.324787766
0.504499257 0.171592265 0.554138482
0.932024240 0.335783750 0.610100508
0.000000000 0.193064258 0.270702273
0.012869500 0.208602265 0.279746771
0.024596002 0.252195030 0.344550014
0.520017743 0.313124776 0.594917059
0.933471501 0.430238485 0.630210996
0.000000000 0.325066775 0.299329787
0.012869500 0.341014266 0.312312990
0.045990527 0.404400051 0.370084524
0.539255500 0.497516751 0.620017529
0.931997538 0.557633460 0.679243982
0.000000000 0.528226256 0.463563025
0.074899517 0.547832310 0.483114272
0.282779038 0.612084746 0.552352071
0.665352464 0.689669549 0.654561281
0.988649487 0.732634008 0.711527705
0.000000000 0.896602750 0.652722716
0.192099765 0.911459208 0.663573265
0.464540750 0.939958751 0.688047290
0.728948474 0.968671501 0.704559803
1.002409220 0.996445000 0.726066530
0.000000000 0.240695998 0.477391005
0.012390250 0.248980999 0.483922988
0.024727501 0.269602001 0.509559989
0.037054013 0.305538237 0.575320303
0.912244976 0.140854001 0.807169020
0.000000000 0.298460245 0.521503508
0.012869500 0.310187519 0.529522240
0.024883252 0.330593765 0.544463217
0.037105501 0.369895011 0.619864345
0.930337250 0.312058508 0.832069993
0.000000000 0.420025527 0.554428995
0.012869500 0.429442286 0.556158960
0.024741001 0.446152508 0.564024448
0.037275575 0.494277537 0.654691577
0.956729531 0.513440490 0.885982990
0.000000000 0.612041533 0.584866226
0.027193019 0.624064028 0.606447041
0.140489787 0.649895489 0.656566501
0.310501814 0.703805506 0.749248981
0.973818004 0.742634475 0.941668749
0.000000000 0.921819985 0.879557014
0.199557513 0.929055214 0.888485253
0.423179507 0.949594021 0.914083004
0.691936493 0.982827544 0.955598235
0.999457002 0.996488988 0.966238976
