hollywood-luts/The Lost City of Z.cube
TITLE "17x17x17 Adobe/IRIDAS cube 3D LUT exported with GrossGrade v0.2.2 (beta) 64 bit"
DOMAIN_MIN 0 0 0
DOMAIN_MAX 1 1 1
LUT_3D_SIZE 5
0.000000000 0.000000000 0.000000000
0.180501014 0.015479499 -0.001048000
0.447085023 0.004019500 -0.002095500
0.701874018 0.018827256 -0.003143750
0.913339972 0.086842999 -0.004188000
0.058786754 0.184597254 0.076169752
0.217403501 0.180882499 0.026067503
0.458164006 0.176254258 -0.002542750
0.712337792 0.178693250 -0.003420500
0.913807988 0.195678756 -0.004379250
0.158674002 0.416853517 0.198992014
0.278713495 0.413044274 0.189521998
0.477834523 0.410503030 0.159859002
0.732533753 0.400142789 0.008731013
0.930030465 0.400600523 -0.005078000
0.251602262 0.697370231 0.328924507
0.346745759 0.695025027 0.322493255
0.533395231 0.690202236 0.301023781
0.751550019 0.691844523 0.231173486
0.961809218 0.688201487 -0.006142250
0.330518991 0.953948975 0.477986991
0.409429759 0.952521503 0.472341239
0.580296993 0.949294508 0.448501498
0.797928512 0.945727229 0.369839221
0.970719993 0.938989997 0.169343993
0.039483253 0.038663998 0.155041009
0.197831750 0.024476750 0.171143755
0.437822014 -0.001708250 0.162725002
0.696748495 -0.003170750 0.150825500
0.929395556 -0.004206500 0.081042506
0.064241000 0.194169760 0.209786505
0.222677767 0.193918750 0.179790765
0.481108546 0.163107753 0.123446748
0.742525697 0.098348491 0.050946753
0.938649535 0.096594766 0.001263750
0.151623264 0.426727027 0.272337496
0.246999517 0.426923037 0.246846512
0.478601038 0.416545540 0.208400503
0.750603795 0.393501788 0.068452008
0.945215762 0.380963773 0.000823000
0.244652510 0.705535054 0.397024751
0.305472523 0.706358790 0.362848997
0.523548603 0.697668791 0.337765753
0.754456520 0.694741488 0.267243236
0.964035988 0.687212288 0.004328535
0.326065004 0.958133519 0.535225272
0.373545736 0.957924724 0.505439758
0.563898742 0.953420758 0.478127003
0.792747736 0.948100030 0.404567003
0.971965730 0.940228999 0.308163017
0.066608503 0.062854499 0.347851515
0.214552760 0.065786757 0.349287510
0.445841491 0.082893506 0.357621014
0.690402985 0.091380745 0.367579520
0.937115490 -0.004062500 0.351423025
0.074108250 0.212540999 0.374000490
0.221228004 0.214590013 0.379509538
0.473475277 0.208555758 0.385816753
0.726963997 0.185547993 0.371435255
0.951434731 0.162858248 0.342012763
0.172264010 0.437972516 0.450782508
0.256250262 0.443418771 0.445082814
0.491968513 0.436437488 0.382872522
0.769057274 0.403155982 0.317425758
0.959017515 0.397768497 0.309241503
0.257551759 0.719888568 0.515309811
0.303868502 0.724980712 0.507068515
0.506383002 0.720258772 0.476462990
0.759207726 0.708654702 0.408380508
0.971375048 0.692416310 0.304384768
0.339864016 0.967506528 0.653625965
0.379472762 0.968528986 0.640749037
0.563243508 0.963077009 0.618780494
0.791759014 0.955102205 0.555993736
0.974696517 0.943144500 0.491343528
0.083028249 0.090826258 0.595350504
0.227517754 0.098443508 0.594570279
0.462710023 0.121872261 0.590497494
0.713061988 0.153931260 0.593365729
0.954653263 0.106804013 0.603099525
0.102777258 0.232072756 0.597040534
0.233812734 0.228230491 0.634410262
0.486244023 0.230224267 0.627743781
0.743869781 0.233738750 0.619350731
0.959796011 0.245763242 0.609245241
0.161445007 0.457350284 0.659574747
0.248356253 0.461874008 0.667109728
0.485504746 0.464798242 0.644021988
0.757283509 0.455680490 0.642252803
0.975968003 0.452075243 0.620168269
0.322558761 0.726542771 0.727796733
0.362244278 0.732367218 0.727228999
0.530103326 0.738387465 0.702635527
0.776801765 0.729224503 0.621743739
0.985351264 0.710913062 0.559267521
0.392421275 0.973421514 0.800436735
0.423115790 0.975439489 0.797790229
0.588179529 0.971830249 0.789346516
0.797940552 0.962751031 0.752581477
0.977190733 0.946115732 0.692225516
0.144287005 0.163959995 0.887511015
0.253717750 0.171856493 0.888113976
0.481047511 0.196596503 0.886631012
0.731875300 0.235562265 0.888375998
0.974976003 0.266321003 0.900330007
0.163430005 0.271544248 0.891665459
0.268500507 0.277200252 0.932860494
0.497590005 0.290913761 0.929953277
0.753580511 0.310998768 0.927808523
0.978178740 0.344371498 0.903154254
0.226233512 0.484411508 0.904957533
0.296209991 0.490321279 0.938646972
0.513438463 0.495438516 0.931484997
0.764951706 0.503225029 0.931147218
0.987208486 0.520210981 0.915125012
0.346006006 0.752340019 0.982378006
0.380206019 0.757236481 0.984722495
0.544592977 0.763474524 0.979999065
0.771606982 0.771077991 0.966545761
1.002625465 0.773922265 0.949998498
0.588256001 0.970206976 0.978990018
0.613478780 0.972040534 0.978438258
0.709665000 0.972127974 0.974139452
0.845574498 0.964524508 0.961223483
0.980929971 0.950172007 0.936944008
