hollywood-luts/The hobbit.cube
TITLE "17x17x17 Adobe/IRIDAS cube 3D LUT exported with GrossGrade v0.2.2 (beta) 64 bit"
DOMAIN_MIN 0 0 0
DOMAIN_MAX 1 1 1
LUT_3D_SIZE 5
-0.060270000 -0.059866000 -0.060128000
0.150706500 -0.036614001 -0.050958499
0.437729001 -0.007155999 -0.047122501
0.753365755 0.005867750 -0.044317998
1.000874996 0.004495000 -0.045889001
-0.039567750 0.117051996 -0.015000249
0.191410750 0.174421251 -0.030089997
0.487601757 0.217842251 -0.044107504
0.787733257 0.237191260 -0.045729749
1.000985026 0.233825013 -0.050554000
0.015254004 0.273885012 0.021976503
0.258973241 0.367701769 0.043527752
0.540261507 0.433232009 -0.014484997
0.811411262 0.497949004 -0.043862253
1.000985026 0.490760505 -0.052594498
0.123349756 0.464131504 0.086730756
0.372770518 0.557050288 0.109695509
0.606305480 0.630965233 0.083844252
0.835052252 0.714832246 0.015871251
1.000985026 0.760663986 -0.047209244
0.221854001 0.647796988 0.157394007
0.444092751 0.726852238 0.179142743
0.628665984 0.802807987 0.166597009
0.823658526 0.869307280 0.126150250
1.000985026 0.951322019 0.047550999
-0.055335250 -0.008875499 0.074494004
0.106073253 0.017815500 0.120651498
0.405839503 0.014629999 0.167249009
0.737501025 0.001329751 0.190538496
1.000810266 0.002280000 0.193096250
-0.052321751 0.116942257 0.100408755
0.112053759 0.178072751 0.160339504
0.475550503 0.232903510 0.197269768
0.782584310 0.241910994 0.200024992
1.000985026 0.247181505 0.205295771
-0.015638996 0.278303504 0.158106267
0.161041766 0.352927268 0.217380017
0.511454999 0.462938011 0.219661012
0.807010233 0.508948803 0.214957014
1.000985026 0.498590767 0.213191748
0.044462256 0.462023288 0.230815262
0.280175000 0.545770526 0.287524283
0.564076781 0.651042283 0.305708289
0.825149477 0.729572296 0.251692265
1.000985026 0.766502976 0.216855258
0.141901746 0.635488987 0.297882259
0.378307492 0.715813279 0.349088252
0.594040215 0.802578747 0.369260728
0.809307039 0.874630988 0.343809724
1.000985026 0.957840741 0.284888983
-0.050832495 0.052884504 0.183941513
0.041546501 0.079651251 0.213921010
0.289896011 0.137336507 0.318001032
0.683314562 0.086464755 0.391467750
0.988051057 0.060517509 0.425109029
-0.051959500 0.165600255 0.205127999
0.046066999 0.212270498 0.258881986
0.347411990 0.328025520 0.398465216
0.737590015 0.308394253 0.450973749
1.000799179 0.293706536 0.458215296
-0.021159496 0.269858509 0.261833012
0.085888505 0.331419528 0.327543259
0.416032493 0.509368539 0.490886003
0.790546536 0.538455725 0.506192744
1.000985026 0.535002530 0.504781008
0.022123504 0.462774009 0.366498530
0.201957002 0.538422525 0.438185006
0.510377049 0.671101570 0.554569721
0.804594755 0.761297047 0.528461277
1.000985026 0.780462742 0.509891987
0.084858000 0.633041024 0.418765008
0.310737729 0.707193732 0.485626757
0.565640092 0.809097528 0.575596929
0.791038990 0.894953966 0.577461779
1.000983953 0.973171473 0.541964531
-0.053067248 0.139927506 0.309413731
0.030832753 0.169776499 0.339647770
0.174374998 0.252365768 0.428074032
0.563365221 0.290820509 0.541670740
0.909827232 0.206096515 0.608902037
-0.049834251 0.245585501 0.342830509
0.041562755 0.289988518 0.397965252
0.218762517 0.385980785 0.496549487
0.625513554 0.478669018 0.634648442
0.941945016 0.412577510 0.677708745
-0.013373995 0.331706524 0.395713747
0.083794758 0.387518525 0.457601011
0.318544537 0.520750523 0.585350990
0.690291226 0.649904728 0.716123760
0.991571784 0.603664756 0.759692013
0.016241752 0.465919763 0.467276007
0.162456274 0.536421299 0.538900971
0.415399522 0.661691785 0.663038492
0.752996802 0.796576738 0.782891750
1.000962973 0.821018040 0.814234018
0.054529250 0.629257798 0.526488483
0.261503756 0.701820254 0.601849258
0.506787241 0.801922500 0.709990740
0.786244273 0.914380014 0.815216720
1.000885725 0.996169984 0.820453048
-0.043501001 0.229706004 0.447645992
0.042038750 0.263503999 0.485364735
0.152490512 0.321248502 0.547146022
0.422427297 0.430928230 0.651826024
0.766716003 0.451517999 0.756875992
-0.030145999 0.327068239 0.479557246
0.065728746 0.375312269 0.537485003
0.198920012 0.440806270 0.606011271
0.493781269 0.561323524 0.715137482
0.799315989 0.603984475 0.820306242
-0.001065999 0.398910999 0.520440996
0.101168260 0.452904999 0.581025720
0.290960014 0.555536985 0.677687526
0.589599013 0.687465429 0.793390512
0.867362022 0.745052516 0.889191508
0.016738502 0.493411750 0.572404265
0.154104248 0.555900753 0.637160480
0.368251771 0.665226758 0.741076529
0.709921241 0.822074711 0.878980279
0.945197523 0.881702006 0.950448751
0.040002000 0.639751971 0.640295982
0.235523999 0.710943520 0.717719734
0.466522008 0.808402002 0.820279479
0.757295012 0.922766209 0.931969225
0.997566998 0.999109030 0.991688013
