hollywood-luts/Thor.cube
TITLE "17x17x17 Adobe/IRIDAS cube 3D LUT exported with GrossGrade v0.2.2 (beta) 64 bit"
DOMAIN_MIN 0 0 0
DOMAIN_MAX 1 1 1
LUT_3D_SIZE 17
0.001663000 0.000000000 0.000930000
0.038749561 0.000000000 0.000058125
0.085331626 0.000000000 0.000000000
0.134740204 0.000000000 0.000000000
0.182967260 0.000000000 0.000000000
0.233419880 0.000000000 0.000000000
0.286331147 0.000000000 0.000000000
0.340570956 0.000000000 0.000000000
0.395237505 0.000000000 0.000000000
0.449620128 0.000000000 0.000000000
0.503677487 0.000000000 0.000218625
0.557865918 0.000000000 0.000822375
0.612865746 0.000000000 0.001630501
0.669571996 0.000000000 0.002953315
0.725454807 0.000000000 0.005156001
0.780411601 0.000000000 0.006199252
0.835770011 0.000000000 0.008198000
0.000103937 0.030208124 0.000058125
0.037577689 0.031560000 0.000058125
0.088098124 0.031067375 0.000000000
0.141295567 0.030520314 0.000000000
0.195448756 0.029240813 0.000000000
0.249544248 0.029039625 0.000000000
0.304763019 0.028137498 0.000000000
0.360387117 0.025738496 0.000000000
0.416088134 0.019048873 0.000000000
0.471201360 0.010070063 0.000000000
0.525483370 0.004164188 0.000000000
0.579563737 0.002000313 0.000036438
0.633727074 0.000714687 0.000084313
0.688471615 0.000381937 0.000374438
0.743561804 0.000130812 0.001387500
0.798250496 0.000000000 0.001377502
0.852573752 0.000000000 0.002769875
0.000000000 0.066585869 0.000000000
0.033944000 0.071410626 0.000000000
0.089884624 0.074005872 0.000000000
0.145636767 0.077645376 0.000000000
0.203206867 0.080043495 0.000000000
0.261157513 0.082270436 0.000000000
0.318727672 0.083370745 0.000000000
0.376200587 0.081934243 0.000000000
0.432029784 0.079290494 0.000000000
0.487603039 0.072693065 0.000000000
0.544395804 0.061926752 0.000000000
0.601148665 0.051719315 0.000000000
0.656723619 0.040898129 0.000000000
0.712669313 0.025730871 0.000000000
0.767343938 0.020707740 0.000146500
0.822337985 0.009729561 0.000121125
0.875926018 0.008757000 0.000301000
0.000000000 0.106826566 0.000000000
0.031638686 0.113695011 0.000000000
0.091397814 0.118297383 0.000000000
0.150032267 0.123774827 0.000000000
0.211753875 0.130985707 0.000000000
0.272955239 0.137154758 0.000000000
0.333265513 0.139808446 0.000000000
0.391818047 0.139856264 0.000000000
0.448757231 0.139615133 0.000000000
0.505097210 0.137280315 0.000000000
0.561888874 0.131549388 0.000000000
0.619104445 0.124522761 0.000000000
0.675272107 0.118960574 0.000000000
0.730326653 0.111566879 0.000000000
0.786062777 0.106135748 0.000000000
0.843195975 0.094864577 0.000000000
0.897609949 0.093807645 0.000000000
0.000000000 0.147425756 0.000000000
0.029323310 0.156118438 0.000000000
0.092011124 0.163448259 0.000000000
0.155228823 0.170077562 0.000000000
0.219566256 0.177570269 0.000000000
0.283920825 0.189277068 0.000000000
0.346362650 0.197263390 0.000000000
0.406112641 0.199932009 0.000000000
0.464794010 0.200780749 0.000000000
0.522344351 0.200883821 0.000000000
0.578887999 0.198882133 0.000000000
0.634616852 0.196521193 0.000000000
0.690904498 0.193918496 0.000000000
0.746712387 0.191810876 0.000000000
0.802969158 0.189644128 0.000000000
0.860934794 0.183381498 0.000000000
0.918296993 0.180046007 0.000000000
0.000000000 0.189377874 0.000000000
0.023113061 0.199237183 0.000000000
0.090115629 0.208572134 0.000000000
0.157736778 0.217967749 0.000000000
0.227039933 0.225998387 0.000000000
0.294913113 0.236222878 0.000000000
0.358169079 0.250431925 0.000000000
0.419324666 0.259296149 0.000000000
0.478780031 0.263404995 0.000000000
0.536961913 0.265286505 0.000000000
0.593951941 0.265602201 0.000000000
0.650022566 0.265428424 0.000000000
0.706417859 0.264687985 0.000000000
0.763590515 0.263524503 0.000000000
0.821079671 0.263136506 0.000000000
0.878869712 0.261660874 0.000000000
0.936873436 0.259888381 0.000000000
0.000000000 0.232497260 0.000323126
0.013375310 0.242858827 0.000000000
0.080491751 0.254257888 0.000000000
0.155552760 0.265642405 0.000000000
0.231362998 0.276169121 0.000000000
0.304432184 0.286251634 0.000000000
0.370876253 0.297677279 0.000000000
0.431951791 0.312323272 0.000000000
0.491154760 0.322406769 0.000000000
0.549303412 0.328138024 0.000000000
0.606281519 0.331210017 0.000000000
0.663441956 0.332946599 0.000000000
0.721041381 0.333276033 0.000000000
0.778900564 0.333049357 0.000000000
0.837215304 0.333798140 0.000000000
0.896598220 0.333918959 0.000000000
0.955058753 0.333097130 0.000000000
0.000000000 0.275597334 0.001768001
0.005864812 0.286219031 0.000032313
0.065075114 0.299525380 0.000000000
0.147985458 0.312409222 0.000000000
0.230196312 0.325745523 0.000000000
0.309067935 0.338212907 0.000000000
0.381025821 0.348223329 0.000000000
0.446033597 0.358870357 0.000000000
0.504244864 0.374823719 0.000000000
0.560783088 0.386204779 0.000000000
0.617050350 0.393362522 0.000000000
0.674461126 0.398059040 0.000000000
0.733305871 0.400383979 0.000000000
0.792381406 0.401226223 0.000000000
0.850505829 0.403268278 0.000000000
0.910651386 0.404254049 0.000000000
0.970936418 0.403384328 0.000000000
0.000000000 0.318702519 0.003482000
0.002701562 0.329448700 0.000171313
0.047420748 0.343511760 0.000000000
0.137382329 0.357460439 0.000000000
0.224610999 0.373027503 0.000000000
0.307652980 0.388008654 0.000000000
0.385837615 0.400678039 0.000000000
0.456080794 0.410225391 0.000000000
0.519337475 0.420475006 0.000000000
0.573797643 0.437387407 0.000000000
0.627972960 0.450569630 0.000000000
0.684634507 0.459744453 0.000000000
0.743516803 0.465451539 0.000000000
0.803395569 0.468374908 0.000000000
0.862601519 0.470777750 0.000000000
0.922855616 0.472516537 0.000000000
0.982704997 0.472699523 0.000000000
0.000000000 0.362425447 0.004949688
0.001457750 0.372996181 0.000263937
0.034165252 0.386539310 0.000000000
0.122803964 0.400991052 0.000000000
0.215815187 0.417388141 0.000000000
0.301572740 0.434439123 0.000000000
0.384237707 0.449965060 0.000000000
0.460790038 0.462631762 0.000000000
0.529098988 0.471953005 0.000000000
0.588880241 0.482421368 0.000000000
0.640313387 0.499768496 0.000000000
0.694358408 0.515401959 0.000000000
0.752632141 0.526100814 0.000000000
0.811891735 0.533062696 0.000000000
0.872055590 0.537180185 0.000000000
0.933871329 0.539204597 0.000000000
0.991212845 0.540266454 0.000000000
0.000000000 0.406400740 0.006541000
0.000622500 0.416634113 0.000523000
0.024694998 0.429392278 0.000000000
0.107436828 0.443691760 0.000000000
0.203591883 0.460252523 0.000000000
0.292202920 0.478469491 0.000000000
0.378007263 0.496087641 0.000000000
0.459802836 0.511883557 0.000000000
0.533212245 0.523999631 0.000000000
0.598119140 0.532284796 0.000000000
0.653703511 0.543098986 0.000000000
0.704489470 0.562269628 0.000000000
0.759598374 0.578829646 0.000000000
0.817763090 0.590843856 0.000000000
0.877938747 0.599768758 0.000000000
0.940664291 0.604443073 0.000000000
0.996405482 0.606388152 0.000000000
0.000000000 0.449952006 0.008609125
0.000291250 0.459906071 0.000895375
0.016752437 0.472105831 0.000051750
0.090491958 0.486448944 0.000000000
0.189854935 0.502887607 0.000000000
0.281789511 0.521919549 0.000000000
0.369531393 0.540973544 0.000000000
0.454863787 0.558666050 0.000000000
0.532953918 0.573223948 0.000000000
0.601582408 0.583721161 0.000120312
0.662139773 0.590827405 0.002635312
0.714316308 0.602600574 0.001594062
0.766096592 0.623325467 0.000318812
0.821121454 0.640443087 0.000000000
0.879981458 0.654483855 0.000000000
0.943546057 0.664769650 0.000000000
0.997685492 0.670635641 0.000000000
0.000000000 0.493203998 0.011546001
0.000000000 0.502882600 0.001247750
0.011505124 0.514412045 0.000063750
0.075043768 0.529294789 0.000000000
0.175002247 0.545963287 0.000000000
0.271123558 0.565416157 0.000000000
0.361048013 0.585451484 0.000000000
0.448260546 0.604514897 0.000000000
0.529296517 0.620430768 0.000000000
0.600931287 0.632808626 0.000072188
0.664331675 0.641580999 0.003740000
0.720856428 0.648046017 0.013903252
0.771386981 0.661046505 0.007903001
0.823966920 0.682237387 0.001019313
0.879682422 0.701752007 0.000000000
0.942633510 0.718237519 0.000000000
0.996598005 0.729794979 0.000000000
0.000000000 0.536368072 0.014074439
0.000000000 0.545843899 0.002021377
0.006829997 0.556947052 0.000112625
0.062579699 0.571924627 0.000000000
0.161087483 0.589178205 0.000000000
0.260582566 0.608972669 0.000000000
0.352442682 0.629862428 0.000000000
0.440773785 0.649884045 0.000000000
0.523892820 0.666933537 0.000000000
0.597549200 0.680191755 0.000000000
0.662539303 0.690632522 0.003791438
0.721439719 0.697740734 0.017904628
0.774477601 0.703435063 0.034803819
0.824864268 0.717355788 0.017418254
0.878068089 0.739707291 0.001389062
0.937384367 0.762669444 0.000000000
0.993312418 0.780871570 0.000000000
0.000000000 0.580219328 0.015407881
0.000000000 0.589477003 0.003464815
0.003473247 0.600420296 0.000381001
0.050494190 0.614911318 0.000000000
0.145074129 0.632654786 0.000000000
0.249654934 0.652382314 0.000000000
0.344595671 0.673872232 0.000000000
0.433041096 0.694880545 0.000000000
0.516597390 0.712987006 0.000000000
0.592072129 0.727317512 0.000000000
0.658083439 0.738267064 0.004301000
0.718194723 0.746450067 0.019576190
0.773916185 0.752186179 0.043561131
0.824453592 0.757368684 0.054841321
0.875425935 0.771740317 0.021237994
0.930766165 0.797150612 0.000895563
0.988359511 0.820530832 0.000000002
0.000000000 0.623746932 0.020836443
0.000000000 0.632879198 0.005272753
0.000783937 0.643500388 0.000950438
0.041018452 0.657826543 0.000096750
0.128311694 0.676274836 0.000000000
0.236059263 0.695957661 0.000000000
0.334628046 0.717482328 0.000000000
0.424122423 0.738975108 0.000000000
0.508075476 0.758103490 0.000000000
0.584015191 0.773873925 0.000000000
0.651498139 0.785774946 0.004954124
0.712838233 0.794416249 0.022012498
0.769533396 0.800666630 0.045485318
0.822534621 0.804477692 0.061127447
0.872455537 0.809255064 0.063332431
0.923765600 0.825201094 0.014369626
0.979271173 0.851834536 0.000936201
0.000000000 0.666270018 0.026153000
0.000000000 0.675272822 0.010087062
0.000601125 0.685849726 0.001705375
0.035514019 0.699793994 0.000123937
0.118641764 0.719354749 0.000000000
0.225533307 0.739260137 0.000000000
0.325116158 0.760858893 0.000000000
0.415359914 0.782754183 0.000000000
0.498696506 0.802379966 0.000000000
0.574305117 0.819022954 0.000000000
0.643184364 0.831870258 0.004359750
0.706073463 0.840834022 0.020434124
0.763828516 0.847823024 0.044329002
0.818251729 0.852458179 0.060013007
0.869276106 0.855786502 0.069545746
0.918151855 0.860124826 0.068036765
0.969628990 0.877476990 0.014979000
0.001294562 0.000000000 0.038260311
0.037597373 0.000000000 0.039185625
0.084968686 0.000000000 0.035625748
0.133294508 0.000000000 0.034130063
0.181950822 0.000000000 0.034433436
0.233504683 0.000000000 0.033328623
0.287183315 0.000000000 0.032588124
0.342240483 0.000000000 0.032032311
0.397051245 0.000000000 0.033173688
0.452354401 0.000000000 0.034293249
0.507880867 0.000000000 0.034877997
0.562211215 0.000000000 0.037411749
0.617098331 0.000000000 0.040811751
0.673920691 0.000000000 0.042557441
0.729564488 0.000000000 0.043813374
0.785441458 0.000000000 0.044279628
0.842875302 0.000000000 0.044297375
0.000103937 0.030269999 0.036781877
0.036238004 0.031551562 0.037470941
0.086824939 0.031366065 0.034651309
0.140307456 0.030421689 0.033795938
0.196535498 0.026035687 0.031845190
0.253228962 0.019763751 0.028539313
0.310189605 0.013110623 0.025894063
0.367335677 0.006899811 0.024288561
0.423034042 0.002861812 0.024523813
0.477687925 0.001010750 0.025717750
0.531791806 0.000227250 0.027719624
0.585283756 0.000000000 0.030682687
0.639381588 0.000000000 0.033067688
0.694520354 0.000000000 0.035404503
0.750324428 0.000000000 0.037148312
0.805381536 0.000000000 0.038793627
0.861325324 0.000000000 0.039654873
0.000000000 0.067759000 0.034892373
0.029825313 0.072670065 0.032025438
0.087304190 0.074242443 0.030597439
0.144813642 0.077297755 0.031957753
0.204640135 0.078616500 0.031797435
0.264126867 0.077309497 0.031600937
0.322723061 0.075629748 0.029830687
0.381053239 0.071253121 0.027710250
0.438678950 0.062791690 0.026861062
0.495206147 0.049966246 0.026472438
0.550994158 0.034220815 0.025843624
0.606783748 0.019742813 0.024671439
0.663358390 0.009998311 0.022151750
0.720041394 0.004138247 0.020765498
0.775745630 0.000939562 0.021759314
0.830775261 0.000489125 0.023281064
0.884922564 0.000000000 0.025355123
0.000000000 0.108551949 0.033689063
0.024122685 0.115562573 0.026738811
0.085776746 0.119018577 0.027047938
0.147529751 0.123947635 0.029491499
0.211531013 0.130685017 0.032357622
0.274358124 0.134796649 0.033251874
0.335574776 0.136311829 0.033891499
0.395496964 0.135039523 0.033667188
0.453966886 0.131610885 0.033129063
0.510451376 0.126685575 0.032711685
0.566345811 0.119247645 0.031885188
0.623547554 0.109525383 0.030212626
0.681746602 0.099214956 0.026452124
0.739218533 0.086284563 0.021579497
0.796330333 0.072782829 0.018340373
0.854180634 0.055427507 0.017570810
0.910168111 0.039715715 0.016500063
0.000000000 0.149963379 0.032638311
0.018252186 0.158148870 0.022172438
0.083858386 0.164433047 0.024854686
0.149627343 0.170773745 0.028505126
0.215990618 0.177606821 0.032675251
0.282931507 0.188078001 0.035443876
0.347451299 0.195149258 0.037957378
0.409365416 0.196841255 0.038459435
0.468586206 0.196356639 0.036008313
0.526166260 0.195632190 0.034113128
0.583070576 0.192939863 0.032766186
0.640330195 0.188017264 0.031135000
0.698579431 0.182279885 0.028901251
0.756167829 0.175828561 0.025389183
0.813886821 0.167985559 0.021310622
0.872729480 0.156831741 0.019007124
0.930968463 0.145287454 0.017164312
0.000000000 0.191859752 0.035512000
0.008726249 0.201190129 0.018818622
0.078306496 0.209541127 0.021454750
0.149458334 0.219112188 0.026810564
0.219872192 0.226437300 0.031299811
0.290594637 0.235290751 0.036605250
0.357167721 0.249632567 0.037426375
0.421030045 0.258433133 0.037880249
0.482508510 0.261218995 0.037076872
0.541734040 0.262072563 0.035252810
0.600046873 0.261387140 0.033691812
0.657854974 0.258985251 0.031570811
0.715688765 0.256174177 0.029497812
0.773717999 0.253333837 0.026658559
0.832459152 0.249885574 0.022355810
0.891897500 0.244688481 0.019609811
0.951267004 0.238328114 0.018001564
0.000000000 0.234619141 0.039028749
0.002928750 0.244577289 0.019361248
0.066407807 0.254835457 0.017812997
0.145241067 0.266426086 0.022729311
0.221602306 0.276407093 0.027708685
0.297076941 0.285673767 0.033137374
0.367085010 0.297239155 0.036608130
0.431219935 0.312860906 0.037009876
0.493609279 0.322623253 0.036157627
0.554388762 0.327347189 0.035412751
0.613360524 0.328941822 0.033511687
0.672060966 0.328567505 0.030208437
0.730917156 0.327358842 0.027910184
0.790147007 0.325714022 0.026127182
0.850269794 0.324204832 0.022247810
0.910666943 0.321836531 0.019874310
0.969553471 0.318770885 0.018186562
0.000000000 0.277744412 0.041792314
0.000713437 0.288270086 0.020149756
0.047161859 0.300057024 0.013573498
0.135500059 0.312669009 0.016048998
0.218388677 0.325367510 0.020836683
0.299559414 0.337498218 0.028116621
0.374998450 0.348139167 0.034063186
0.442679405 0.359980345 0.039674442
0.504242659 0.375922233 0.038979568
0.564388096 0.386903226 0.036402941
0.623384655 0.393293381 0.032795068
0.682332933 0.396303922 0.028134938
0.742656946 0.397536248 0.024545686
0.803652644 0.396982908 0.023420621
0.864171743 0.396598727 0.021061871
0.925044775 0.395551503 0.019244185
0.984534740 0.393206090 0.017623685
0.000000000 0.321209192 0.044492058
0.000078312 0.331774741 0.022193000
0.025055369 0.344310075 0.009406811
0.119206570 0.357898891 0.010088874
0.209972113 0.372477442 0.013040373
0.296145231 0.387556314 0.020174999
0.377426386 0.400743186 0.029662378
0.451033860 0.410843015 0.040856689
0.516808748 0.422096282 0.048129689
0.575271487 0.439134657 0.044417504
0.632560730 0.451332062 0.036594190
0.690736473 0.459338814 0.028239690
0.751430452 0.464205533 0.022934813
0.813992441 0.466186792 0.020616686
0.875118434 0.466884792 0.019417373
0.935464919 0.467172921 0.017263997
0.994026244 0.465771288 0.014532686
0.000000000 0.365265489 0.046655811
0.000000000 0.375392675 0.023363624
0.009347187 0.387744933 0.006389812
0.097737402 0.401795864 0.005483688
0.196880072 0.417310715 0.007082438
0.288115680 0.434629798 0.012926188
0.373987705 0.450472921 0.022660132
0.454170078 0.463490695 0.039005883
0.525377989 0.473302960 0.053820252
0.588194191 0.484470069 0.060596690
0.642974555 0.501938939 0.050536066
0.698645055 0.516076446 0.035330191
0.758262515 0.526123881 0.024909060
0.820701361 0.532090306 0.019055810
0.882815123 0.534972787 0.016293688
0.943958879 0.536369443 0.014188311
0.998814940 0.536463678 0.011907687
0.000000000 0.409437299 0.048466377
0.000000000 0.419211090 0.024883190
0.002549500 0.431102514 0.004933437
0.074538521 0.445007682 0.002569313
0.180324808 0.460616052 0.003317438
0.277139604 0.478908211 0.007421438
0.366695702 0.496945053 0.016295945
0.451985747 0.513017774 0.034674384
0.529019952 0.525792181 0.055458881
0.596478939 0.535053253 0.070282564
0.654915690 0.546246946 0.074454933
0.707172453 0.564253092 0.056769002
0.763574183 0.580910325 0.036038060
0.824884593 0.592243671 0.022819117
0.886808574 0.599553645 0.013750310
0.949165404 0.603243530 0.010948750
1.001041412 0.604778588 0.010702687
0.000000000 0.453281701 0.049291313
0.000000000 0.462776065 0.029810375
0.000612250 0.474401861 0.006420625
0.051613774 0.488337606 0.001673500
0.161810875 0.503731012 0.001942313
0.264998376 0.522501826 0.004188688
0.357535452 0.541747034 0.011832507
0.446228594 0.559809744 0.029563388
0.528133929 0.575397015 0.055039320
0.599626839 0.586935461 0.074925944
0.662284970 0.594798446 0.087796189
0.716302276 0.606253684 0.087817810
0.768445015 0.626303315 0.065596804
0.826673329 0.643900156 0.038149979
0.887975872 0.656449854 0.017627493
0.950433195 0.665151000 0.009537749
1.001330256 0.670272231 0.008546250
0.000000000 0.497113198 0.050334815
0.000000000 0.506251574 0.035472877
0.000142500 0.517581880 0.009419125
0.033268705 0.531732082 0.001590125
0.143236935 0.547424793 0.001337125
0.252865076 0.566513419 0.002731688
0.348379910 0.586778581 0.009237569
0.438958079 0.605744600 0.025473263
0.523848832 0.622739732 0.053053260
0.598833621 0.636321366 0.078065313
0.664061546 0.645893693 0.094039500
0.721879482 0.652591765 0.105465755
0.773196757 0.664785087 0.101899624
0.826976478 0.686469197 0.074200161
0.885854602 0.704843879 0.034669861
0.948056161 0.719353557 0.011509311
1.000090122 0.729628682 0.006668129
0.000000000 0.540868998 0.057889260
0.000000000 0.549679637 0.042722758
0.000000000 0.560876727 0.013281818
0.020242138 0.574921787 0.001897001
0.125631630 0.591495335 0.000756187
0.241117090 0.610739887 0.002052125
0.340425104 0.631957769 0.007814757
0.431983590 0.651684999 0.022164200
0.518036366 0.669343412 0.050669067
0.595022380 0.683752000 0.080365568
0.662121534 0.694825530 0.099070698
0.721742570 0.702521682 0.112105817
0.775798440 0.708425641 0.123119071
0.826683044 0.721733034 0.115622699
0.882397294 0.744248271 0.076849878
0.942146122 0.764962018 0.029233439
0.996638894 0.780984581 0.008564082
0.000000000 0.584960163 0.065913320
0.000000000 0.593271375 0.049949944
0.000000000 0.604415119 0.018346755
0.011252642 0.617882311 0.002730376
0.108660564 0.635537505 0.000563375
0.229349449 0.654943585 0.001936375
0.333530784 0.676687777 0.008006507
0.425563931 0.697466612 0.021134954
0.511250794 0.715744615 0.048920445
0.589192450 0.730863631 0.081347309
0.657520533 0.742275953 0.103832193
0.718226731 0.751164973 0.118266255
0.774128079 0.757386327 0.130561560
0.826266646 0.762450099 0.137743145
0.877823651 0.776688576 0.125099450
0.935075045 0.800930917 0.075866565
0.990137577 0.823726594 0.025891609
0.000000000 0.628689051 0.073975891
0.000000000 0.636790931 0.057131447
0.000000000 0.648024738 0.024274880
0.004840078 0.660685062 0.003806313
0.092874929 0.679443955 0.000301812
0.216808289 0.699378729 0.001752437
0.326184839 0.720778346 0.009261131
0.419127643 0.742267311 0.022926141
0.503778994 0.761641920 0.048853137
0.581129134 0.777767301 0.081581876
0.650670707 0.789950013 0.107158758
0.712959349 0.798764646 0.123437136
0.769976914 0.805580258 0.134934127
0.824014783 0.810207665 0.144617751
0.874494612 0.814921677 0.148930639
0.926348448 0.830057383 0.129522309
0.981150508 0.856356561 0.073472932
0.000000000 0.671652198 0.083283313
0.000000000 0.680292189 0.064307377
0.000000000 0.691371381 0.030035313
0.000914769 0.703916609 0.005249625
0.077104121 0.723755419 0.000368063
0.202771008 0.743794322 0.001654812
0.317322731 0.764256358 0.008931570
0.411720753 0.785923660 0.025441136
0.495363474 0.806106985 0.051430006
0.571888208 0.823113978 0.082322747
0.641884029 0.836527050 0.108952127
0.705513477 0.846205235 0.126675382
0.764047503 0.853332222 0.139230624
0.818922043 0.858365417 0.148188442
0.870780110 0.861622274 0.154256806
0.920740783 0.865552485 0.155424863
0.972959936 0.881638527 0.132894933
0.000955875 0.000000000 0.080999002
0.037028562 0.000000000 0.083907932
0.082159251 0.000000000 0.084261879
0.131027326 0.000000000 0.081748247
0.176925123 0.000000000 0.079054251
0.226608127 0.000000000 0.079402059
0.281026632 0.000000000 0.078513376
0.336931914 0.000000000 0.078229934
0.391947508 0.000000000 0.079218872
0.446765631 0.000000000 0.081084117
0.502338886 0.000000000 0.082384877
0.557350814 0.000000000 0.084312312
0.612476051 0.000000000 0.087327875
0.668882430 0.000000000 0.090030313
0.725212693 0.000000000 0.092091247
0.780892730 0.000000000 0.094738379
0.837298393 0.000000000 0.097310498
0.000079375 0.030502750 0.079929188
0.036119811 0.030333564 0.082834631
0.084284127 0.031366937 0.084776685
0.136219144 0.031110751 0.082644999
0.191326424 0.026842188 0.082011253
0.248465180 0.020668313 0.081446186
0.306048751 0.013532748 0.079103306
0.362880170 0.006510811 0.078539498
0.418376058 0.002445687 0.078701869
0.472980320 0.000883875 0.079985932
0.527484179 0.000186750 0.081282124
0.581210256 0.000000000 0.082409754
0.635201454 0.000000000 0.084232189
0.690752268 0.000000000 0.087102190
0.746521950 0.000000000 0.090878814
0.802453339 0.000000000 0.094078064
0.859370887 0.000000000 0.095515251
0.000000000 0.068790369 0.078344002
0.030759813 0.071961060 0.081980944
0.083063871 0.074598007 0.083552875
0.139593318 0.077299871 0.082887009
0.198941126 0.078349747 0.083796129
0.259363115 0.076356560 0.084526002
0.318619400 0.072779253 0.083787128
0.377280593 0.067428365 0.082745560
0.435495019 0.059016377 0.082066998
0.492375225 0.047711816 0.081717938
0.548994064 0.033230498 0.080468126
0.605414152 0.018686874 0.079328060
0.661648512 0.009098998 0.079279497
0.718593717 0.003913997 0.080462061
0.774913967 0.000786125 0.083167508
0.830530763 0.000424937 0.085402563
0.886148274 0.000000000 0.087101504
0.000000000 0.109646440 0.077849194
0.023917248 0.115862451 0.078230754
0.080657870 0.119716585 0.080978692
0.142609328 0.123864077 0.081726938
0.205881372 0.130617440 0.086354189
0.270156741 0.134024128 0.088412374
0.331959903 0.134751946 0.089824125
0.392036200 0.134349257 0.088942379
0.450926244 0.131059006 0.087565936
0.508506656 0.124565586 0.086783558
0.565090060 0.115382642 0.085936002
0.621486843 0.104296826 0.085192189
0.678429425 0.093878321 0.083746746
0.736389458 0.083030693 0.081529938
0.794584692 0.068093829 0.081640877
0.852804720 0.052764695 0.082557060
0.910057724 0.039692275 0.083262742
0.000000000 0.151284993 0.077505007
0.015497562 0.159238383 0.074382871
0.076904371 0.165210515 0.078095250
0.143476710 0.170210376 0.080376752
0.209785745 0.177433878 0.085091874
0.278880239 0.187918872 0.090759933
0.344155014 0.193655118 0.094650246
0.406470537 0.196574181 0.094542876
0.466862649 0.195857257 0.093946129
0.525458276 0.193731636 0.093694374
0.581969142 0.190572262 0.093594626
0.638171494 0.185509622 0.093233496
0.696234465 0.179205775 0.092159003
0.755376518 0.172271371 0.090012126
0.814140677 0.163879737 0.088458374
0.872730851 0.153712630 0.088416941
