hollywood-luts/Thor.cube
TITLE "17x17x17 Adobe/IRIDAS cube 3D LUT exported with GrossGrade v0.2.2 (beta) 64 bit"
DOMAIN_MIN 0 0 0
DOMAIN_MAX 1 1 1
LUT_3D_SIZE 5
0.001663000 0.000000000 0.000930000
0.182967260 0.000000000 0.000000000
0.395237505 0.000000000 0.000000000
0.612865746 0.000000000 0.001630501
0.835770011 0.000000000 0.008198000
0.000000000 0.147425756 0.000000000
0.219566256 0.177570269 0.000000000
0.464794010 0.200780749 0.000000000
0.690904498 0.193918496 0.000000000
0.918296993 0.180046007 0.000000000
0.000000000 0.318702519 0.003482000
0.224610999 0.373027503 0.000000000
0.519337475 0.420475006 0.000000000
0.743516803 0.465451539 0.000000000
0.982704997 0.472699523 0.000000000
0.000000000 0.493203998 0.011546001
0.175002247 0.545963287 0.000000000
0.529296517 0.620430768 0.000000000
0.771386981 0.661046505 0.007903001
0.996598005 0.729794979 0.000000000
0.000000000 0.666270018 0.026153000
0.118641764 0.719354749 0.000000000
0.498696506 0.802379966 0.000000000
0.763828516 0.847823024 0.044329002
0.969628990 0.877476990 0.014979000
0.000000000 0.000787500 0.173715010
0.168947756 0.000000000 0.170702517
0.374187261 0.000000000 0.165835500
0.597761035 0.000000000 0.174713761
0.826338470 0.000000000 0.192030251
0.000000000 0.153964013 0.164089739
0.193876997 0.174547002 0.182144254
0.454334766 0.190424502 0.194305271
0.687803268 0.173883513 0.195591256
0.924021721 0.140799507 0.206175506
0.000000000 0.328077763 0.182664514
0.180295259 0.369794548 0.182641268
0.503284514 0.425976008 0.216327503
0.757499456 0.468115002 0.242320001
0.997399271 0.469639748 0.251203507
0.000000000 0.511886060 0.211066753
0.111761265 0.551959515 0.185939506
0.504620552 0.630649507 0.236720011
0.778803289 0.679118991 0.284038246
1.002102017 0.736693740 0.263491273
0.000000000 0.689925790 0.240957245
0.054811507 0.738288224 0.204529509
0.484863758 0.819788039 0.266529769
0.763915718 0.869828999 0.317205518
0.980272770 0.897264242 0.319905251
0.000000000 0.001287000 0.332340002
0.144672751 0.000000000 0.350141764
0.355116010 0.000000000 0.341048002
0.564954758 0.000000000 0.338040769
0.785279512 0.000000000 0.364335507
0.000000000 0.161008269 0.339398265
0.151379019 0.169940770 0.372294784
0.414748013 0.169676751 0.381336033
0.651672006 0.149656504 0.378515244
0.889764965 0.135127008 0.405462265
0.000000000 0.339480519 0.355114520
0.139710993 0.374482751 0.389191031
0.455259025 0.425649017 0.425081015
0.741287470 0.462466538 0.459789008
0.984567046 0.472127020 0.479018509
0.000000000 0.540344000 0.403880298
0.093890503 0.574511766 0.411748290
0.471901059 0.644141316 0.452271760
0.775559247 0.701962769 0.496242523
1.002299547 0.744223237 0.516809762
0.000000000 0.722267509 0.430765510
0.068232507 0.764708042 0.429198027
0.474111527 0.841216445 0.477778524
0.759840488 0.897092223 0.515359521
0.985137999 0.919634998 0.529172480
0.000000000 0.001048000 0.486957014
0.109205253 0.000000000 0.524832010
0.339819521 0.000000000 0.521419287
0.571171522 0.000000000 0.521067977
0.759481788 0.000000000 0.525363743
0.000000000 0.166452006 0.520451307
0.086936250 0.168642744 0.548659325
0.368509769 0.161403507 0.570217013
0.637947261 0.142316759 0.580156446
0.847329259 0.123619251 0.581511021
0.000000000 0.351298273 0.526678801
0.081118748 0.375921786 0.568539023
0.401378244 0.418887764 0.611634016
0.709673285 0.452298999 0.644185543
0.940665781 0.466887295 0.657253563
0.000000000 0.556042492 0.571928263
0.086414509 0.591114759 0.599976540
0.450974286 0.658939004 0.653090000
0.758059502 0.720685780 0.701286256
0.997567534 0.743052006 0.730162501
0.000000000 0.743427992 0.604535758
0.074583508 0.785920262 0.622412503
0.477730781 0.865039945 0.675756991
0.762489021 0.924267232 0.717807293
0.987386465 0.947798252 0.737347245
0.000000000 0.002343000 0.637776017
0.060382005 0.000000000 0.680220008
0.316089511 0.000000000 0.690199018
0.569140017 0.000000000 0.688356757
0.767363012 0.000000000 0.685842991
0.000000000 0.167543501 0.695666790
0.012658501 0.167388007 0.714709997
0.322590530 0.164694503 0.737902939
0.620010257 0.149552003 0.762291491
0.845253766 0.112708017 0.759529769
0.000000000 0.362107038 0.697624505
0.014156752 0.382193029 0.737269759
0.371984482 0.433397532 0.788172483
0.696377516 0.474343538 0.842242241
0.932557464 0.470932543 0.846019983
0.000000000 0.563357532 0.721683502
0.039951757 0.595570266 0.764065981
0.439844251 0.673402011 0.836871743
0.748449206 0.736340761 0.901924968
0.981022775 0.743873000 0.912985981
0.000000000 0.746774971 0.754386008
0.057807010 0.791534722 0.792156756
0.483224988 0.881964505 0.865357518
0.768549025 0.949164748 0.924070716
0.985183001 0.969829023 0.946570992
